.local/share/ArgyllCMS/Microstep MAG274QRF-QD (ColorMunki).ccss
CCSS   

DESCRIPTOR "Microstep MAG274QRF-QD (ColorMunki)"
ORIGINATOR "Argyll ccxxmake"
CREATED "Tue Oct 19 23:11:33 2021"
REFERENCE "X-Rite ColorMunki"
REFERENCE_HASH "md5:e439112b531ee8725be77695e06be165"
FIT_METHOD "ΔE*94"
MANUFACTURER_ID "MSI"
MANUFACTURER "Microstep"
DISPLAY "MAG274QRF-QD"
TECHNOLOGY "LCD White LED IPS"
DISPLAY_TYPE_REFRESH "YES"
SPECTRAL_BANDS "106"
SPECTRAL_START_NM "380.000000"
SPECTRAL_END_NM "730.000000"
SPECTRAL_NORM "1.000000"

NUMBER_OF_FIELDS 107
BEGIN_DATA_FORMAT
SAMPLE_ID SPEC_380 SPEC_383 SPEC_387 SPEC_390 SPEC_393 SPEC_397 SPEC_400 SPEC_403 SPEC_407 SPEC_410 SPEC_413 SPEC_417 SPEC_420 SPEC_423 SPEC_427 SPEC_430 SPEC_433 SPEC_437 SPEC_440 SPEC_443 SPEC_447 SPEC_450 SPEC_453 SPEC_457 SPEC_460 SPEC_463 SPEC_467 SPEC_470 SPEC_473 SPEC_477 SPEC_480 SPEC_483 SPEC_487 SPEC_490 SPEC_493 SPEC_497 SPEC_500 SPEC_503 SPEC_507 SPEC_510 SPEC_513 SPEC_517 SPEC_520 SPEC_523 SPEC_527 SPEC_530 SPEC_533 SPEC_537 SPEC_540 SPEC_543 SPEC_547 SPEC_550 SPEC_553 SPEC_557 SPEC_560 SPEC_563 SPEC_567 SPEC_570 SPEC_573 SPEC_577 SPEC_580 SPEC_583 SPEC_587 SPEC_590 SPEC_593 SPEC_597 SPEC_600 SPEC_603 SPEC_607 SPEC_610 SPEC_613 SPEC_617 SPEC_620 SPEC_623 SPEC_627 SPEC_630 SPEC_633 SPEC_637 SPEC_640 SPEC_643 SPEC_647 SPEC_650 SPEC_653 SPEC_657 SPEC_660 SPEC_663 SPEC_667 SPEC_670 SPEC_673 SPEC_677 SPEC_680 SPEC_683 SPEC_687 SPEC_690 SPEC_693 SPEC_697 SPEC_700 SPEC_703 SPEC_707 SPEC_710 SPEC_713 SPEC_717 SPEC_720 SPEC_723 SPEC_727 SPEC_730 
END_DATA_FORMAT

NUMBER_OF_SETS 4
BEGIN_DATA
1 0.0672067 0.0672067 0.0672067 0.0672067 0.0672067 0.0672067 0.0672067 0.0786571 0.0993700 0.148560 0.229924 0.361684 0.631439 1.160440 2.158600 4.071213 7.785254 14.78860 27.21742 46.70552 70.68115 89.95931 94.09947 82.55895 64.67523 48.91827 37.49630 28.85065 22.09980 17.21386 13.98591 11.73815 9.793752 7.976379 6.470795 5.442193 5.011568 5.395955 7.028853 10.50864 16.42886 25.27779 37.12581 51.65783 68.00973 83.88119 95.79164 100.0000 94.26689 79.79174 60.98263 42.84025 28.35346 18.14882 11.51029 7.373034 4.841507 3.309919 2.399938 1.871987 1.610164 1.586546 1.792395 2.251724 3.065812 4.386968 6.448567 9.602485 14.33912 21.32454 31.20635 44.37898 60.52636 77.73178 91.85795 98.15325 94.27727 81.72429 64.44105 46.76871 31.78324 20.76213 13.37818 8.651182 5.669486 3.793075 2.601631 1.844805 1.334096 0.969508 0.720404 0.558746 0.439348 0.343676 0.279952 0.240058 0.207375 0.171106 0.145857 0.131029 0.105683 0.0959823 0.0981847 0.0999518 0.101947 0.107127 
2 -0.00360991 -0.00360991 -0.00360991 -0.00360991 -0.00360991 -0.00360991 -0.00360995 -0.00912572 -0.00409411 0.00147545 -0.000129743 0.00121675 0.0122104 0.0293622 0.0608907 0.112450 0.191974 0.338245 0.596684 0.957548 1.373076 1.672450 1.689770 1.433791 1.083772 0.802459 0.626644 0.516633 0.444629 0.400023 0.378469 0.361126 0.329242 0.283757 0.241552 0.213029 0.207933 0.235259 0.319731 0.503845 0.809303 1.273636 1.912218 2.711110 3.629783 4.527367 5.209532 5.477506 5.198323 4.424158 3.395175 2.388991 1.583867 1.020455 0.652729 0.422764 0.287167 0.209362 0.177642 0.192922 0.262317 0.389301 0.627741 1.021996 1.653088 2.664255 4.245976 6.674934 10.31923 15.70566 23.34265 33.49040 45.90929 59.12477 69.93622 74.69226 71.73329 62.27757 49.21793 35.75761 24.26543 15.81559 10.16073 6.522091 4.210496 2.744690 1.818670 1.240626 0.863537 0.612170 0.450678 0.338610 0.262384 0.213696 0.178760 0.140303 0.112360 0.0984163 0.0863779 0.0797982 0.0703569 0.0581948 0.0540531 0.0479185 0.0427979 0.0413412 
3 0.0140785 0.0140785 0.0140785 0.0140785 0.0140785 0.0140785 0.0140786 0.0246123 0.0294593 0.0128997 0.0239830 0.0379488 0.0726180 0.105972 0.181307 0.324003 0.591027 1.117710 2.057015 3.529946 5.343353 6.783036 7.067871 6.178218 4.888244 3.892105 3.425668 3.406693 3.689486 4.131700 4.541070 4.733715 4.596427 4.179671 3.701906 3.357368 3.306927 3.792220 5.220361 8.157577 13.17843 20.82371 31.31701 44.48858 59.61441 74.62308 86.24549 90.88837 86.31060 73.46299 56.38252 39.72385 26.34565 16.88430 10.70663 6.854541 4.489679 3.051658 2.176497 1.652998 1.351086 1.206094 1.190116 1.307054 1.564588 1.992003 2.652809 3.648164 5.139713 7.347956 10.49031 14.69629 19.88447 25.40784 29.90391 31.84111 30.53019 26.49151 20.94955 15.21747 10.32262 6.737795 4.333012 2.791355 1.808325 1.184333 0.799281 0.558183 0.399517 0.296522 0.222232 0.177271 0.147801 0.123904 0.103639 0.0904336 0.0803651 0.0717267 0.0614079 0.0595161 0.0488810 0.0457313 0.0451369 0.0407252 0.0451701 0.0647875 
4 0.0522110 0.0522110 0.0522110 0.0522110 0.0522110 0.0522110 0.0522112 0.0670348 0.0795833 0.118372 0.186071 0.312779 0.563111 1.046153 1.970278 3.752513 7.227672 13.77705 25.42750 43.80725 66.50533 84.84601 88.94798 78.17393 61.26946 46.19847 34.97876 26.10428 18.83687 13.31911 9.538222 6.995154 5.131947 3.702500 2.661358 1.971852 1.581585 1.460394 1.611650 2.038404 2.709804 3.555879 4.454294 5.242685 5.786612 5.979209 5.753531 5.116677 4.184967 3.145796 2.183795 1.425187 0.897824 0.558397 0.348238 0.226263 0.153899 0.109002 0.0795733 0.0659799 0.0582423 0.0501874 0.0419000 0.0362950 0.0450279 0.0553681 0.0626920 0.0751182 0.0997056 0.129461 0.172455 0.235647 0.314226 0.399451 0.472669 0.507025 0.503638 0.452198 0.365493 0.281164 0.212479 0.167419 0.148544 0.148802 0.172115 0.194768 0.211544 0.205902 0.178029 0.144715 0.114085 0.0853382 0.0622063 0.0417414 0.0299378 0.0198725 0.0118850 0.0120555 0.0120889 0.0109087 0.0100425 0.0119237 0.00534915 0.00736121 0.0114963 0.0157885 
END_DATA
