.local/share/DisplayCAL/storage/DisplayPort-2CRTV2/DisplayPort-2CRTV2.cal
CAL    

DESCRIPTOR "Argyll Device Calibration Curves"
ORIGINATOR "Argyll dispcal"
CREATED "Sat Nov 12 13:06:35 2022"
DEVICE_CLASS "DISPLAY"
COLOR_REP "RGB"
VIDEO_LUT_CALIBRATION_POSSIBLE "YES"
TV_OUTPUT_ENCODING "NO"
DEVICE_TYPE "n"
TARGET_WHITE_XYZ "98.702098 103.878168 112.970269"
TARGET_GAMMA "sRGB"
DEGREE_OF_BLACK_OUTPUT_OFFSET "1.0"
BLACK_POINT_CORRECTION "0.0"
BLACK_NEUTRAL_BLEND_RATE "4.0"
BLACK_POINT_HACK "YES"
QUALITY "low"

BEGIN_ARGYLL_DISPCAL_ARGS
-v2 -d3 -c1 -yn -P0.850177304965,0.118131868132,1.24867724868 -ql -t6500 -b120.0 -gs -f1.0 -k0 -A4.0 -b
END_ARGYLL_DISPCAL_ARGS


NUMBER_OF_FIELDS 4
BEGIN_DATA_FORMAT
RGB_I RGB_R RGB_G RGB_B
END_DATA_FORMAT

NUMBER_OF_SETS 256
BEGIN_DATA
0.00000000 0.00000000 0.00000000 0.00000000
0.00392157 0.00528923 0.01377940 0.00824804
0.00784314 0.01038810 0.02622270 0.01597070
0.01176470 0.01530670 0.03751060 0.02321670
0.01568630 0.02005450 0.04763710 0.03002870
0.01960780 0.02464020 0.05657840 0.03644240
0.02352940 0.02907190 0.06446360 0.04247990
0.02745100 0.03335760 0.07147830 0.04817630
0.03137250 0.03752110 0.07783090 0.05359160
0.03529410 0.04158100 0.08367830 0.05875250
0.03921570 0.04556610 0.08915070 0.06370800
0.04313730 0.04948850 0.09434490 0.06849020
0.04705880 0.05336100 0.09930930 0.07312070
0.05098040 0.05719020 0.10408200 0.07762900
0.05490200 0.06097280 0.10868400 0.08204840
0.05882350 0.06472340 0.11314300 0.08639740
0.06274510 0.06846190 0.11748700 0.09067870
0.06666670 0.07218710 0.12171800 0.09489170
0.07058820 0.07589930 0.12587000 0.09903400
0.07450980 0.07959470 0.12995600 0.10312500
0.07843140 0.08326330 0.13396400 0.10717000
0.08235290 0.08689200 0.13788800 0.11118400
0.08627450 0.09048170 0.14176200 0.11517400
0.09019610 0.09404710 0.14561400 0.11913100
0.09411760 0.09759060 0.14944900 0.12304200
0.09803920 0.10112800 0.15327100 0.12691400
0.10196100 0.10466800 0.15707500 0.13074500
0.10588200 0.10821400 0.16085400 0.13454300
0.10980400 0.11177600 0.16463100 0.13831900
0.11372500 0.11535500 0.16840900 0.14210200
0.11764700 0.11895100 0.17217900 0.14589500
0.12156900 0.12257500 0.17593200 0.14969700
0.12549000 0.12622600 0.17967500 0.15350500
0.12941200 0.12990700 0.18340100 0.15730500
0.13333300 0.13360200 0.18709200 0.16109400
0.13725500 0.13728900 0.19074200 0.16488700
0.14117600 0.14096600 0.19437200 0.16868400
0.14509800 0.14462800 0.19799800 0.17247900
0.14902000 0.14828200 0.20162100 0.17627500
0.15294100 0.15193800 0.20524000 0.18008100
0.15686300 0.15561000 0.20884600 0.18388700
0.16078400 0.15929600 0.21243800 0.18768800
0.16470600 0.16299800 0.21601800 0.19148400
0.16862700 0.16671100 0.21960000 0.19527600
0.17254900 0.17043300 0.22317900 0.19907500
0.17647100 0.17416800 0.22675200 0.20286500
0.18039200 0.17791600 0.23030300 0.20664000
0.18431400 0.18166500 0.23383600 0.21040100
0.18823500 0.18541400 0.23735600 0.21415800
0.19215700 0.18917400 0.24086900 0.21792300
0.19607800 0.19294300 0.24440800 0.22169200
0.20000000 0.19673000 0.24797800 0.22544500
0.20392200 0.20053200 0.25158000 0.22919100
0.20784300 0.20434500 0.25521200 0.23294500
0.21176500 0.20817100 0.25884800 0.23669400
0.21568600 0.21201200 0.26248700 0.24044300
0.21960800 0.21587400 0.26612800 0.24420000
0.22352900 0.21976200 0.26976800 0.24797600
0.22745100 0.22367400 0.27340400 0.25176700
0.23137300 0.22760300 0.27705100 0.25556900
0.23529400 0.23155600 0.28071400 0.25937900
0.23921600 0.23553600 0.28438900 0.26319200
0.24313700 0.23954500 0.28807500 0.26700900
0.24705900 0.24358600 0.29176400 0.27083100
0.25098000 0.24764000 0.29542000 0.27465700
0.25490200 0.25170100 0.29903700 0.27849200
0.25882400 0.25576300 0.30262900 0.28233600
0.26274500 0.25982000 0.30620600 0.28615800
0.26666700 0.26384500 0.30976100 0.28993000
0.27058800 0.26782900 0.31328200 0.29366500
0.27451000 0.27178300 0.31677000 0.29737600
0.27843100 0.27570100 0.32023000 0.30107700
0.28235300 0.27958700 0.32367900 0.30477200
0.28627500 0.28342200 0.32712200 0.30844900
0.29019600 0.28720900 0.33055700 0.31211100
0.29411800 0.29095800 0.33398900 0.31576600
0.29803900 0.29468200 0.33744100 0.31942100
0.30196100 0.29839600 0.34090800 0.32307800
0.30588200 0.30211200 0.34437400 0.32674400
0.30980400 0.30585500 0.34783800 0.33043500
0.31372500 0.30964000 0.35130900 0.33414700
0.31764700 0.31346000 0.35478600 0.33787100
0.32156900 0.31731100 0.35827200 0.34160700
0.32549000 0.32119400 0.36177600 0.34535000
0.32941200 0.32511200 0.36529900 0.34909300
0.33333300 0.32905900 0.36882600 0.35282400
0.33725500 0.33303600 0.37234900 0.35655100
0.34117600 0.33703800 0.37588000 0.36027300
0.34509800 0.34104900 0.37943500 0.36397300
0.34902000 0.34507000 0.38300800 0.36764500
0.35294100 0.34910600 0.38659900 0.37129100
0.35686300 0.35316500 0.39021400 0.37491500
0.36078400 0.35723900 0.39385100 0.37851200
0.36470600 0.36133400 0.39749300 0.38209100
0.36862700 0.36546400 0.40113800 0.38566600
0.37254900 0.36963000 0.40477600 0.38924600
0.37647100 0.37384500 0.40837200 0.39283400
0.38039200 0.37810700 0.41191700 0.39642600
0.38431400 0.38241200 0.41541100 0.40000200
0.38823500 0.38677200 0.41886600 0.40355400
0.39215700 0.39116700 0.42230800 0.40709100
0.39607800 0.39551200 0.42574400 0.41062900
0.40000000 0.39979000 0.42920000 0.41417500
0.40392200 0.40399400 0.43269500 0.41773200
0.40784300 0.40810200 0.43623100 0.42130200
0.41176500 0.41210500 0.43981500 0.42490000
0.41568600 0.41599900 0.44345400 0.42853100
0.41960800 0.41978200 0.44714000 0.43219000
0.42352900 0.42346300 0.45085800 0.43587800
0.42745100 0.42705100 0.45460000 0.43959000
0.43137300 0.43056700 0.45837800 0.44330600
0.43529400 0.43402400 0.46219100 0.44702200
0.43921600 0.43742500 0.46602300 0.45073900
0.44313700 0.44078400 0.46986500 0.45445600
0.44705900 0.44411400 0.47372100 0.45816400
0.45098000 0.44743300 0.47758600 0.46185700
0.45490200 0.45075600 0.48145200 0.46553500
0.45882400 0.45409500 0.48531300 0.46918600
0.46274500 0.45746500 0.48916900 0.47280300
0.46666700 0.46086900 0.49303600 0.47639000
0.47058800 0.46431200 0.49692200 0.47994600
0.47451000 0.46780000 0.50084200 0.48347200
0.47843100 0.47132000 0.50481500 0.48696800
0.48235300 0.47486500 0.50878100 0.49044300
0.48627500 0.47843200 0.51272500 0.49390900
0.49019600 0.48202300 0.51664900 0.49738400
0.49411800 0.48564500 0.52055000 0.50086200
0.49803900 0.48929300 0.52443100 0.50434200
0.50196100 0.49294800 0.52830100 0.50782400
0.50588200 0.49661000 0.53216800 0.51130900
0.50980400 0.50027900 0.53603200 0.51479700
0.51372500 0.50395800 0.53988300 0.51828500
0.51764700 0.50766400 0.54372400 0.52178000
0.52156900 0.51140000 0.54754500 0.52529200
0.52549000 0.51516000 0.55132900 0.52883000
0.52941200 0.51894000 0.55507100 0.53240500
0.53333300 0.52271500 0.55878600 0.53603200
0.53725500 0.52647700 0.56249500 0.53970500
0.54117600 0.53023500 0.56620500 0.54341400
0.54509800 0.53398400 0.56991000 0.54716000
0.54902000 0.53772000 0.57360800 0.55095600
0.55294100 0.54144100 0.57727700 0.55480300
0.55686300 0.54515300 0.58089600 0.55870900
0.56078400 0.54885700 0.58446200 0.56267500
0.56470600 0.55257100 0.58799900 0.56665800
0.56862700 0.55630400 0.59151100 0.57063800
0.57254900 0.56003400 0.59499800 0.57461100
0.57647100 0.56375600 0.59846700 0.57858400
0.58039200 0.56747500 0.60192500 0.58255600
0.58431400 0.57118200 0.60538900 0.58652100
0.58823500 0.57488500 0.60886000 0.59048500
0.59215700 0.57858700 0.61233300 0.59444900
0.59607800 0.58229000 0.61580800 0.59840600
0.60000000 0.58600500 0.61927800 0.60235400
0.60392200 0.58972600 0.62274100 0.60629600
0.60784300 0.59345400 0.62621000 0.61022400
0.61176500 0.59718100 0.62970100 0.61413600
0.61568600 0.60091100 0.63321000 0.61803200
0.61960800 0.60464900 0.63673900 0.62191800
0.62352900 0.60838400 0.64029900 0.62579300
0.62745100 0.61211700 0.64390000 0.62965300
0.63137300 0.61584000 0.64755600 0.63350000
0.63529400 0.61955800 0.65127500 0.63734700
0.63921600 0.62328900 0.65505200 0.64121200
0.64313700 0.62702800 0.65887600 0.64510000
0.64705900 0.63077500 0.66274500 0.64901500
0.65098000 0.63453500 0.66665900 0.65295700
0.65490200 0.63832300 0.67059600 0.65692600
0.65882400 0.64214800 0.67450700 0.66088600
0.66274500 0.64601300 0.67837100 0.66479300
0.66666700 0.64989900 0.68217900 0.66864000
0.67058800 0.65375300 0.68592200 0.67243000
0.67451000 0.65756900 0.68959500 0.67616800
0.67843100 0.66135300 0.69320700 0.67985900
0.68235300 0.66511400 0.69677100 0.68351200
0.68627500 0.66886200 0.70029800 0.68714200
0.69019600 0.67260900 0.70380100 0.69075000
0.69411800 0.67634600 0.70728700 0.69435000
0.69803900 0.68006500 0.71074800 0.69793600
0.70196100 0.68377900 0.71417900 0.70150000
0.70588200 0.68749000 0.71760600 0.70504800
0.70980400 0.69120600 0.72104300 0.70859600
0.71372500 0.69493800 0.72449100 0.71214900
0.71764700 0.69868400 0.72794600 0.71571200
0.72156900 0.70243900 0.73139500 0.71928000
0.72549000 0.70619900 0.73483200 0.72284200
0.72941200 0.70996100 0.73826200 0.72640100
0.73333300 0.71371600 0.74169000 0.72996300
0.73725500 0.71747800 0.74511600 0.73353100
0.74117600 0.72124800 0.74855000 0.73710700
0.74509800 0.72503300 0.75202100 0.74070100
0.74902000 0.72883300 0.75551500 0.74431100
0.75294100 0.73263300 0.75902300 0.74793800
0.75686300 0.73642400 0.76254800 0.75157700
0.76078400 0.74020300 0.76608800 0.75523000
0.76470600 0.74396900 0.76964100 0.75889900
0.76862700 0.74772800 0.77320000 0.76257200
0.77254900 0.75149200 0.77676100 0.76625600
0.77647100 0.75526400 0.78033300 0.76996000
0.78039200 0.75905100 0.78393600 0.77368400
0.78431400 0.76285300 0.78758200 0.77743500
0.78823500 0.76666600 0.79128500 0.78121600
0.79215700 0.77050200 0.79503800 0.78502900
0.79607800 0.77438700 0.79882700 0.78886600
0.80000000 0.77831600 0.80264200 0.79270400
0.80392200 0.78221200 0.80644400 0.79653900
0.80784300 0.78606200 0.81022900 0.80037300
0.81176500 0.78986700 0.81399900 0.80421400
0.81568600 0.79364400 0.81776100 0.80806500
0.81960800 0.79741400 0.82152900 0.81192400
0.82352900 0.80119300 0.82531100 0.81578000
0.82745100 0.80498700 0.82909600 0.81963400
0.83137300 0.80879200 0.83288300 0.82349500
0.83529400 0.81260500 0.83668300 0.82736200
0.83921600 0.81642100 0.84050000 0.83123500
0.84313700 0.82024600 0.84432900 0.83512100
0.84705900 0.82407500 0.84817800 0.83904000
0.85098000 0.82790800 0.85205800 0.84299200
0.85490200 0.83174900 0.85596200 0.84695200
0.85882400 0.83558300 0.85988000 0.85088400
0.86274500 0.83939800 0.86377700 0.85479500
0.86666700 0.84320700 0.86764300 0.85869200
0.87058800 0.84702100 0.87148600 0.86257000
0.87451000 0.85083600 0.87531800 0.86643400
0.87843100 0.85465300 0.87915900 0.87029000
0.88235300 0.85846200 0.88301800 0.87414900
0.88627500 0.86225700 0.88689800 0.87800100
0.89019600 0.86603700 0.89079900 0.88182400
0.89411800 0.86980600 0.89470200 0.88561700
0.89803900 0.87356500 0.89858900 0.88938800
0.90196100 0.87732100 0.90246400 0.89315100
0.90588200 0.88108200 0.90634400 0.89690600
0.90980400 0.88484500 0.91023300 0.90064100
0.91372500 0.88859800 0.91411500 0.90436100
0.91764700 0.89234300 0.91798000 0.90807400
0.92156900 0.89607400 0.92185100 0.91177300
0.92549000 0.89980600 0.92573200 0.91544700
0.92941200 0.90353900 0.92961000 0.91910900
0.93333300 0.90728000 0.93349300 0.92276600
0.93725500 0.91100900 0.93738100 0.92642300
0.94117600 0.91473600 0.94127100 0.93007300
0.94509800 0.91846500 0.94516900 0.93371600
0.94902000 0.92218900 0.94907100 0.93735600
0.95294100 0.92591000 0.95297900 0.94099100
0.95686300 0.92963000 0.95689200 0.94462100
0.96078400 0.93334700 0.96081000 0.94824700
0.96470600 0.93706200 0.96473200 0.95186800
0.96862700 0.94077400 0.96865800 0.95547900
0.97254900 0.94448300 0.97258600 0.95907800
0.97647100 0.94819100 0.97651600 0.96266700
0.98039200 0.95189700 0.98044800 0.96624400
0.98431400 0.95560100 0.98438200 0.96981000
0.98823500 0.95930400 0.98831800 0.97336500
0.99215700 0.96300400 0.99225500 0.97690900
0.99607800 0.96670300 0.99619500 0.98044200
1.00000000 0.97040000 1.00000000 0.98396400
END_DATA
CAL    

DESCRIPTOR "Argyll Calibration options and model"
ORIGINATOR "Argyll dispcal"
CREATED "Sat Nov 12 13:06:35 202"

NUMBER_OF_FIELDS 3
BEGIN_DATA_FORMAT
R_P G_P B_P
END_DATA_FORMAT

NUMBER_OF_SETS 32
BEGIN_DATA
0.0003128570 -0.0005315270 -0.0000751475
0.9996870000 1.0005300000 1.0000800000
1.7451600000 1.8154800000 1.6380500000
0.5105090000 0.6314850000 0.6156930000
0.1199090000 0.0672369000 0.0961727000
0.1019250000 0.0971000000 0.1134650000
0.0546265000 0.1046450000 0.1051380000
0.0513487000 0.1704860000 0.0918183000
0.0663709000 0.1089470000 0.0652322000
0.0679636000 0.0859939000 0.0612889000
0.0377520000 0.0563517000 0.0577412000
0.0298009000 0.0538377000 0.0523494000
0.0314372000 0.0583001000 0.0470949000
0.0273240000 0.0492397000 0.0391207000
0.0248944000 0.0507357000 0.0446708000
0.0227643000 0.0530179000 0.0427957000
0.0256253000 0.0406851000 0.0318469000
0.0256504000 0.0351457000 0.0261274000
0.0297685000 0.0400426000 0.0290712000
0.0225888000 0.0366202000 0.0282390000
0.0222633000 0.0424855000 0.0313892000
0.0201968000 0.0368694000 0.0266292000
0.0169809000 0.0341610000 0.0252677000
0.0185533000 0.0319772000 0.0192899000
0.0150075000 0.0288284000 0.0181756000
0.0142819000 0.0297098000 0.0199974000
0.0177212000 0.0321469000 0.0186667000
0.0149281000 0.0276615000 0.0172130000
0.0118547000 0.0239965000 0.0183048000
0.0131823000 0.0251501000 0.0175583000
0.0136783000 0.0235700000 0.0208996000
0.0121360000 0.0240336000 0.0163209000
END_DATA
