.local/share/DisplayCAL/dl/i1d3/HP_DreamColor_Z24x_NewPanel.ccss
CCSS   

ORIGINATOR "X-Rite"
CREATED "Fri Feb 03 00:49:29 2017"
DISPLAY ""
TECHNOLOGY "Unknown"
DISPLAY_TYPE_REFRESH "YES"
UI_SELECTORS "U"
REFERENCE "CS1000"
OEM "YES"
SPECTRAL_BANDS "351"
SPECTRAL_START_NM "380.000000"
SPECTRAL_END_NM "730.000000"
SPECTRAL_NORM "1.000000"
DESCRIPTOR "Not specified"

NUMBER_OF_FIELDS 352
BEGIN_DATA_FORMAT
SAMPLE_ID SPEC_380 SPEC_381 SPEC_382 SPEC_383 SPEC_384 SPEC_385 SPEC_386 SPEC_387 SPEC_388 SPEC_389 SPEC_390 SPEC_391 SPEC_392 SPEC_393 SPEC_394 SPEC_395 SPEC_396 SPEC_397 SPEC_398 SPEC_399 SPEC_400 SPEC_401 SPEC_402 SPEC_403 SPEC_404 SPEC_405 SPEC_406 SPEC_407 SPEC_408 SPEC_409 SPEC_410 SPEC_411 SPEC_412 SPEC_413 SPEC_414 SPEC_415 SPEC_416 SPEC_417 SPEC_418 SPEC_419 SPEC_420 SPEC_421 SPEC_422 SPEC_423 SPEC_424 SPEC_425 SPEC_426 SPEC_427 SPEC_428 SPEC_429 SPEC_430 SPEC_431 SPEC_432 SPEC_433 SPEC_434 SPEC_435 SPEC_436 SPEC_437 SPEC_438 SPEC_439 SPEC_440 SPEC_441 SPEC_442 SPEC_443 SPEC_444 SPEC_445 SPEC_446 SPEC_447 SPEC_448 SPEC_449 SPEC_450 SPEC_451 SPEC_452 SPEC_453 SPEC_454 SPEC_455 SPEC_456 SPEC_457 SPEC_458 SPEC_459 SPEC_460 SPEC_461 SPEC_462 SPEC_463 SPEC_464 SPEC_465 SPEC_466 SPEC_467 SPEC_468 SPEC_469 SPEC_470 SPEC_471 SPEC_472 SPEC_473 SPEC_474 SPEC_475 SPEC_476 SPEC_477 SPEC_478 SPEC_479 SPEC_480 SPEC_481 SPEC_482 SPEC_483 SPEC_484 SPEC_485 SPEC_486 SPEC_487 SPEC_488 SPEC_489 SPEC_490 SPEC_491 SPEC_492 SPEC_493 SPEC_494 SPEC_495 SPEC_496 SPEC_497 SPEC_498 SPEC_499 SPEC_500 SPEC_501 SPEC_502 SPEC_503 SPEC_504 SPEC_505 SPEC_506 SPEC_507 SPEC_508 SPEC_509 SPEC_510 SPEC_511 SPEC_512 SPEC_513 SPEC_514 SPEC_515 SPEC_516 SPEC_517 SPEC_518 SPEC_519 SPEC_520 SPEC_521 SPEC_522 SPEC_523 SPEC_524 SPEC_525 SPEC_526 SPEC_527 SPEC_528 SPEC_529 SPEC_530 SPEC_531 SPEC_532 SPEC_533 SPEC_534 SPEC_535 SPEC_536 SPEC_537 SPEC_538 SPEC_539 SPEC_540 SPEC_541 SPEC_542 SPEC_543 SPEC_544 SPEC_545 SPEC_546 SPEC_547 SPEC_548 SPEC_549 SPEC_550 SPEC_551 SPEC_552 SPEC_553 SPEC_554 SPEC_555 SPEC_556 SPEC_557 SPEC_558 SPEC_559 SPEC_560 SPEC_561 SPEC_562 SPEC_563 SPEC_564 SPEC_565 SPEC_566 SPEC_567 SPEC_568 SPEC_569 SPEC_570 SPEC_571 SPEC_572 SPEC_573 SPEC_574 SPEC_575 SPEC_576 SPEC_577 SPEC_578 SPEC_579 SPEC_580 SPEC_581 SPEC_582 SPEC_583 SPEC_584 SPEC_585 SPEC_586 SPEC_587 SPEC_588 SPEC_589 SPEC_590 SPEC_591 SPEC_592 SPEC_593 SPEC_594 SPEC_595 SPEC_596 SPEC_597 SPEC_598 SPEC_599 SPEC_600 SPEC_601 SPEC_602 SPEC_603 SPEC_604 SPEC_605 SPEC_606 SPEC_607 SPEC_608 SPEC_609 SPEC_610 SPEC_611 SPEC_612 SPEC_613 SPEC_614 SPEC_615 SPEC_616 SPEC_617 SPEC_618 SPEC_619 SPEC_620 SPEC_621 SPEC_622 SPEC_623 SPEC_624 SPEC_625 SPEC_626 SPEC_627 SPEC_628 SPEC_629 SPEC_630 SPEC_631 SPEC_632 SPEC_633 SPEC_634 SPEC_635 SPEC_636 SPEC_637 SPEC_638 SPEC_639 SPEC_640 SPEC_641 SPEC_642 SPEC_643 SPEC_644 SPEC_645 SPEC_646 SPEC_647 SPEC_648 SPEC_649 SPEC_650 SPEC_651 SPEC_652 SPEC_653 SPEC_654 SPEC_655 SPEC_656 SPEC_657 SPEC_658 SPEC_659 SPEC_660 SPEC_661 SPEC_662 SPEC_663 SPEC_664 SPEC_665 SPEC_666 SPEC_667 SPEC_668 SPEC_669 SPEC_670 SPEC_671 SPEC_672 SPEC_673 SPEC_674 SPEC_675 SPEC_676 SPEC_677 SPEC_678 SPEC_679 SPEC_680 SPEC_681 SPEC_682 SPEC_683 SPEC_684 SPEC_685 SPEC_686 SPEC_687 SPEC_688 SPEC_689 SPEC_690 SPEC_691 SPEC_692 SPEC_693 SPEC_694 SPEC_695 SPEC_696 SPEC_697 SPEC_698 SPEC_699 SPEC_700 SPEC_701 SPEC_702 SPEC_703 SPEC_704 SPEC_705 SPEC_706 SPEC_707 SPEC_708 SPEC_709 SPEC_710 SPEC_711 SPEC_712 SPEC_713 SPEC_714 SPEC_715 SPEC_716 SPEC_717 SPEC_718 SPEC_719 SPEC_720 SPEC_721 SPEC_722 SPEC_723 SPEC_724 SPEC_725 SPEC_726 SPEC_727 SPEC_728 SPEC_729 SPEC_730 
END_DATA_FORMAT

NUMBER_OF_SETS 4
BEGIN_DATA
1 0.00000 0.00000 0.0303240 0.0176810 0.00000 0.000783440 0.00000 0.00364660 0.0138340 0.0105230 0.00000 0.0268340 0.00000 0.00000 0.0182240 0.000779740 0.00000 0.00000 0.00000 0.00000 0.00254240 0.00603790 0.00467660 0.00532510 0.00440860 0.00798320 0.00912330 0.0264170 0.0158310 0.00978460 0.0156590 0.0310700 0.0374270 0.0361660 0.0639470 0.0885400 0.0985640 0.132400 0.165910 0.196620 0.260140 0.326230 0.429120 0.563320 0.664250 0.833970 1.041900 1.282400 1.544300 1.861600 2.249800 2.735300 3.223600 3.832600 4.553600 5.487000 6.488200 7.677200 8.958200 10.42200 12.09100 13.67700 15.15900 16.49200 17.50200 18.04800 18.18000 17.84500 17.00600 15.92400 14.66000 13.32300 11.88000 10.67900 9.665800 8.786200 8.004500 7.431000 6.934700 6.423300 5.961900 5.534400 5.065200 4.591900 4.098500 3.622400 3.238400 2.875500 2.545600 2.274300 2.070200 1.902900 1.755600 1.627800 1.531900 1.435900 1.351700 1.287000 1.193900 1.131300 1.081300 1.016300 0.971250 0.927530 0.886410 0.866710 0.867570 0.856040 0.872560 0.894230 0.932690 0.960130 1.019100 1.089800 1.183400 1.289000 1.410400 1.552000 1.724000 1.939700 2.170100 2.437600 2.712700 3.008600 3.321800 3.630000 3.989700 4.386600 4.837300 5.355200 5.925300 6.498300 7.087400 7.668500 8.127700 8.545500 8.942300 9.280500 9.623100 9.909000 10.19900 10.49300 10.83300 11.14300 11.46100 11.71200 11.91400 12.04700 12.07900 12.04300 11.91600 11.81000 11.62700 11.45200 11.27800 11.07900 10.80800 10.55100 10.30400 10.03100 9.737000 9.408200 9.063600 8.668400 8.294300 7.920500 7.501300 7.139400 6.783000 6.431000 6.110400 5.773500 5.451900 5.120400 4.778800 4.445800 4.128500 3.821800 3.539700 3.285300 3.020800 2.776700 2.546900 2.317800 2.117200 1.929100 1.752200 1.590900 1.441000 1.287600 1.157400 1.036700 0.922310 0.818010 0.728400 0.642560 0.562150 0.497690 0.439830 0.391200 0.353960 0.323710 0.314050 0.303770 0.311050 0.332090 0.360990 0.407470 0.455310 0.521820 0.601930 0.685980 0.778890 0.874030 0.984380 1.109900 1.266800 1.441700 1.592200 1.710400 1.808300 1.901000 2.018200 2.158400 2.300700 2.582800 3.246800 4.329600 5.418500 6.023000 6.581700 8.019400 10.33400 12.11400 11.87000 9.803600 7.409300 5.801500 5.060500 4.836100 4.709200 4.603800 4.572800 4.689200 4.907200 5.211300 5.793600 7.622000 12.19200 19.30500 25.72100 27.84400 25.75300 22.92600 21.42600 20.06100 16.75500 11.74100 7.347400 4.654500 3.353400 2.755300 2.483100 2.430800 2.766600 3.688500 4.996900 5.926900 5.865300 4.961800 3.850800 3.109400 2.730100 2.502200 2.297400 2.124100 1.977000 1.857700 1.750500 1.682600 1.616600 1.547400 1.461700 1.381800 1.326300 1.289100 1.287100 1.305000 1.331800 1.372200 1.389500 1.345300 1.274100 1.207600 1.136900 1.087000 1.054600 1.013400 0.985330 0.963340 0.932340 0.911830 0.886130 0.872800 0.844770 0.832430 0.815360 0.806880 0.779460 0.753730 0.736360 0.732640 0.715780 0.689350 0.675680 0.655910 0.634200 0.622130 0.606480 0.581960 0.566490 0.549340 0.545460 0.516850 0.489690 0.467690 0.468850 0.450310 0.435320 0.423570 0.410310 0.400270 0.376520 0.367240 0.358470 0.346460 0.334770 0.328790 0.317210 0.303160 0.295130 0.279190 0.265140 0.253310 0.242520 0.234570 0.229400 0.220210 0.211300 0.188210 0.200530 
2 0.00000 0.00532530 0.0103370 0.0109850 0.00489270 0.00000 0.00116390 0.0147910 0.00000 0.00000 0.000442950 0.0126590 0.0126520 0.00000 0.00000 0.00000 0.00599950 0.00000 0.00000 0.00000 0.00000 0.00000 0.00000 0.00000 0.00000 0.00000 0.00000 0.0115720 0.0133270 0.0115590 0.00000 0.00300810 0.00330040 0.00000 0.00000 0.00437150 0.00920140 0.00280960 0.00000 0.00885420 0.00509200 0.00000 0.00000 0.00171580 0.00000 0.000926750 0.00000 0.00109870 0.000110150 0.00311250 0.00909550 0.00208580 0.00186100 0.0106550 0.0157400 0.0127510 0.0190140 0.0219510 0.0306960 0.0352340 0.0341990 0.0343160 0.0367940 0.0524660 0.0502370 0.0459890 0.0467850 0.0440930 0.0489530 0.0515550 0.0363190 0.0280060 0.0320510 0.0315450 0.0203180 0.0260110 0.0160700 0.0131090 0.00888750 0.0144420 0.0205070 0.0116760 0.00430410 0.00000 0.00124010 0.00320390 0.00976460 0.0132130 0.00745000 0.00000 0.00261690 0.00560170 0.00418520 0.00490810 0.00667190 0.000871820 0.00000 0.00000 0.00000 0.00000 0.00000 0.000659960 0.00796100 0.00000 0.00000 0.00347440 0.00732630 0.00238150 0.00225290 0.00324450 0.00000 0.00000 0.00000 0.00000 0.000762080 0.0000837840 0.00000 0.00288650 0.000371420 0.000249860 0.00620030 0.00241470 0.00711820 0.00723010 0.00474370 0.00363100 0.00784360 0.0100800 0.00613990 0.00602260 0.00703100 0.00945280 0.0107600 0.00558870 0.0128740 0.0154600 0.0129520 0.00812030 0.0152300 0.0128530 0.00969360 0.0160100 0.0155950 0.0130420 0.0106860 0.0157820 0.0173460 0.0187930 0.0115180 0.0139950 0.0169580 0.0153280 0.0193730 0.0116070 0.0157040 0.0170130 0.0139910 0.0138480 0.0101560 0.00976930 0.0146640 0.0162770 0.00718380 0.00499510 0.00532090 0.00957630 0.00826110 0.00428510 0.00524960 0.00542020 0.00682050 0.00729000 0.00794090 0.00543000 0.00207730 0.00262130 0.00422090 0.00256300 0.00559270 0.00270610 0.00197910 0.00166900 0.000383800 0.00000 0.00109010 0.00507430 0.00000 0.00000 0.00182470 0.00176100 0.00105850 0.00163460 0.00428800 0.00271920 0.00411940 0.00123600 0.00952880 0.0178120 0.0228290 0.0307700 0.0406610 0.0581240 0.0807180 0.109470 0.144780 0.192420 0.245980 0.310120 0.374900 0.453110 0.543010 0.639100 0.733970 0.841750 0.951370 1.086400 1.240400 1.413000 1.575000 1.690200 1.778800 1.877300 1.992400 2.117000 2.259900 2.543900 3.197800 4.276800 5.365700 5.954200 6.501000 7.928400 10.22100 11.95500 11.71900 9.708700 7.330900 5.709800 5.017200 4.791100 4.643700 4.537000 4.524000 4.624700 4.864500 5.159100 5.734600 7.532000 12.02600 19.06700 25.42300 27.53700 25.41100 22.65600 21.16500 19.79500 16.54700 11.60700 7.245800 4.569600 3.299900 2.728000 2.437600 2.391500 2.727800 3.648900 4.930400 5.847500 5.819500 4.913500 3.807800 3.071100 2.687900 2.452800 2.258100 2.095500 1.947900 1.827600 1.739600 1.658900 1.590600 1.524200 1.440000 1.354300 1.301300 1.273100 1.262000 1.284300 1.319500 1.344100 1.361500 1.324500 1.260700 1.189900 1.122700 1.082700 1.038600 1.007200 0.976320 0.939680 0.916460 0.892940 0.871030 0.854410 0.847210 0.824330 0.811130 0.794400 0.764750 0.748900 0.733870 0.704320 0.678290 0.674610 0.662180 0.643200 0.620550 0.614490 0.575930 0.575330 0.560240 0.545610 0.527850 0.499430 0.485910 0.471370 0.463380 0.444160 0.440240 0.418540 0.402230 0.389670 0.371120 0.354960 0.370860 0.355560 0.336420 0.319070 0.297720 0.287910 0.281290 0.276360 0.275030 0.257100 0.239990 0.220380 0.228890 0.221910 0.200970 0.196740 0.198560 
3 0.00386700 0.000387730 0.00701330 0.00978780 0.00000 0.00000 0.00225880 0.00238600 0.00000 0.00000 0.00000 0.00000 0.00000 0.00000 0.00000 0.00000 0.00000 0.000455120 0.00429740 0.00000 0.00000 0.00000 0.00159620 0.00377700 0.00255120 0.00000 0.00000 0.00000 0.00000 0.00247460 0.00459240 0.00559790 0.00106840 0.00000 0.00000 0.00331860 0.00172770 0.000398260 0.00510130 0.00000 0.00000 0.00167610 0.00418140 0.00254250 0.00697990 0.0112270 0.00835680 0.00747510 0.0112250 0.0136460 0.0187460 0.0267080 0.0262300 0.0294710 0.0316490 0.0396400 0.0422560 0.0539610 0.0631680 0.0768490 0.0936800 0.109790 0.129460 0.148590 0.173660 0.198360 0.219230 0.237000 0.254590 0.265980 0.271940 0.269920 0.264690 0.262070 0.249680 0.233130 0.226420 0.212740 0.202270 0.190530 0.175600 0.168930 0.153240 0.138360 0.121800 0.105540 0.0929400 0.0823050 0.0736390 0.0686390 0.0687310 0.0716160 0.0776220 0.0879130 0.0963920 0.112340 0.131300 0.151490 0.173930 0.197370 0.217080 0.238730 0.263130 0.282980 0.301860 0.324280 0.346410 0.367820 0.395680 0.424710 0.464530 0.511310 0.562320 0.622750 0.694780 0.774820 0.874840 0.987820 1.120500 1.291000 1.473300 1.684300 1.921500 2.169600 2.439200 2.720600 3.026300 3.384200 3.794000 4.252500 4.753500 5.289000 5.833500 6.378000 6.829900 7.238500 7.648100 8.018900 8.388100 8.710500 9.017300 9.355800 9.731600 10.10700 10.46600 10.78900 11.05700 11.23200 11.33100 11.36300 11.32900 11.25900 11.14600 11.03600 10.88600 10.72200 10.49600 10.28700 10.04900 9.809000 9.528500 9.202700 8.881800 8.520000 8.148200 7.762400 7.366000 7.025100 6.668500 6.342600 6.025800 5.678800 5.361600 5.043900 4.717700 4.404000 4.074100 3.783600 3.509500 3.233200 2.989500 2.746200 2.518300 2.302700 2.104700 1.915900 1.740500 1.576600 1.420200 1.280300 1.152000 1.026800 0.913560 0.809290 0.717350 0.629050 0.552480 0.480150 0.413930 0.357470 0.307270 0.260040 0.223950 0.189080 0.157340 0.130770 0.110370 0.0899560 0.0740060 0.0597310 0.0479530 0.0393520 0.0334140 0.0263680 0.0201520 0.0154300 0.0133840 0.0112750 0.0100780 0.0107920 0.00763170 0.00565080 0.00445240 0.00484600 0.00464190 0.00487370 0.00481940 0.00435350 0.00614010 0.00634770 0.00704630 0.00713200 0.00983720 0.0111060 0.0113940 0.0113370 0.00743640 0.00531080 0.00462290 0.00414710 0.00427700 0.00385930 0.00347950 0.00352910 0.00337410 0.00401510 0.00594020 0.00738990 0.00973010 0.0156170 0.0208510 0.0233340 0.0227420 0.0204750 0.0190850 0.0169730 0.0136470 0.0115140 0.00926840 0.00421890 0.00286330 0.00292430 0.00313190 0.00248870 0.00336640 0.00442340 0.00581490 0.00487730 0.00583610 0.00588750 0.00369410 0.00384020 0.00344030 0.00180260 0.00349570 0.00265570 0.00193450 0.00138850 0.00313400 0.00275280 0.00270430 0.00158820 0.00212740 0.00100230 0.00215550 0.00321300 0.000984990 0.00136430 0.00309260 0.00195470 0.000645840 0.00342510 0.00330170 0.00174490 0.000772910 0.000605730 0.00000 0.00106250 0.00231930 0.00185950 0.00180180 0.00203530 0.00313470 0.000459590 0.00167180 0.00337920 0.000827150 0.00165160 0.00498580 0.00366640 0.00143190 0.00160700 0.00357910 0.00531350 0.00600440 0.00429850 0.00433640 0.00241150 0.00534670 0.00432080 0.00298840 0.00443710 0.00816170 0.00347060 0.00292630 0.00398170 0.00570020 0.00517390 0.00537400 0.00480680 0.00297070 0.00603180 0.00698680 0.00449500 0.00532410 0.00415670 0.00378640 0.00390990 0.00183850 0.00134560 0.00543350 0.00774920 0.00471280 0.00555030 0.00490120 0.00547090 0.00383740 0.00497280 0.00416380 0.00519550 0.00476560 
4 0.00270560 0.00162590 0.00287880 0.00475500 0.0120390 0.00362220 0.00494610 0.00920530 0.000614140 0.00340330 0.00397810 0.00664400 0.00503310 0.00660870 0.0102870 0.000464930 0.00807650 0.00483530 0.00195410 0.00170630 0.000741850 0.00635300 0.00800970 0.00818400 0.00513660 0.00301520 0.00313810 0.00897140 0.00975970 0.0134970 0.0161120 0.0255440 0.0372650 0.0475030 0.0573620 0.0774650 0.101030 0.119820 0.162640 0.210520 0.266970 0.333160 0.426550 0.540720 0.668960 0.830020 1.026800 1.260300 1.517800 1.826000 2.199800 2.654500 3.153600 3.730500 4.432700 5.324800 6.296500 7.426100 8.696400 10.14100 11.73000 13.25600 14.71100 16.02000 16.98300 17.53000 17.64500 17.29700 16.46500 15.42200 14.13900 12.80900 11.40800 10.27300 9.263100 8.414700 7.661100 7.086700 6.602300 6.154800 5.704500 5.283200 4.861100 4.403400 3.945700 3.488800 3.106400 2.765800 2.446600 2.179000 1.976400 1.811000 1.665500 1.525400 1.417300 1.302700 1.201400 1.107600 1.012100 0.919420 0.838910 0.765970 0.690620 0.636070 0.584460 0.542150 0.507710 0.483090 0.468010 0.454970 0.448110 0.445900 0.452750 0.462980 0.478560 0.502410 0.525160 0.555360 0.588150 0.624740 0.668200 0.717830 0.763180 0.805720 0.844600 0.881360 0.921250 0.960410 1.001100 1.048400 1.094400 1.138800 1.182800 1.211900 1.217000 1.211000 1.191200 1.168100 1.131900 1.094400 1.048900 1.007300 0.958590 0.901380 0.849720 0.789100 0.727250 0.661790 0.595610 0.532160 0.466890 0.407580 0.351670 0.305270 0.262060 0.223540 0.189130 0.161730 0.135890 0.114930 0.0972090 0.0814780 0.0680020 0.0583080 0.0481380 0.0392020 0.0354180 0.0308210 0.0255610 0.0225820 0.0200730 0.0174410 0.0159380 0.0148910 0.0133170 0.0115000 0.0100720 0.00904840 0.00811190 0.00873140 0.00780040 0.00576450 0.00665800 0.00692030 0.00657740 0.00574320 0.00492220 0.00450860 0.00397960 0.00389580 0.00324570 0.00271630 0.00195420 0.00293040 0.00274180 0.00252290 0.00153900 0.00223630 0.00181610 0.00216970 0.00382520 0.00204250 0.000786150 0.00164170 0.00219770 0.00171590 0.00175330 0.00148620 0.00151110 0.00132580 0.00144670 0.00116690 0.000956930 0.00164940 0.00238260 0.00165880 0.00133460 0.000440360 0.00101540 0.00131970 0.00206230 0.00334130 0.00161560 0.00192420 0.00262200 0.00276340 0.00297330 0.00375340 0.00533420 0.00525020 0.00714530 0.00658370 0.00950580 0.0103550 0.00993680 0.00874370 0.00706160 0.00548080 0.00406060 0.00356890 0.00461890 0.00347000 0.00455640 0.00522370 0.00475970 0.00537470 0.00559560 0.00773830 0.00988620 0.0148330 0.0229160 0.0250800 0.0236130 0.0214730 0.0187050 0.0192390 0.0173710 0.0125610 0.00832780 0.00487220 0.00395590 0.00343170 0.00223660 0.00318140 0.00342420 0.00389460 0.00558900 0.00717010 0.00678270 0.00449630 0.00535570 0.00610950 0.00500240 0.00458160 0.00510650 0.00397910 0.00373380 0.00372530 0.00348450 0.00342230 0.00263370 0.00391790 0.00376430 0.00172200 0.00227480 0.00113360 0.00185870 0.00317650 0.00473140 0.00537000 0.00397400 0.00382880 0.00302940 0.00224840 0.00216700 0.00322660 0.00242290 0.000484520 0.000156750 0.00173450 0.00335740 0.00148290 0.00134770 0.00236910 0.00259980 0.00256850 0.00210980 0.00198340 0.00251700 0.00384120 0.00394430 0.00118530 0.00195670 0.00205190 0.00207820 0.00236460 0.00122430 0.00118000 0.00105470 0.00220520 0.00223620 0.00285090 0.00123480 0.000573240 0.00000 0.0000914830 0.00286660 0.00218390 0.00111330 0.000495530 0.000762830 0.00166090 0.00181640 0.00110710 0.000765860 0.000528340 0.00000 0.00276670 0.00628890 0.00343700 0.00189290 0.00275020 0.00338280 0.00620790 0.00507300 0.00395620 0.00422310 0.00419980 0.00221820 0.00310580 0.00436730 
END_DATA
