.local/share/DisplayCAL/dl/i1d3/LG OLED 6-Series (i1 Pro 2, ColorMunki Photo).ccss
CCSS   

DESCRIPTOR "LG OLED 6-Series (i1 Pro 2, ColorMunki Photo)"
ORIGINATOR "Argyll ccxxmake"
CREATED "Tue Mar 28 22:45:09 2017"
REFERENCE "X-Rite i1 Pro 2, ColorMunki Photo"
MANUFACTURER_ID "GSM"
MANUFACTURER "Goldstar Company Ltd"
DISPLAY "LG OLED 6-Series"
TECHNOLOGY "LED WOLED"
DISPLAY_TYPE_REFRESH "NO"
SPECTRAL_BANDS "109"
SPECTRAL_START_NM "370.000000"
SPECTRAL_END_NM "730.000000"
SPECTRAL_NORM "1.000000"

NUMBER_OF_FIELDS 110
BEGIN_DATA_FORMAT
SAMPLE_ID SPEC_370 SPEC_373 SPEC_377 SPEC_380 SPEC_383 SPEC_387 SPEC_390 SPEC_393 SPEC_397 SPEC_400 SPEC_403 SPEC_407 SPEC_410 SPEC_413 SPEC_417 SPEC_420 SPEC_423 SPEC_427 SPEC_430 SPEC_433 SPEC_437 SPEC_440 SPEC_443 SPEC_447 SPEC_450 SPEC_453 SPEC_457 SPEC_460 SPEC_463 SPEC_467 SPEC_470 SPEC_473 SPEC_477 SPEC_480 SPEC_483 SPEC_487 SPEC_490 SPEC_493 SPEC_497 SPEC_500 SPEC_503 SPEC_507 SPEC_510 SPEC_513 SPEC_517 SPEC_520 SPEC_523 SPEC_527 SPEC_530 SPEC_533 SPEC_537 SPEC_540 SPEC_543 SPEC_547 SPEC_550 SPEC_553 SPEC_557 SPEC_560 SPEC_563 SPEC_567 SPEC_570 SPEC_573 SPEC_577 SPEC_580 SPEC_583 SPEC_587 SPEC_590 SPEC_593 SPEC_597 SPEC_600 SPEC_603 SPEC_607 SPEC_610 SPEC_613 SPEC_617 SPEC_620 SPEC_623 SPEC_627 SPEC_630 SPEC_633 SPEC_637 SPEC_640 SPEC_643 SPEC_647 SPEC_650 SPEC_653 SPEC_657 SPEC_660 SPEC_663 SPEC_667 SPEC_670 SPEC_673 SPEC_677 SPEC_680 SPEC_683 SPEC_687 SPEC_690 SPEC_693 SPEC_697 SPEC_700 SPEC_703 SPEC_707 SPEC_710 SPEC_713 SPEC_717 SPEC_720 SPEC_723 SPEC_727 SPEC_730 
END_DATA_FORMAT

NUMBER_OF_SETS 8
BEGIN_DATA
1 0.382954 0.183588 0.104384 0.0829236 0.0710834 0.0633842 0.0636536 0.0695695 0.0607908 0.0571655 0.0702944 0.122636 0.185249 0.308915 0.511503 0.812911 1.361335 2.396902 4.548294 8.926593 16.60395 28.06240 43.37953 61.51341 79.57094 93.40118 100.0000 98.69137 91.71544 82.47289 73.36678 65.83611 59.62740 54.03239 48.80679 43.65223 38.64604 34.03147 29.89278 26.42075 23.85832 22.29789 21.76777 22.48150 24.37433 27.04725 30.53267 34.96593 39.82702 44.60659 49.44483 54.11572 57.90391 60.69090 62.63403 63.55002 63.39999 62.58987 61.36639 59.51991 56.96307 53.94738 50.68368 47.28397 44.03760 41.49600 39.99354 39.61012 40.16155 41.31159 42.58614 43.43698 43.42783 42.46457 40.71438 38.41040 35.73794 32.89558 30.02642 27.20690 24.53123 22.07246 19.87525 17.96230 16.31450 14.88747 13.59034 12.40061 11.31912 10.33263 9.429406 8.561052 7.734510 6.940559 6.187925 5.509894 4.914232 4.415782 3.931115 3.480956 3.084688 2.766545 2.456280 2.170061 1.890284 1.692262 1.563842 1.436278 1.298054 
2 0.157289 0.128514 0.0823071 0.0307497 0.0264364 0.0416081 0.0460531 0.0348390 0.0256272 0.0187596 0.0130490 0.0304355 0.0233963 0.0187380 0.0290838 0.0322078 0.0303716 0.0213388 0.0238741 0.0187643 0.0153927 0.0184675 0.0154066 0.0246166 0.0373339 0.0483748 0.0451514 0.0403794 0.0400142 0.0397141 0.0355781 0.0342685 0.0375573 0.0344089 0.0309284 0.0335122 0.0310902 0.0234154 0.0245060 0.0267597 0.0161905 0.0187796 0.0227244 0.0250861 0.0305384 0.0189620 0.0180229 0.0321083 0.0310845 0.0235507 0.0274510 0.0298505 0.0297250 0.0215137 0.0158580 0.0108714 0.0145366 0.0242148 0.0284172 0.0252489 0.0170568 0.0210965 0.0393663 0.110767 0.430558 1.504944 4.328222 10.07941 19.21996 30.86387 43.10449 53.82885 61.48846 65.65683 66.76175 65.49781 62.57282 58.61923 54.15862 49.57397 45.10871 40.90761 37.05011 33.59166 30.57389 27.88668 25.42243 23.15230 21.11295 19.27010 17.59338 16.01679 14.51377 13.08677 11.70192 10.42125 9.249330 8.214318 7.299721 6.440092 5.689739 5.034680 4.417071 3.884178 3.427904 3.029709 2.718647 2.437568 2.094913 
3 0.197903 0.109365 0.0748971 0.0397904 0.0204109 0.0277848 0.0101501 -0.00000 0.0164537 0.0229597 0.0249722 0.0217495 0.0111252 0.00856799 0.00655469 0.00633201 0.0101188 0.00647910 -0.00000 0.0102715 0.00760867 0.0101162 0.0208357 0.0439228 0.0710576 0.0806211 0.0655287 0.0438861 0.0369782 0.0431579 0.0708008 0.163857 0.558344 1.916558 5.576629 12.65866 21.97089 30.24451 34.89821 35.88820 35.02907 33.98130 33.70811 34.90191 37.54112 40.99500 45.25401 50.43208 55.75803 60.44746 64.50187 67.52427 68.70997 68.10651 65.99365 62.27067 57.06163 50.95717 44.40304 37.56122 30.72302 24.27741 18.47731 13.44421 9.291804 6.065461 3.711043 2.119809 1.126551 0.572388 0.287561 0.155293 0.0947403 0.0640615 0.0504265 0.0490438 0.0433437 0.0377163 0.0366239 0.0370777 0.0426440 0.0486135 0.0480476 0.0392255 0.0387109 0.0387945 0.0390543 0.0584255 0.0825147 0.0953187 0.106205 0.123354 0.138843 0.189619 0.207037 0.220546 0.232786 0.235731 0.214636 0.210888 0.246151 0.281684 0.292675 0.266575 0.230060 0.251208 0.258961 0.238248 0.276502 
4 0.264545 0.161760 0.114216 0.0825481 0.0721943 0.0959329 0.0953019 0.0742972 0.0734048 0.0619136 0.0709304 0.112135 0.165616 0.276466 0.449336 0.746125 1.262270 2.222858 4.268891 8.465394 16.00353 27.48101 42.89447 60.71374 77.63534 89.73380 94.54957 91.75018 83.42887 72.78639 62.20182 52.92714 44.69514 37.03196 29.83745 23.08973 17.16425 12.37565 8.724734 6.100762 4.292690 3.059266 2.214829 1.618139 1.173034 0.840745 0.614079 0.477855 0.409648 0.382005 0.382944 0.387608 0.386808 0.375368 0.348363 0.304193 0.247366 0.210242 0.184459 0.171045 0.160395 0.158611 0.175188 0.173413 0.178525 0.193652 0.198685 0.188899 0.182177 0.189429 0.181649 0.178364 0.171903 0.164428 0.149913 0.148701 0.169707 0.176889 0.181792 0.202163 0.224946 0.249755 0.279797 0.324885 0.369237 0.398608 0.430941 0.471865 0.524031 0.578163 0.617741 0.618703 0.596018 0.572970 0.521039 0.483659 0.463261 0.433540 0.399887 0.377884 0.346760 0.308777 0.268473 0.252523 0.244507 0.237258 0.272964 0.305616 0.253678 
5 0 0 0 0.09380840 0.09380840 0.09380840 0.09380840 0.09380840 0.09380840 0.09381080 0.11189100 0.16066900 0.23451600 0.35408200 0.53761200 0.84036600 1.41307400 2.51770000 4.69332200 8.90360100 16.3251700 27.8438700 43.4130700 61.2679500 78.3801900 91.6932500 99.2558300 100.000000 94.3511900 85.5609700 76.2872300 68.0710300 61.0215900 54.7229300 49.1022900 43.9840300 39.2038600 34.6524900 30.3201300 26.6061300 24.0020600 22.7177800 22.7273800 23.8411500 25.8972000 28.7321200 32.2584700 36.4621800 41.1770700 46.1389900 50.9560200 55.2878400 58.9616400 61.7234200 63.4236100 64.0826300 63.6637000 62.2820700 60.2117200 57.6645900 54.8257300 51.8983700 48.9595700 46.0224800 43.1929900 40.7973700 39.2793000 38.9953800 40.0705400 42.0204800 44.0633000 45.4630600 45.7797900 44.9204800 43.0579100 40.4710100 37.4196700 34.1629400 30.9375200 27.8670700 25.0264900 22.4685200 20.1846200 18.1436700 16.3329000 14.7412300 13.3325300 12.0960200 11.0254900 10.0643100 9.17212500 8.32274900 7.52101000 6.74534000 6.01554100 5.34744800 4.73826000 4.18027600 3.68653200 3.24996600 2.86281800 2.52864800 2.23849800 1.97605800 1.74175300 1.53545500 1.36270600 1.20638900 1.05815500
6 0 0 0 0.01942140 0.01942140 0.01942140 0.01942140 0.01942140 0.01942140 0.01942080 0.01291260 0.01206600 0.00400346 -0.01008410 -0.01677470 -0.02314750 -0.00632527 0.00571208 -0.0000000 0.00000000 0.01509930 0.02301520 0.01969770 0.01448430 0.02617880 0.02591490 0.03255660 0.02272670 0.02515660 0.02647270 0.02448320 0.02393930 0.03581590 0.03213680 0.02121310 0.01797590 0.02449530 0.02411010 0.02681750 0.02422570 0.02384410 0.02903770 0.02372770 0.02736630 0.03277070 0.03437910 0.03741270 0.03904050 0.04957450 0.06315940 0.07543810 0.08890170 0.09160860 0.08735490 0.08787590 0.08944040 0.08684650 0.09445450 0.09788010 0.09055750 0.09274770 0.10456600 0.14678800 0.30057400 0.82722800 2.39083200 6.12718500 13.2158900 23.8659100 36.7254100 49.4452800 59.8610200 66.8284500 70.2040500 70.4325400 68.2220700 64.3423200 59.5512600 54.4373000 49.3744400 44.6184500 40.2655900 36.3387700 32.7934500 29.6056600 26.7811100 24.2881500 22.1087200 20.1751500 18.4151600 16.7806800 15.2052400 13.7152300 12.3249100 11.0261900 9.81195000 8.70481700 7.70106000 6.79257800 5.98100500 5.26394000 4.62625000 4.06519900 3.57235500 3.14887700 2.78044400 2.44547000 2.14928000 1.88386000
7 0 0 0 0.05562730 0.05562730 0.05562730 0.05562730 0.05562730 0.05562730 0.05562970 0.07488740 0.11987200 0.19440600 0.30425700 0.46078500 0.75286800 1.29968700 2.37797100 4.55667700 8.83946200 16.4462100 28.3182500 44.4771700 63.0482700 80.6034500 93.4425800 99.3462700 97.7625300 89.9531300 79.3734100 68.3068500 58.0150900 48.6597800 39.9623300 31.9400100 24.6180800 18.2644800 13.1239100 9.20026100 6.40094300 4.51524000 3.27114800 2.41564100 1.78604100 1.31296800 0.96177000 0.71792100 0.56843400 0.48370000 0.44602000 0.44320300 0.45754500 0.46876200 0.46855600 0.44496300 0.41127700 0.37790700 0.34745500 0.33702700 0.33006500 0.33633700 0.34713100 0.36331900 0.38258100 0.39562600 0.40309600 0.40280300 0.39510900 0.39099900 0.37860100 0.35596900 0.33805400 0.32447800 0.30158500 0.27592300 0.25752900 0.24530500 0.23700800 0.22516500 0.22303000 0.23651000 0.25568300 0.27100400 0.28842000 0.30564500 0.32974800 0.35161200 0.37146000 0.39431500 0.41349400 0.42136100 0.41800400 0.40576300 0.38786200 0.36053200 0.32872500 0.29915400 0.27442500 0.24213900 0.21304800 0.19080300 0.16219000 0.13444300 0.12087100 0.09945360 0.08181370 0.06563020 0.05283480 0.05243670
8 0 0 0 0.03028440 0.03028440 0.03028440 0.03028440 0.03028440 0.03028440 0.03028460 0.03009360 0.03083570 0.02119450 0.01512340 0.02622090 0.02168180 0.02450110 0.03494480 0.02658070 0.02058780 0.02878170 0.04139770 0.07344860 0.13706600 0.19673300 0.23234600 0.22212200 0.17373300 0.13708800 0.14038400 0.18319400 0.31029300 0.74687400 2.14631700 5.80022200 12.8045200 21.9221100 29.8211200 34.0811700 34.9557800 34.0938700 33.0776800 33.1524200 34.6827200 37.3669300 40.8507800 45.0991900 50.1260100 55.4102200 60.1654500 63.8454500 66.2860300 67.4108300 66.8702200 64.4148000 60.2366200 54.7530900 48.4755600 41.8320300 35.0722900 28.4262300 22.2062700 16.7064700 12.0530800 8.27484500 5.37261700 3.28123200 1.87420900 1.02312500 0.56004700 0.31648600 0.19586200 0.13961200 0.11754700 0.10869000 0.09660070 0.08783490 0.08493700 0.07695060 0.07380600 0.07033200 0.06278470 0.06723340 0.06929990 0.06694670 0.06783210 0.07086140 0.07049570 0.07662060 0.08193270 0.08329620 0.09035710 0.10224400 0.11524200 0.13332000 0.15135800 0.16772300 0.16401700 0.15580500 0.15990300 0.15476700 0.14168400 0.13822200 0.13460600 0.12181700 0.11397100 0.10202100 0.09364880 0.09132590
END_DATA
