.local/share/DisplayCAL/storage/DisplayPort-2CRT/DisplayPort-2CRT.bpc.ti3
CTI3   

DESCRIPTOR "Argyll Calibration Target chart information 3"
ORIGINATOR "Argyll dispread"
CREATED "Fri Nov 11 00:09:12 2022"
DEVICE_CLASS "DISPLAY"
SINGLE_DIM_STEPS "5"
COMP_GREY_STEPS "52"
MULTI_DIM_STEPS "5"
COLOR_REP "RGB_XYZ"
TARGET_INSTRUMENT "X-Rite i1 DisplayPro, ColorMunki Display"
DISPLAY_TYPE_REFRESH "NO"
DISPLAY_TYPE_BASE_ID "1"
INSTRUMENT_TYPE_SPECTRAL "NO"
LUMINANCE_XYZ_CDM2 "93.562047 98.514888 106.987630"
NORMALIZED_TO_Y_100 "YES"
VIDEO_LUT_CALIBRATION_POSSIBLE "YES"

BEGIN_ARGYLL_COLPROF_ARGS
-v -qh -aX -bn -C "No copyright. Created with DisplayCAL 3.8.9.3 and ArgyllCMS 2.3.1" -M "Monitor 3, Output DisplayPort-2"
END_ARGYLL_COLPROF_ARGS

OBSERVER "1931_2"
USE_BLACK_POINT_COMPENSATION "NO"
BLACK_POINT_CORRECTION "0.0"
HIRES_B2A "YES"
HIRES_B2A_SIZE "-1"
SMOOTH_B2A "YES"
PATCH_SEQUENCE "OPTIMIZE_DISPLAY_RESPONSE_DELAY"

NUMBER_OF_FIELDS 7
BEGIN_DATA_FORMAT
SAMPLE_ID RGB_R RGB_G RGB_B XYZ_X XYZ_Y XYZ_Z
END_DATA_FORMAT

NUMBER_OF_SETS 175
BEGIN_DATA
1 100.00000 100.00000 100.00000 94.972500 100.00000 108.60000
2 100.00000 100.00000 75.000000 86.318908 96.085404 61.977142
3 100.00000 100.00000 100.00000 95.060900 100.03500 108.60000
4 100.00000 100.00000 100.00000 95.134400 100.11100 108.78200
5 0.0000000 0.0000000 0.0000000 0.0772344 0.0813229 0.0883166
6 25.000000 0.0000000 0.0000000 2.5023824 1.4419189 0.1945393
7 50.000000 0.0000000 0.0000000 10.222076 5.8302750 0.4757726
8 75.000000 0.0000000 0.0000000 24.481364 13.958178 1.0105171
9 100.00000 0.0000000 0.0000000 47.276743 27.077366 1.9109463
10 100.00000 0.0000000 25.000000 48.390242 27.377766 6.9357318
11 100.00000 25.000000 25.000000 49.577741 30.894062 7.5613112
12 100.00000 50.000000 25.000000 54.692036 41.401753 9.3416996
13 100.00000 75.000000 25.000000 63.698628 60.787935 12.738087
14 0.0000000 0.0000000 25.000000 1.0459242 0.5153608 5.0500570
15 25.000000 0.0000000 25.000000 3.4312594 1.8753986 5.1509324
16 75.000000 0.0000000 100.00000 42.995947 22.382970 98.446509
17 100.00000 0.0000000 100.00000 65.801726 35.371558 99.198209
18 1.9608000 1.9608000 1.9608000 0.1984925 0.1928131 0.2172693
19 3.9216000 3.9216000 3.9216000 0.3525606 0.3483489 0.3853841
20 5.8824000 5.8824000 5.8824000 0.5255416 0.5334598 0.5879708
21 7.8431000 7.8431000 7.8431000 0.7421913 0.7527456 0.8287627
22 9.8039000 9.8039000 9.8039000 0.9631519 1.0034893 1.0990759
23 11.765000 11.765000 11.765000 1.2659882 1.3135891 1.4492617
24 13.726000 13.726000 13.726000 1.6411481 1.6844687 1.8552565
25 15.686000 15.686000 15.686000 2.0616925 2.1264783 2.3075949
26 17.647000 17.647000 17.647000 2.5301225 2.6121479 2.8854596
27 19.608000 19.608000 19.608000 3.0335326 3.2062174 3.4931095
28 21.569000 21.569000 21.569000 3.7441090 3.8908467 4.2606825
29 23.529000 23.529000 23.529000 4.3585007 4.5989061 5.0695229
30 27.451000 27.451000 27.451000 5.8035804 6.1919547 6.7499019
31 29.412000 29.412000 29.412000 6.8561795 7.1136938 7.7619010
32 31.373000 31.373000 31.373000 7.6254589 7.9452831 8.9411800
33 33.333000 33.333000 33.333000 8.9022277 9.2998419 9.9282491
34 35.294000 35.294000 35.294000 9.6481371 10.103881 11.154388
35 37.255000 37.255000 37.255000 10.800676 11.329380 12.418387
36 39.216000 39.216000 39.216000 11.858275 12.451579 13.566886
37 41.176000 41.176000 41.176000 13.229974 14.159077 15.507984
38 43.137000 43.137000 43.137000 14.919872 15.594776 17.189483
39 45.098000 45.098000 45.098000 16.398871 17.000475 18.355482
40 47.059000 47.059000 47.059000 17.893970 18.716673 20.291480
41 49.020000 49.020000 49.020000 19.620468 20.505472 22.482078
42 50.980000 50.980000 50.980000 21.259467 22.258970 24.677976
43 52.941000 52.941000 52.941000 22.867465 24.294668 25.395875
44 54.902000 54.902000 54.902000 25.136063 26.354366 29.235572
45 56.863000 56.863000 56.863000 26.924561 28.428865 30.387471
46 58.824000 58.824000 58.824000 29.221759 30.562663 34.198167
47 60.784000 60.784000 60.784000 31.117158 32.673361 35.436366
48 62.745000 62.745000 62.745000 33.313456 35.013859 37.603164
49 64.706000 64.706000 64.706000 35.613154 37.471856 40.348362
50 66.667000 66.667000 66.667000 38.109751 40.115254 43.276159
51 68.627000 68.627000 68.627000 40.606349 42.758652 46.204056
52 70.588000 70.588000 70.588000 43.264847 45.513149 49.313554
53 72.549000 72.549000 72.549000 45.884944 48.266247 52.241351
54 76.471000 76.471000 76.471000 51.507339 54.110541 58.826645
55 78.431000 78.431000 78.431000 54.668236 57.385639 62.485042
56 80.392000 80.392000 80.392000 57.755534 60.585136 65.960739
57 82.353000 82.353000 82.353000 61.059931 64.084432 69.803635
58 84.314000 84.314000 84.314000 64.364228 67.583729 73.646532
59 86.275000 86.275000 86.275000 67.703625 71.157226 77.490328
60 88.235000 88.235000 88.235000 71.278322 74.917523 81.698524
61 90.196000 90.196000 90.196000 75.085018 78.937519 86.090220
62 92.157000 92.157000 92.157000 78.980015 82.992915 90.481016
63 94.118000 94.118000 94.118000 82.392911 86.642112 94.507513
64 96.078000 96.078000 96.078000 86.825307 91.292408 99.448008
65 98.039000 98.039000 98.039000 90.737004 95.535104 103.84300
66 25.000000 25.000000 0.0000000 4.0601012 4.7568360 0.7140623
67 50.000000 25.000000 0.0000000 11.746475 9.1388520 0.9992332
68 75.000000 25.000000 0.0000000 25.918662 17.280575 1.5496067
69 100.00000 25.000000 0.0000000 48.843042 30.298963 2.4017059
70 100.00000 50.000000 0.0000000 53.766637 40.945553 4.1910543
71 50.000000 50.000000 0.0000000 16.654371 19.874872 2.7210456
72 75.000000 50.000000 0.0000000 30.928758 27.955865 3.2870451
73 25.000000 50.000000 0.0000000 9.0068076 15.508576 2.4492059
74 25.000000 75.000000 0.0000000 17.896870 35.044959 5.6386830
75 50.000000 75.000000 0.0000000 25.624863 39.373355 6.0363726
76 75.000000 75.000000 0.0000000 39.866650 47.453147 6.4484622
77 100.00000 75.000000 0.0000000 62.751429 60.330836 7.4840013
78 25.000000 100.00000 0.0000000 32.621456 67.161430 11.281988
79 50.000000 100.00000 0.0000000 40.095950 71.115726 11.304488
80 75.000000 100.00000 0.0000000 54.258837 79.014419 12.091787
81 100.00000 100.00000 0.0000000 77.068916 91.816407 12.938786
82 100.00000 100.00000 25.000000 77.932316 92.197407 17.961482
83 50.000000 0.0000000 25.000000 11.339875 6.3396845 5.4303231
84 50.000000 25.000000 50.000000 16.087071 11.235780 22.026278
85 0.0000000 25.000000 0.0000000 1.6376692 3.3666172 0.6311428
86 0.0000000 25.000000 25.000000 2.5248306 3.8412568 5.5707608
87 25.490000 25.490000 25.490000 5.0967607 5.3022455 5.8965925
88 50.000000 25.000000 25.000000 12.827374 9.6134916 5.9973827
89 75.000000 25.000000 25.000000 26.935961 17.662574 6.6501421
90 0.0000000 50.000000 0.0000000 6.6217598 14.304477 2.3715159
91 0.0000000 50.000000 25.000000 7.5351790 14.605977 7.3079215
92 25.000000 50.000000 25.000000 9.9435168 15.924576 7.3993514
93 50.000000 50.000000 25.000000 17.593670 20.290872 7.6836011
94 75.000000 50.000000 25.000000 31.887957 28.372665 8.3435405
95 0.0000000 75.000000 0.0000000 15.650972 33.783860 5.6453930
96 0.0000000 75.000000 25.000000 16.619471 34.200959 10.745788
97 25.000000 75.000000 25.000000 18.902169 35.463358 10.913088
98 50.000000 75.000000 25.000000 26.568662 39.789554 11.019888
99 75.000000 75.000000 25.000000 40.740949 47.761647 11.687088
100 0.0000000 100.00000 0.0000000 30.120259 65.566831 11.159088
101 0.0000000 100.00000 25.000000 31.051658 66.023331 16.338583
102 25.000000 100.00000 25.000000 33.403756 67.206830 16.325183
103 50.000000 100.00000 25.000000 41.055949 71.459526 16.529183
104 75.000000 100.00000 25.000000 55.231936 79.358719 17.378682
105 0.0000000 0.0000000 50.000000 4.0107156 1.8595686 20.644635
106 25.000000 0.0000000 50.000000 6.4954748 3.2773973 21.067964
107 50.000000 0.0000000 50.000000 14.510873 7.8291232 21.288879
108 75.000000 0.0000000 50.000000 28.295060 15.907376 22.273178
109 100.00000 0.0000000 50.000000 51.060440 28.766664 22.036778
110 100.00000 0.0000000 75.000000 56.655635 31.269262 51.668051
111 100.00000 25.000000 75.000000 58.169933 34.544059 52.256651
112 75.000000 0.0000000 25.000000 25.312163 14.460477 6.0232626
113 75.000000 25.000000 50.000000 29.738759 19.136273 22.257778
114 100.00000 25.000000 50.000000 52.685738 32.085561 22.779678
115 25.000000 25.000000 50.000000 7.9117785 6.6630842 21.105979
116 25.000000 50.000000 50.000000 12.868274 17.290275 22.881177
117 75.000000 50.000000 50.000000 34.974754 29.671263 24.755976
118 100.00000 50.000000 50.000000 57.615334 42.726752 24.562676
119 100.00000 50.000000 75.000000 63.059629 45.183850 53.850750
120 25.000000 75.000000 50.000000 21.859566 36.789557 26.294874
121 50.000000 75.000000 50.000000 29.300459 41.148253 25.590175
122 75.000000 75.000000 50.000000 43.745846 49.235546 26.964574
123 100.00000 75.000000 50.000000 66.869025 62.121834 29.126672
124 100.00000 75.000000 75.000000 71.928421 64.532632 57.014947
125 25.000000 100.00000 50.000000 36.315653 68.718128 31.417370
126 50.000000 100.00000 50.000000 43.947646 72.897025 31.690369
127 75.000000 100.00000 50.000000 58.293833 80.802417 33.343868
128 100.00000 100.00000 50.000000 81.142213 93.532806 34.536667
129 25.000000 0.0000000 75.000000 11.825575 5.8759649 50.162152
130 50.000000 0.0000000 75.000000 20.056668 10.541281 50.468653
131 75.000000 0.0000000 75.000000 33.827655 18.296874 50.917152
132 75.000000 25.000000 75.000000 35.065754 21.743071 51.332252
133 75.000000 50.000000 100.00000 49.231141 36.332157 100.08601
134 25.000000 25.000000 75.000000 13.536874 9.2014319 50.565552
135 25.000000 50.000000 100.00000 27.453161 23.922369 99.509108
136 0.0000000 25.000000 50.000000 5.3929204 5.2174955 20.677379
137 0.0000000 25.000000 75.000000 11.017376 7.8165632 50.584352
138 0.0000000 50.000000 75.000000 16.051671 18.526474 52.359651
139 25.000000 50.000000 75.000000 18.345469 19.821572 52.160751
140 50.000000 50.000000 75.000000 26.054762 24.149268 52.470051
141 75.000000 50.000000 75.000000 40.303849 32.229361 52.916350
142 74.510000 74.510000 74.510000 48.434942 50.870844 55.167348
143 0.0000000 75.000000 75.000000 25.025563 38.098056 55.526548
144 25.000000 75.000000 75.000000 27.372861 39.354355 55.325848
145 50.000000 75.000000 75.000000 34.993654 43.646651 55.636048
146 0.0000000 75.000000 50.000000 19.560268 35.567258 26.303274
147 0.0000000 100.00000 50.000000 33.981455 67.421529 31.425170
148 0.0000000 100.00000 75.000000 39.467750 69.912327 60.493344
149 25.000000 100.00000 75.000000 41.765048 71.134626 60.475344
150 50.000000 100.00000 75.000000 49.404241 75.313822 60.782743
151 75.000000 100.00000 75.000000 63.494829 83.209915 61.228143
152 75.000000 100.00000 100.00000 72.236821 87.160012 107.85100
153 25.000000 0.0000000 100.00000 21.185867 9.8678913 97.503310
154 50.000000 0.0000000 100.00000 28.586660 14.160277 97.817810
155 0.0000000 0.0000000 75.000000 9.5887045 4.4190963 50.173949
156 0.0000000 0.0000000 100.00000 18.601169 8.5983825 97.708310
157 0.0000000 25.000000 100.00000 20.018568 12.007879 98.119210
158 25.000000 25.000000 100.00000 22.916765 13.547978 99.738408
159 50.000000 25.000000 100.00000 30.110959 17.499274 98.042610
160 75.000000 25.000000 100.00000 44.306546 25.618167 98.490809
161 100.00000 25.000000 100.00000 67.023825 38.571155 99.243409
162 100.00000 50.000000 100.00000 71.840021 49.135246 100.65501
163 50.000000 25.000000 75.000000 20.732867 13.723878 50.888952
164 50.000000 50.000000 100.00000 35.035554 28.213265 99.637608
165 0.0000000 50.000000 50.000000 10.239277 15.825076 22.764678
166 0.0000000 50.000000 100.00000 25.070963 22.591870 99.708908
167 0.0000000 75.000000 100.00000 34.079855 42.237752 102.87701
168 25.000000 75.000000 100.00000 36.392053 43.419751 102.67501
169 50.000000 75.000000 100.00000 43.921046 47.749447 102.80601
170 75.000000 75.000000 100.00000 58.150033 55.715040 103.06701
171 100.00000 75.000000 100.00000 80.832313 68.593828 103.81900
172 0.0000000 100.00000 100.00000 48.483542 74.050623 107.66200
173 25.000000 100.00000 100.00000 50.707340 75.197222 107.46100
174 50.000000 100.00000 100.00000 58.308133 79.375019 107.58700
175 100.00000 100.00000 100.00000 94.864000 99.850100 108.41700
END_DATA
CAL    

DESCRIPTOR "Argyll Device Calibration State"
ORIGINATOR "Argyll dispread"
CREATED "Fri Nov 11 00:09:12 2022"
DEVICE_CLASS "DISPLAY"
COLOR_REP "RGB"

BEGIN_ARGYLL_DISPCAL_ARGS
-v2 -ql -t6500 -b120.0 -gs -f1.0 -k0 -A4.0 -d3 -c1 -yn -P0.70390070922,0.251373626374,1.24867724868
END_ARGYLL_DISPCAL_ARGS


NUMBER_OF_FIELDS 4
BEGIN_DATA_FORMAT
RGB_I RGB_R RGB_G RGB_B
END_DATA_FORMAT

NUMBER_OF_SETS 256
BEGIN_DATA
0.00000000 0.00000000 0.00000000 0.00000000
0.00392157 0.00432875 0.01118600 0.00646929
0.00784314 0.00856836 0.02128440 0.01263880
0.01176470 0.01272160 0.03044630 0.01852900
0.01568630 0.01679100 0.03878630 0.02415830
0.01960780 0.02077910 0.04636840 0.02954370
0.02352940 0.02468830 0.05330030 0.03470110
0.02745100 0.02852100 0.05966670 0.03965700
0.03137250 0.03227940 0.06555730 0.04444500
0.03529410 0.03596960 0.07106430 0.04908350
0.03921570 0.03959900 0.07626560 0.05358650
0.04313730 0.04316890 0.08120880 0.05796970
0.04705880 0.04669580 0.08593310 0.06225230
0.05098040 0.05018940 0.09047670 0.06645710
0.05490200 0.05365280 0.09487440 0.07059610
0.05882350 0.05709260 0.09915050 0.07467250
0.06274510 0.06052040 0.10332800 0.07868900
0.06666670 0.06394970 0.10740900 0.08265010
0.07058820 0.06738960 0.11140300 0.08656330
0.07450980 0.07083860 0.11533500 0.09043350
0.07843140 0.07429870 0.11920200 0.09427260
0.08235290 0.07777480 0.12300600 0.09808360
0.08627450 0.08127090 0.12678200 0.10187800
0.09019610 0.08478740 0.13053100 0.10566800
0.09411760 0.08831820 0.13425600 0.10945600
0.09803920 0.09186270 0.13795400 0.11325900
0.10196100 0.09542520 0.14164900 0.11708200
0.10588200 0.09900890 0.14535800 0.12092300
0.10980400 0.10263700 0.14907600 0.12478200
0.11372500 0.10631600 0.15280400 0.12865900
0.11764700 0.11004500 0.15654200 0.13255100
0.12156900 0.11382400 0.16028600 0.13645300
0.12549000 0.11764800 0.16405600 0.14035800
0.12941200 0.12150300 0.16785900 0.14427800
0.13333300 0.12538500 0.17167100 0.14821100
0.13725500 0.12928900 0.17547800 0.15215400
0.14117600 0.13322100 0.17927800 0.15610400
0.14509800 0.13717200 0.18307200 0.16005300
0.14902000 0.14114100 0.18684800 0.16399900
0.15294100 0.14512400 0.19059400 0.16795000
0.15686300 0.14912100 0.19432700 0.17189900
0.16078400 0.15313600 0.19806700 0.17584800
0.16470600 0.15716900 0.20181700 0.17980900
0.16862700 0.16122300 0.20558200 0.18378400
0.17254900 0.16529600 0.20935700 0.18776700
0.17647100 0.16938800 0.21314700 0.19176800
0.18039200 0.17349500 0.21695300 0.19579100
0.18431400 0.17762100 0.22078400 0.19984200
0.18823500 0.18176400 0.22464000 0.20391000
0.19215700 0.18590500 0.22850100 0.20798700
0.19607800 0.19005400 0.23235400 0.21206900
0.20000000 0.19421200 0.23620800 0.21615700
0.20392200 0.19837400 0.24005200 0.22025400
0.20784300 0.20251800 0.24388800 0.22435200
0.21176500 0.20663600 0.24773200 0.22842600
0.21568600 0.21073100 0.25159200 0.23247800
0.21960800 0.21480700 0.25546400 0.23651100
0.22352900 0.21887900 0.25931900 0.24051800
0.22745100 0.22294000 0.26315500 0.24450000
0.23137300 0.22698300 0.26696800 0.24846000
0.23529400 0.23101900 0.27075900 0.25240500
0.23921600 0.23504700 0.27452600 0.25633100
0.24313700 0.23906200 0.27829300 0.26023900
0.24705900 0.24306400 0.28206700 0.26413200
0.25098000 0.24705300 0.28585100 0.26800900
0.25490200 0.25101800 0.28964400 0.27186700
0.25882400 0.25495400 0.29341900 0.27571600
0.26274500 0.25885900 0.29716800 0.27956200
0.26666700 0.26272300 0.30090200 0.28340800
0.27058800 0.26653700 0.30463300 0.28724600
0.27451000 0.27029600 0.30836200 0.29105100
0.27843100 0.27400800 0.31208500 0.29482600
0.28235300 0.27768100 0.31580400 0.29858200
0.28627500 0.28131700 0.31952200 0.30233300
0.29019600 0.28491800 0.32323700 0.30608300
0.29411800 0.28848400 0.32694800 0.30982400
0.29803900 0.29203000 0.33066700 0.31355900
0.30196100 0.29556900 0.33440200 0.31729600
0.30588200 0.29912500 0.33816100 0.32103100
0.30980400 0.30271000 0.34192100 0.32476400
0.31372500 0.30632900 0.34567500 0.32849600
0.31764700 0.30999200 0.34942400 0.33223500
0.32156900 0.31370500 0.35316500 0.33598600
0.32549000 0.31747200 0.35689400 0.33974400
0.32941200 0.32129000 0.36061200 0.34350900
0.33333300 0.32516200 0.36432500 0.34728000
0.33725500 0.32909000 0.36802300 0.35105900
0.34117600 0.33305800 0.37168700 0.35484000
0.34509800 0.33705800 0.37532500 0.35862400
0.34902000 0.34109200 0.37896100 0.36241300
0.35294100 0.34514800 0.38259900 0.36619900
0.35686300 0.34921600 0.38624000 0.36998200
0.36078400 0.35328200 0.38989300 0.37376100
0.36470600 0.35735100 0.39356300 0.37753600
0.36862700 0.36141300 0.39725200 0.38130600
0.37254900 0.36546400 0.40096100 0.38507400
0.37647100 0.36951100 0.40467300 0.38884500
0.38039200 0.37354700 0.40835200 0.39262600
0.38431400 0.37757200 0.41199400 0.39641900
0.38823500 0.38159000 0.41560000 0.40021100
0.39215700 0.38561200 0.41918100 0.40396900
0.39607800 0.38965400 0.42275200 0.40769000
0.40000000 0.39371600 0.42631200 0.41138100
0.40392200 0.39776800 0.42987700 0.41505000
0.40784300 0.40179000 0.43346100 0.41870400
0.41176500 0.40578400 0.43705800 0.42234300
0.41568600 0.40976700 0.44066500 0.42597000
0.41960800 0.41373700 0.44429200 0.42959200
0.42352900 0.41769000 0.44792900 0.43321300
0.42745100 0.42162100 0.45155400 0.43683800
0.43137300 0.42552900 0.45516600 0.44047600
0.43529400 0.42941300 0.45878500 0.44412300
0.43921600 0.43327700 0.46242000 0.44776000
0.44313700 0.43713000 0.46606900 0.45139100
0.44705900 0.44096300 0.46973500 0.45502800
0.45098000 0.44477000 0.47342900 0.45867500
0.45490200 0.44855700 0.47714800 0.46232600
0.45882400 0.45233600 0.48089700 0.46598000
0.46274500 0.45611500 0.48467800 0.46963700
0.46666700 0.45989100 0.48849100 0.47329100
0.47058800 0.46366300 0.49233800 0.47694100
0.47451000 0.46741900 0.49622400 0.48058500
0.47843100 0.47115900 0.50017100 0.48422100
0.48235300 0.47489300 0.50417200 0.48784900
0.48627500 0.47861700 0.50815600 0.49146800
0.49019600 0.48232900 0.51212100 0.49508100
0.49411800 0.48602900 0.51606500 0.49869800
0.49803900 0.48971700 0.51999000 0.50231900
0.50196100 0.49340300 0.52389400 0.50594100
0.50588200 0.49710100 0.52777500 0.50956400
0.50980400 0.50081200 0.53163000 0.51318800
0.51372500 0.50453400 0.53546300 0.51681400
0.51764700 0.50826800 0.53926900 0.52044400
0.52156900 0.51201900 0.54305500 0.52408100
0.52549000 0.51578400 0.54682900 0.52772400
0.52941200 0.51955700 0.55057800 0.53138100
0.53333300 0.52334200 0.55429100 0.53504600
0.53725500 0.52714000 0.55797600 0.53872500
0.54117600 0.53094200 0.56165200 0.54242200
0.54509800 0.53475300 0.56532400 0.54612600
0.54902000 0.53857600 0.56900000 0.54983700
0.55294100 0.54239500 0.57267700 0.55355800
0.55686300 0.54620800 0.57634200 0.55730300
0.56078400 0.55001400 0.57996900 0.56107200
0.56470600 0.55380900 0.58355600 0.56487600
0.56862700 0.55760900 0.58711800 0.56871400
0.57254900 0.56143200 0.59066000 0.57255700
0.57647100 0.56528100 0.59417800 0.57640400
0.58039200 0.56915400 0.59767400 0.58026100
0.58431400 0.57305400 0.60114900 0.58413800
0.58823500 0.57698100 0.60462400 0.58803400
0.59215700 0.58093200 0.60810100 0.59194000
0.59607800 0.58490100 0.61158000 0.59585600
0.60000000 0.58889300 0.61505900 0.59977500
0.60392200 0.59289500 0.61853600 0.60368900
0.60784300 0.59688900 0.62200900 0.60760000
0.61176500 0.60086800 0.62548100 0.61151500
0.61568600 0.60482900 0.62897700 0.61542500
0.61960800 0.60877500 0.63249900 0.61932300
0.62352900 0.61270300 0.63604200 0.62321000
0.62745100 0.61660900 0.63961500 0.62708300
0.63137300 0.62048500 0.64323100 0.63094400
0.63529400 0.62432600 0.64689200 0.63480000
0.63921600 0.62814300 0.65060600 0.63866100
0.64313700 0.63194300 0.65437800 0.64252600
0.64705900 0.63573100 0.65821000 0.64640600
0.65098000 0.63951800 0.66210000 0.65031100
0.65490200 0.64331700 0.66604900 0.65424900
0.65882400 0.64713800 0.67003200 0.65822300
0.66274500 0.65098200 0.67396900 0.66223400
0.66666700 0.65485100 0.67784800 0.66623500
0.67058800 0.65871600 0.68167000 0.67018600
0.67451000 0.66255500 0.68543700 0.67408500
0.67843100 0.66636700 0.68915100 0.67793900
0.68235300 0.67015200 0.69282400 0.68175300
0.68627500 0.67391500 0.69646800 0.68553400
0.69019600 0.67766600 0.70008600 0.68929100
0.69411800 0.68141500 0.70368400 0.69302600
0.69803900 0.68516300 0.70726500 0.69674500
0.70196100 0.68890700 0.71082600 0.70046300
0.70588200 0.69266800 0.71437100 0.70418000
0.70980400 0.69644500 0.71792000 0.70789100
0.71372500 0.70023200 0.72147900 0.71160000
0.71764700 0.70403300 0.72504900 0.71531400
0.72156900 0.70784400 0.72862800 0.71903300
0.72549000 0.71166600 0.73220200 0.72276100
0.72941200 0.71550600 0.73576300 0.72649200
0.73333300 0.71935000 0.73932400 0.73022500
0.73725500 0.72319000 0.74288600 0.73396300
0.74117600 0.72702200 0.74645100 0.73770300
0.74509800 0.73085500 0.75002600 0.74144400
0.74902000 0.73469300 0.75362700 0.74518600
0.75294100 0.73853500 0.75723400 0.74893200
0.75686300 0.74236800 0.76084500 0.75268200
0.76078400 0.74619100 0.76446500 0.75643400
0.76470600 0.75000100 0.76809700 0.76018800
0.76862700 0.75380300 0.77173900 0.76395300
0.77254900 0.75761500 0.77538500 0.76772500
0.77647100 0.76144000 0.77903500 0.77149800
0.78039200 0.76528400 0.78270800 0.77528300
0.78431400 0.76914400 0.78640800 0.77908800
0.78823500 0.77301200 0.79013800 0.78291500
0.79215700 0.77688800 0.79390500 0.78676900
0.79607800 0.78078400 0.79771200 0.79065700
0.80000000 0.78471000 0.80155500 0.79458000
0.80392200 0.78865300 0.80539300 0.79850700
0.80784300 0.79258100 0.80921200 0.80241700
0.81176500 0.79649000 0.81301000 0.80631400
0.81568600 0.80038300 0.81679100 0.81020900
0.81960800 0.80427400 0.82056800 0.81410800
0.82352900 0.80817300 0.82436500 0.81802400
0.82745100 0.81207700 0.82817600 0.82195200
0.83137300 0.81598100 0.83200700 0.82588700
0.83529400 0.81988700 0.83586000 0.82982700
0.83921600 0.82379200 0.83972600 0.83377400
0.84313700 0.82769600 0.84360100 0.83772700
0.84705900 0.83159600 0.84748500 0.84168700
0.85098000 0.83549700 0.85138700 0.84566100
0.85490200 0.83940000 0.85531000 0.84965600
0.85882400 0.84330500 0.85924900 0.85366400
0.86274500 0.84721000 0.86317100 0.85765800
0.86666700 0.85112000 0.86706400 0.86164000
0.87058800 0.85504000 0.87093800 0.86561600
0.87451000 0.85895900 0.87480000 0.86958500
0.87843100 0.86287000 0.87866700 0.87354600
0.88235300 0.86676500 0.88255700 0.87749800
0.88627500 0.87065300 0.88647100 0.88145000
0.89019600 0.87453800 0.89040900 0.88539900
0.89411800 0.87840600 0.89434500 0.88932100
0.89803900 0.88225400 0.89826800 0.89322000
0.90196100 0.88608700 0.90218600 0.89710500
0.90588200 0.88993100 0.90611000 0.90098900
0.90980400 0.89378700 0.91003800 0.90487100
0.91372500 0.89763900 0.91395400 0.90874000
0.91764700 0.90149000 0.91784800 0.91259700
0.92156900 0.90534200 0.92174100 0.91645500
0.92549000 0.90919500 0.92564000 0.92030600
0.92941200 0.91304700 0.92953900 0.92414900
0.93333300 0.91690400 0.93344100 0.92798900
0.93725500 0.92075800 0.93734300 0.93182200
0.94117600 0.92461100 0.94124700 0.93565300
0.94509800 0.92846100 0.94515900 0.93947700
0.94902000 0.93230700 0.94907600 0.94329600
0.95294100 0.93614700 0.95299900 0.94711000
0.95686300 0.93998400 0.95692800 0.95091900
0.96078400 0.94381600 0.96086200 0.95472300
0.96470600 0.94764400 0.96480100 0.95852200
0.96862700 0.95146700 0.96874400 0.96231600
0.97254900 0.95528900 0.97268700 0.96610500
0.97647100 0.95911200 0.97662900 0.96989000
0.98039200 0.96293400 0.98057000 0.97367000
0.98431400 0.96675700 0.98451100 0.97744600
0.98823500 0.97058000 0.98845100 0.98121800
0.99215700 0.97440300 0.99238900 0.98498500
0.99607800 0.97822600 0.99632700 0.98874800
1.00000000 0.98205000 1.00000000 0.99250600
END_DATA
