.local/share/DisplayCAL/storage/DisplayPort-2CRT/DisplayPort-2CRT.ti1
CTI1   

DESCRIPTOR "Argyll Calibration Target chart information 1"
ORIGINATOR "Argyll targen"
CREATED "Fri Nov 11 00:09:12 2022"
SINGLE_DIM_STEPS "5"
COMP_GREY_STEPS "52"
MULTI_DIM_STEPS "5"
COLOR_REP "RGB"
TARGET_INSTRUMENT "X-Rite i1 DisplayPro, ColorMunki Display"
DISPLAY_TYPE_REFRESH "NO"
DISPLAY_TYPE_BASE_ID "1"
INSTRUMENT_TYPE_SPECTRAL "NO"
NORMALIZED_TO_Y_100 "YES"
VIDEO_LUT_CALIBRATION_POSSIBLE "YES"
OBSERVER "1931_2"
USE_BLACK_POINT_COMPENSATION "NO"
BLACK_POINT_CORRECTION "0.0"
HIRES_B2A "YES"
HIRES_B2A_SIZE "-1"
SMOOTH_B2A "YES"
PATCH_SEQUENCE "OPTIMIZE_DISPLAY_RESPONSE_DELAY"

NUMBER_OF_FIELDS 7
BEGIN_DATA_FORMAT
SAMPLE_ID RGB_R RGB_G RGB_B XYZ_X XYZ_Y XYZ_Z
END_DATA_FORMAT

NUMBER_OF_SETS 175
BEGIN_DATA
1 100.00000 100.00000 100.00000 94.972500 100.00000 108.60000
2 100.00000 100.00000 75.000000 86.318900 96.085400 61.977100
3 100.00000 100.00000 100.00000 95.060900 100.03500 108.60000
4 100.00000 100.00000 100.00000 95.134400 100.11100 108.78200
5 0.0000000 0.0000000 0.0000000 0.1150350 0.0812327 0.1076300
6 25.000000 0.0000000 0.0000000 2.5028700 1.4418300 0.1945830
7 50.000000 0.0000000 0.0000000 10.222000 5.8301900 0.4756750
8 75.000000 0.0000000 0.0000000 24.481300 13.958100 1.0104200
9 100.00000 0.0000000 0.0000000 47.276700 27.077300 1.9108500
10 100.00000 0.0000000 25.000000 48.390200 27.377700 6.9356400
11 100.00000 25.000000 25.000000 49.577700 30.894000 7.5612200
12 100.00000 50.000000 25.000000 54.692000 41.401700 9.3416100
13 100.00000 75.000000 25.000000 63.698600 60.787900 12.738000
14 0.0000000 0.0000000 25.000000 1.0546100 0.5152710 5.0616800
15 25.000000 0.0000000 25.000000 3.4313900 1.8753100 5.1509700
16 75.000000 0.0000000 100.00000 42.995900 22.382900 98.446500
17 100.00000 0.0000000 100.00000 65.801700 35.371500 99.198200
18 1.9608000 1.9608000 1.9608000 0.2236150 0.1927230 0.2300870
19 3.9216000 3.9216000 3.9216000 0.3666540 0.3482590 0.3925510
20 5.8824000 5.8824000 5.8824000 0.5325270 0.5333700 0.5914960
21 7.8431000 7.8431000 7.8431000 0.7451580 0.7526560 0.8302290
22 9.8039000 9.8039000 9.8039000 0.9643400 1.0034000 1.0996300
23 11.765000 11.765000 11.765000 1.2664400 1.3135000 1.4494400
24 13.726000 13.726000 13.726000 1.6412800 1.6843800 1.8552700
25 15.686000 15.686000 15.686000 2.0616900 2.1263900 2.3075400
26 17.647000 17.647000 17.647000 2.5300700 2.6120600 2.8853800
27 19.608000 19.608000 19.608000 3.0334600 3.2061300 3.4930200
28 21.569000 21.569000 21.569000 3.7440300 3.8907600 4.2605900
29 23.529000 23.529000 23.529000 4.3584200 4.5988200 5.0694300
30 27.451000 27.451000 27.451000 5.8035000 6.1918700 6.7498100
31 29.412000 29.412000 29.412000 6.8561000 7.1136100 7.7618100
32 31.373000 31.373000 31.373000 7.6253800 7.9452000 8.9410900
33 33.333000 33.333000 33.333000 8.9021500 9.2997600 9.9281600
34 35.294000 35.294000 35.294000 9.6480600 10.103800 11.154300
35 37.255000 37.255000 37.255000 10.800600 11.329300 12.418300
36 39.216000 39.216000 39.216000 11.858200 12.451500 13.566800
37 41.176000 41.176000 41.176000 13.229900 14.159000 15.507900
38 43.137000 43.137000 43.137000 14.919800 15.594700 17.189400
39 45.098000 45.098000 45.098000 16.398800 17.000400 18.355400
40 47.059000 47.059000 47.059000 17.893900 18.716600 20.291400
41 49.020000 49.020000 49.020000 19.620400 20.505400 22.482000
42 50.980000 50.980000 50.980000 21.259400 22.258900 24.677900
43 52.941000 52.941000 52.941000 22.867400 24.294600 25.395800
44 54.902000 54.902000 54.902000 25.136000 26.354300 29.235500
45 56.863000 56.863000 56.863000 26.924500 28.428800 30.387400
46 58.824000 58.824000 58.824000 29.221700 30.562600 34.198100
47 60.784000 60.784000 60.784000 31.117100 32.673300 35.436300
48 62.745000 62.745000 62.745000 33.313400 35.013800 37.603100
49 64.706000 64.706000 64.706000 35.613100 37.471800 40.348300
50 66.667000 66.667000 66.667000 38.109700 40.115200 43.276100
51 68.627000 68.627000 68.627000 40.606300 42.758600 46.204000
52 70.588000 70.588000 70.588000 43.264800 45.513100 49.313500
53 72.549000 72.549000 72.549000 45.884900 48.266200 52.241300
54 76.471000 76.471000 76.471000 51.507300 54.110500 58.826600
55 78.431000 78.431000 78.431000 54.668200 57.385600 62.485000
56 80.392000 80.392000 80.392000 57.755500 60.585100 65.960700
57 82.353000 82.353000 82.353000 61.059900 64.084400 69.803600
58 84.314000 84.314000 84.314000 64.364200 67.583700 73.646500
59 86.275000 86.275000 86.275000 67.703600 71.157200 77.490300
60 88.235000 88.235000 88.235000 71.278300 74.917500 81.698500
61 90.196000 90.196000 90.196000 75.085000 78.937500 86.090200
62 92.157000 92.157000 92.157000 78.980000 82.992900 90.481000
63 94.118000 94.118000 94.118000 82.392900 86.642100 94.507500
64 96.078000 96.078000 96.078000 86.825300 91.292400 99.448000
65 98.039000 98.039000 98.039000 90.737000 95.535100 103.84300
66 25.000000 25.000000 0.0000000 4.0600200 4.7567500 0.7139650
67 50.000000 25.000000 0.0000000 11.746400 9.1387700 0.9991360
68 75.000000 25.000000 0.0000000 25.918600 17.280500 1.5495100
69 100.00000 25.000000 0.0000000 48.843000 30.298900 2.4016100
70 100.00000 50.000000 0.0000000 53.766600 40.945500 4.1909600
71 50.000000 50.000000 0.0000000 16.654300 19.874800 2.7209500
72 75.000000 50.000000 0.0000000 30.928700 27.955800 3.2869500
73 25.000000 50.000000 0.0000000 9.0067300 15.508500 2.4491100
74 25.000000 75.000000 0.0000000 17.896800 35.044900 5.6385900
75 50.000000 75.000000 0.0000000 25.624800 39.373300 6.0362800
76 75.000000 75.000000 0.0000000 39.866600 47.453100 6.4483700
77 100.00000 75.000000 0.0000000 62.751400 60.330800 7.4839100
78 25.000000 100.00000 0.0000000 32.621400 67.161400 11.281900
79 50.000000 100.00000 0.0000000 40.095900 71.115700 11.304400
80 75.000000 100.00000 0.0000000 54.258800 79.014400 12.091700
81 100.00000 100.00000 0.0000000 77.068900 91.816400 12.938700
82 100.00000 100.00000 25.000000 77.932300 92.197400 17.961400
83 50.000000 0.0000000 25.000000 11.339800 6.3396000 5.4302300
84 50.000000 25.000000 50.000000 16.087000 11.235700 22.026200
85 0.0000000 25.000000 0.0000000 1.6375900 3.3665300 0.6310470
86 0.0000000 25.000000 25.000000 2.5247500 3.8411700 5.5706700
87 25.490000 25.490000 25.490000 5.0966800 5.3021600 5.8965000
88 50.000000 25.000000 25.000000 12.827300 9.6134100 5.9972900
89 75.000000 25.000000 25.000000 26.935900 17.662500 6.6500500
90 0.0000000 50.000000 0.0000000 6.6216800 14.304400 2.3714200
91 0.0000000 50.000000 25.000000 7.5351000 14.605900 7.3078300
92 25.000000 50.000000 25.000000 9.9434400 15.924500 7.3992600
93 50.000000 50.000000 25.000000 17.593600 20.290800 7.6835100
94 75.000000 50.000000 25.000000 31.887900 28.372600 8.3434500
95 0.0000000 75.000000 0.0000000 15.650900 33.783800 5.6453000
96 0.0000000 75.000000 25.000000 16.619400 34.200900 10.745700
97 25.000000 75.000000 25.000000 18.902100 35.463300 10.913000
98 50.000000 75.000000 25.000000 26.568600 39.789500 11.019800
99 75.000000 75.000000 25.000000 40.740900 47.761600 11.687000
100 0.0000000 100.00000 0.0000000 30.120200 65.566800 11.159000
101 0.0000000 100.00000 25.000000 31.051600 66.023300 16.338500
102 25.000000 100.00000 25.000000 33.403700 67.206800 16.325100
103 50.000000 100.00000 25.000000 41.055900 71.459500 16.529100
104 75.000000 100.00000 25.000000 55.231900 79.358700 17.378600
105 0.0000000 0.0000000 50.000000 4.0108800 1.8594800 20.644900
106 25.000000 0.0000000 50.000000 6.4954100 3.2773100 21.067900
107 50.000000 0.0000000 50.000000 14.510800 7.8290400 21.288800
108 75.000000 0.0000000 50.000000 28.295000 15.907300 22.273100
109 100.00000 0.0000000 50.000000 51.060400 28.766600 22.036700
110 100.00000 0.0000000 75.000000 56.655600 31.269200 51.668000
111 100.00000 25.000000 75.000000 58.169900 34.544000 52.256600
112 75.000000 0.0000000 25.000000 25.312100 14.460400 6.0231700
113 75.000000 25.000000 50.000000 29.738700 19.136200 22.257700
114 100.00000 25.000000 50.000000 52.685700 32.085500 22.779600
115 25.000000 25.000000 50.000000 7.9117000 6.6630000 21.105900
116 25.000000 50.000000 50.000000 12.868200 17.290200 22.881100
117 75.000000 50.000000 50.000000 34.974700 29.671200 24.755900
118 100.00000 50.000000 50.000000 57.615300 42.726700 24.562600
119 100.00000 50.000000 75.000000 63.059600 45.183800 53.850700
120 25.000000 75.000000 50.000000 21.859500 36.789500 26.294800
121 50.000000 75.000000 50.000000 29.300400 41.148200 25.590100
122 75.000000 75.000000 50.000000 43.745800 49.235500 26.964500
123 100.00000 75.000000 50.000000 66.869000 62.121800 29.126600
124 100.00000 75.000000 75.000000 71.928400 64.532600 57.014900
125 25.000000 100.00000 50.000000 36.315600 68.718100 31.417300
126 50.000000 100.00000 50.000000 43.947600 72.897000 31.690300
127 75.000000 100.00000 50.000000 58.293800 80.802400 33.343800
128 100.00000 100.00000 50.000000 81.142200 93.532800 34.536600
129 25.000000 0.0000000 75.000000 11.825500 5.8758800 50.162100
130 50.000000 0.0000000 75.000000 20.056600 10.541200 50.468600
131 75.000000 0.0000000 75.000000 33.827600 18.296800 50.917100
132 75.000000 25.000000 75.000000 35.065700 21.743000 51.332200
133 75.000000 50.000000 100.00000 49.231100 36.332100 100.08600
134 25.000000 25.000000 75.000000 13.536800 9.2013500 50.565500
135 25.000000 50.000000 100.00000 27.453100 23.922300 99.509100
136 0.0000000 25.000000 50.000000 5.3928400 5.2174100 20.677300
137 0.0000000 25.000000 75.000000 11.017300 7.8164800 50.584300
138 0.0000000 50.000000 75.000000 16.051600 18.526400 52.359600
139 25.000000 50.000000 75.000000 18.345400 19.821500 52.160700
140 50.000000 50.000000 75.000000 26.054700 24.149200 52.470000
141 75.000000 50.000000 75.000000 40.303800 32.229300 52.916300
142 74.510000 74.510000 74.510000 48.434900 50.870800 55.167300
143 0.0000000 75.000000 75.000000 25.025500 38.098000 55.526500
144 25.000000 75.000000 75.000000 27.372800 39.354300 55.325800
145 50.000000 75.000000 75.000000 34.993600 43.646600 55.636000
146 0.0000000 75.000000 50.000000 19.560200 35.567200 26.303200
147 0.0000000 100.00000 50.000000 33.981400 67.421500 31.425100
148 0.0000000 100.00000 75.000000 39.467700 69.912300 60.493300
149 25.000000 100.00000 75.000000 41.765000 71.134600 60.475300
150 50.000000 100.00000 75.000000 49.404200 75.313800 60.782700
151 75.000000 100.00000 75.000000 63.494800 83.209900 61.228100
152 75.000000 100.00000 100.00000 72.236800 87.160000 107.85100
153 25.000000 0.0000000 100.00000 21.185800 9.8678100 97.503300
154 50.000000 0.0000000 100.00000 28.586600 14.160200 97.817800
155 0.0000000 0.0000000 75.000000 9.5886300 4.4190100 50.173900
156 0.0000000 0.0000000 100.00000 18.601100 8.5983000 97.708300
157 0.0000000 25.000000 100.00000 20.018500 12.007800 98.119200
158 25.000000 25.000000 100.00000 22.916700 13.547900 99.738400
159 50.000000 25.000000 100.00000 30.110900 17.499200 98.042600
160 75.000000 25.000000 100.00000 44.306500 25.618100 98.490800
161 100.00000 25.000000 100.00000 67.023800 38.571100 99.243400
162 100.00000 50.000000 100.00000 71.840000 49.135200 100.65500
163 50.000000 25.000000 75.000000 20.732800 13.723800 50.888900
164 50.000000 50.000000 100.00000 35.035500 28.213200 99.637600
165 0.0000000 50.000000 50.000000 10.239200 15.825000 22.764600
166 0.0000000 50.000000 100.00000 25.070900 22.591800 99.708900
167 0.0000000 75.000000 100.00000 34.079800 42.237700 102.87700
168 25.000000 75.000000 100.00000 36.392000 43.419700 102.67500
169 50.000000 75.000000 100.00000 43.921000 47.749400 102.80600
170 75.000000 75.000000 100.00000 58.150000 55.715000 103.06700
171 100.00000 75.000000 100.00000 80.832300 68.593800 103.81900
172 0.0000000 100.00000 100.00000 48.483500 74.050600 107.66200
173 25.000000 100.00000 100.00000 50.707300 75.197200 107.46100
174 50.000000 100.00000 100.00000 58.308100 79.375000 107.58700
175 100.00000 100.00000 100.00000 94.864000 99.850100 108.41700
END_DATA
