.local/share/DisplayCAL/storage/DisplayPort-2CRT/DisplayPort-2CRT.cal
CAL    

DESCRIPTOR "Argyll Device Calibration Curves"
ORIGINATOR "Argyll dispcal"
CREATED "Fri Nov 11 17:06:06 2022"
DEVICE_CLASS "DISPLAY"
COLOR_REP "RGB"
VIDEO_LUT_CALIBRATION_POSSIBLE "YES"
TV_OUTPUT_ENCODING "NO"
DEVICE_TYPE "n"
TARGET_WHITE_XYZ "93.225261 98.114118 106.701711"
TARGET_GAMMA "sRGB"
DEGREE_OF_BLACK_OUTPUT_OFFSET "1.0"
BLACK_POINT_CORRECTION "0.0"
BLACK_NEUTRAL_BLEND_RATE "4.0"
BLACK_POINT_HACK "YES"
QUALITY "low"

BEGIN_ARGYLL_DISPCAL_ARGS
-v2 -d3 -c1 -yn -P0.889184397163,0.296703296703,1.24867724868 -ql -t6500 -b120.0 -gs -f1.0 -k0 -A4.0 -b
END_ARGYLL_DISPCAL_ARGS


NUMBER_OF_FIELDS 4
BEGIN_DATA_FORMAT
RGB_I RGB_R RGB_G RGB_B
END_DATA_FORMAT

NUMBER_OF_SETS 256
BEGIN_DATA
0.00000000 0.00000000 0.00000000 0.00000000
0.00392157 0.05466340 0.10151900 0.07357610
0.00784314 0.08518470 0.13965900 0.10797600
0.01176470 0.10583200 0.15948200 0.12674400
0.01568630 0.12039800 0.17195200 0.13937500
0.01960780 0.13107000 0.18102600 0.14878500
0.02352940 0.13939800 0.18805100 0.15632600
0.02745100 0.14628600 0.19387900 0.16265200
0.03137250 0.15225900 0.19909300 0.16825800
0.03529410 0.15753600 0.20383700 0.17336300
0.03921570 0.16237900 0.20819700 0.17806100
0.04313730 0.16690500 0.21222900 0.18245400
0.04705880 0.17119700 0.21597400 0.18673400
0.05098040 0.17528500 0.21945400 0.19090500
0.05490200 0.17918900 0.22282100 0.19496800
0.05882350 0.18301300 0.22618400 0.19892000
0.06274510 0.18679800 0.22953800 0.20273400
0.06666670 0.19053800 0.23288000 0.20640800
0.07058820 0.19422000 0.23620700 0.20993600
0.07450980 0.19784100 0.23951600 0.21332300
0.07843140 0.20138200 0.24280300 0.21658500
0.08235290 0.20484200 0.24606000 0.21982800
0.08627450 0.20821700 0.24928800 0.22306900
0.09019610 0.21150300 0.25246700 0.22630800
0.09411760 0.21470800 0.25557300 0.22954200
0.09803920 0.21785000 0.25860800 0.23277900
0.10196100 0.22100400 0.26157800 0.23603100
0.10588200 0.22417600 0.26449100 0.23930100
0.10980400 0.22736900 0.26734700 0.24259800
0.11372500 0.23059700 0.27015500 0.24592400
0.11764700 0.23387000 0.27298500 0.24927500
0.12156900 0.23718600 0.27586900 0.25260600
0.12549000 0.24055200 0.27880000 0.25590300
0.12941200 0.24396800 0.28177900 0.25916600
0.13333300 0.24743000 0.28481300 0.26240000
0.13725500 0.25088900 0.28790200 0.26560400
0.14117600 0.25433200 0.29102600 0.26877900
0.14509800 0.25775200 0.29418400 0.27192100
0.14902000 0.26114900 0.29737900 0.27502600
0.15294100 0.26452800 0.30060100 0.27809400
0.15686300 0.26788300 0.30384000 0.28117700
0.16078400 0.27120400 0.30708500 0.28428800
0.16470600 0.27449000 0.31033300 0.28743700
0.16862700 0.27774300 0.31357600 0.29060700
0.17254900 0.28096300 0.31681200 0.29376200
0.17647100 0.28415600 0.32003800 0.29690100
0.18039200 0.28736000 0.32325100 0.30003200
0.18431400 0.29056700 0.32645100 0.30316200
0.18823500 0.29377500 0.32964100 0.30628700
0.19215700 0.29699400 0.33282000 0.30941300
0.19607800 0.30021800 0.33599800 0.31254300
0.20000000 0.30344200 0.33919400 0.31567600
0.20392200 0.30666400 0.34239000 0.31881100
0.20784300 0.30988300 0.34555500 0.32195000
0.21176500 0.31309800 0.34869200 0.32509300
0.21568600 0.31630700 0.35180000 0.32824000
0.21960800 0.31950500 0.35488100 0.33140100
0.22352900 0.32268900 0.35793700 0.33460200
0.22745100 0.32586100 0.36096400 0.33784400
0.23137300 0.32902000 0.36396700 0.34108700
0.23529400 0.33219100 0.36696400 0.34430700
0.23921600 0.33538100 0.36995300 0.34750100
0.24313700 0.33856800 0.37293000 0.35067400
0.24705900 0.34171900 0.37589000 0.35383100
0.25098000 0.34483200 0.37885300 0.35696500
0.25490200 0.34791400 0.38182300 0.36007300
0.25882400 0.35096400 0.38480500 0.36316300
0.26274500 0.35398500 0.38779700 0.36624200
0.26666700 0.35697900 0.39079900 0.36931800
0.27058800 0.35995100 0.39381200 0.37242300
0.27451000 0.36290700 0.39684300 0.37556000
0.27843100 0.36585800 0.39989900 0.37873500
0.28235300 0.36884000 0.40299500 0.38195600
0.28627500 0.37186700 0.40613200 0.38522700
0.29019600 0.37493500 0.40929900 0.38854400
0.29411800 0.37804200 0.41245000 0.39189900
0.29803900 0.38120300 0.41557700 0.39529300
0.30196100 0.38442800 0.41866500 0.39872200
0.30588200 0.38771400 0.42168700 0.40218900
0.30980400 0.39105400 0.42464600 0.40567100
0.31372500 0.39444500 0.42755100 0.40910300
0.31764700 0.39788500 0.43046400 0.41246900
0.32156900 0.40132800 0.43340000 0.41574700
0.32549000 0.40472800 0.43635400 0.41893100
0.32941200 0.40808900 0.43932300 0.42203400
0.33333300 0.41140700 0.44230600 0.42509300
0.33725500 0.41467600 0.44530800 0.42811700
0.34117600 0.41791400 0.44832500 0.43111200
0.34509800 0.42113900 0.45135400 0.43408900
0.34902000 0.42436300 0.45439700 0.43704600
0.35294100 0.42759200 0.45745100 0.43998100
0.35686300 0.43083600 0.46051000 0.44290300
0.36078400 0.43409700 0.46357500 0.44584900
0.36470600 0.43737200 0.46664400 0.44882900
0.36862700 0.44065300 0.46972100 0.45184500
0.37254900 0.44393800 0.47280800 0.45489200
0.37647100 0.44723500 0.47590700 0.45796800
0.38039200 0.45055900 0.47902300 0.46107500
0.38431400 0.45392800 0.48216000 0.46420500
0.38823500 0.45733700 0.48532300 0.46734800
0.39215700 0.46077300 0.48851500 0.47051000
0.39607800 0.46422700 0.49173600 0.47368900
0.40000000 0.46769400 0.49498700 0.47688000
0.40392200 0.47117500 0.49828100 0.48007600
0.40784300 0.47465800 0.50166400 0.48327100
0.41176500 0.47813000 0.50513500 0.48646400
0.41568600 0.48159200 0.50869100 0.48965600
0.41960800 0.48504200 0.51233400 0.49288300
0.42352900 0.48848300 0.51605200 0.49618300
0.42745100 0.49196500 0.51974700 0.49956700
0.43137300 0.49552000 0.52339600 0.50302400
0.43529400 0.49911900 0.52699500 0.50654600
0.43921600 0.50275200 0.53053800 0.51005200
0.44313700 0.50635300 0.53402300 0.51353000
0.44705900 0.50989600 0.53745800 0.51699000
0.45098000 0.51339300 0.54085600 0.52044200
0.45490200 0.51685600 0.54421900 0.52388500
0.45882400 0.52028800 0.54757000 0.52731700
0.46274500 0.52369300 0.55091900 0.53073600
0.46666700 0.52707300 0.55426500 0.53414400
0.47058800 0.53042500 0.55760800 0.53754500
0.47451000 0.53376300 0.56095700 0.54093800
0.47843100 0.53708500 0.56430400 0.54433000
0.48235300 0.54039800 0.56764700 0.54771900
0.48627500 0.54370700 0.57098300 0.55110900
0.49019600 0.54702900 0.57430100 0.55450800
0.49411800 0.55035900 0.57757900 0.55791700
0.49803900 0.55369800 0.58082100 0.56133100
0.50196100 0.55704400 0.58402700 0.56475100
0.50588200 0.56039800 0.58716600 0.56817700
0.50980400 0.56376000 0.59023300 0.57157300
0.51372500 0.56709700 0.59322900 0.57493300
0.51764700 0.57039200 0.59616500 0.57824500
0.52156900 0.57364500 0.59909700 0.58149300
0.52549000 0.57684700 0.60203800 0.58468600
0.52941200 0.57999600 0.60500400 0.58782900
0.53333300 0.58309000 0.60799800 0.59097100
0.53725500 0.58616000 0.61102500 0.59414200
0.54117600 0.58925600 0.61408300 0.59731800
0.54509800 0.59236600 0.61716900 0.60049400
0.54902000 0.59548400 0.62027800 0.60367200
0.55294100 0.59860600 0.62340300 0.60685800
0.55686300 0.60173300 0.62654600 0.61004800
0.56078400 0.60487000 0.62973100 0.61324600
0.56470600 0.60801600 0.63296900 0.61644700
0.56862700 0.61117300 0.63626500 0.61964800
0.57254900 0.61435000 0.63961500 0.62287700
0.57647100 0.61757700 0.64300300 0.62613700
0.58039200 0.62084900 0.64641700 0.62943600
0.58431400 0.62415700 0.64985200 0.63278100
0.58823500 0.62750000 0.65330400 0.63617000
0.59215700 0.63087400 0.65677900 0.63959600
0.59607800 0.63428300 0.66028400 0.64305200
0.60000000 0.63773600 0.66381900 0.64653000
0.60392200 0.64124400 0.66738600 0.65002100
0.60784300 0.64480400 0.67099800 0.65353100
0.61176500 0.64840600 0.67462200 0.65705800
0.61568600 0.65205200 0.67825300 0.66061100
0.61960800 0.65574500 0.68189900 0.66421200
0.62352900 0.65946600 0.68551400 0.66781100
0.62745100 0.66317600 0.68905600 0.67140400
0.63137300 0.66687400 0.69252300 0.67498300
0.63529400 0.67050300 0.69591600 0.67848300
0.63921600 0.67403800 0.69923200 0.68188800
0.64313700 0.67748800 0.70246000 0.68519400
0.64705900 0.68086100 0.70559700 0.68840500
0.65098000 0.68417800 0.70865700 0.69153300
0.65490200 0.68744900 0.71165400 0.69459300
0.65882400 0.69067300 0.71460400 0.69759300
0.66274500 0.69384200 0.71751400 0.70053500
0.66666700 0.69694300 0.72038200 0.70342400
0.67058800 0.69998200 0.72320400 0.70629000
0.67451000 0.70299400 0.72597900 0.70914700
0.67843100 0.70599100 0.72871500 0.71199600
0.68235300 0.70897600 0.73142100 0.71483800
0.68627500 0.71195100 0.73410000 0.71767200
0.69019600 0.71492200 0.73675500 0.72050600
0.69411800 0.71789300 0.73940800 0.72334500
0.69803900 0.72085900 0.74212300 0.72618300
0.70196100 0.72380900 0.74489800 0.72900600
0.70588200 0.72674000 0.74773600 0.73182200
0.70980400 0.72967500 0.75063500 0.73468800
0.71372500 0.73267300 0.75357100 0.73762400
0.71764700 0.73573800 0.75653300 0.74063000
0.72156900 0.73885500 0.75952200 0.74369400
0.72549000 0.74198800 0.76254200 0.74678000
0.72941200 0.74513500 0.76560200 0.74988900
0.73333300 0.74829500 0.76869800 0.75301500
0.73725500 0.75146300 0.77182400 0.75615300
0.74117600 0.75464600 0.77497200 0.75930200
0.74509800 0.75784500 0.77814200 0.76246800
0.74902000 0.76106100 0.78134200 0.76565500
0.75294100 0.76429300 0.78457200 0.76886000
0.75686300 0.76754300 0.78782800 0.77208900
0.76078400 0.77081500 0.79110300 0.77535500
0.76470600 0.77412100 0.79440500 0.77866400
0.76862700 0.77746600 0.79773900 0.78200900
0.77254900 0.78084900 0.80110900 0.78538400
0.77647100 0.78426600 0.80452600 0.78879300
0.78039200 0.78771700 0.80793500 0.79223700
0.78431400 0.79118000 0.81131500 0.79571500
0.78823500 0.79459700 0.81466400 0.79916400
0.79215700 0.79795900 0.81796900 0.80255600
0.79607800 0.80127200 0.82122200 0.80588800
0.80000000 0.80455000 0.82441700 0.80916200
0.80392200 0.80778600 0.82756300 0.81237900
0.80784300 0.81097000 0.83066500 0.81554100
0.81176500 0.81409200 0.83373500 0.81865200
0.81568600 0.81715300 0.83682300 0.82170200
0.81960800 0.82019100 0.83993900 0.82470600
0.82352900 0.82326200 0.84308900 0.82774300
0.82745100 0.82636600 0.84627600 0.83082400
0.83137300 0.82950100 0.84949700 0.83394900
0.83529400 0.83266900 0.85275400 0.83712200
0.83921600 0.83588900 0.85605500 0.84034700
0.84313700 0.83916000 0.85938900 0.84362600
0.84705900 0.84247300 0.86273300 0.84695700
0.85098000 0.84579600 0.86608700 0.85032000
0.85490200 0.84911800 0.86944900 0.85369300
0.85882400 0.85243800 0.87281800 0.85708100
0.86274500 0.85575000 0.87619700 0.86046600
0.86666700 0.85906900 0.87961200 0.86385000
0.87058800 0.86242800 0.88305800 0.86726200
0.87451000 0.86582800 0.88653100 0.87071600
0.87843100 0.86927400 0.89003600 0.87421300
0.88235300 0.87276200 0.89356800 0.87774500
0.88627500 0.87627700 0.89713300 0.88130000
0.89019600 0.87981300 0.90073300 0.88488000
0.89411800 0.88336900 0.90434600 0.88848100
0.89803900 0.88694500 0.90796700 0.89210200
0.90196100 0.89054000 0.91160100 0.89575700
0.90588200 0.89416100 0.91526400 0.89944600
0.90980400 0.89781500 0.91894700 0.90317900
0.91372500 0.90149500 0.92260900 0.90695000
0.91764700 0.90518400 0.92625000 0.91072700
0.92156900 0.90887900 0.92987100 0.91450000
0.92549000 0.91256600 0.93347100 0.91827000
0.92941200 0.91624400 0.93705600 0.92202600
0.93333300 0.91991400 0.94062900 0.92577000
0.93725500 0.92357900 0.94418800 0.92950500
0.94117600 0.92723500 0.94773700 0.93323000
0.94509800 0.93088000 0.95127400 0.93694600
0.94902000 0.93451700 0.95479900 0.94065300
0.95294100 0.93814800 0.95831400 0.94435200
0.95686300 0.94177400 0.96182100 0.94804300
0.96078400 0.94539300 0.96532000 0.95172800
0.96470600 0.94900400 0.96880800 0.95540400
0.96862700 0.95260800 0.97228300 0.95907200
0.97254900 0.95620800 0.97574500 0.96273600
0.97647100 0.95980400 0.97919400 0.96639600
0.98039200 0.96339600 0.98262900 0.97005200
0.98431400 0.96698400 0.98605200 0.97370500
0.98823500 0.97056800 0.98946100 0.97735400
0.99215700 0.97414700 0.99285800 0.98099800
0.99607800 0.97772200 0.99624200 0.98463900
1.00000000 0.98129300 0.99961300 0.98827600
END_DATA
CAL    

DESCRIPTOR "Argyll Calibration options and model"
ORIGINATOR "Argyll dispcal"
CREATED "Fri Nov 11 17:06:06 202"

NUMBER_OF_FIELDS 3
BEGIN_DATA_FORMAT
R_P G_P B_P
END_DATA_FORMAT

NUMBER_OF_SETS 32
BEGIN_DATA
-0.001279810 -0.000947309 -0.001017080
1.001280000 1.000950000 1.001020000
2.260370000 2.202860000 2.031060000
0.725327000 0.831763000 0.802354000
0.173514000 0.151531000 0.144943000
0.172226000 0.167337000 0.187392000
0.091382000 0.158893000 0.163452000
0.077939100 0.222113000 0.192218000
0.114668000 0.145927000 0.101050000
0.126574000 0.115125000 0.075346700
0.074485400 0.094105800 0.078901400
0.061235300 0.081069600 0.073131500
0.055774300 0.080319600 0.067981000
0.043460000 0.073563200 0.076864000
0.056338200 0.064594700 0.063629900
0.056889200 0.082942300 0.051980800
0.050699500 0.059496400 0.061056200
0.049637800 0.058548200 0.053675300
0.051466000 0.050050000 0.061107800
0.045158400 0.053252600 0.050074400
0.038560500 0.049150800 0.049310500
0.045902500 0.041101300 0.047163600
0.035987300 0.042914100 0.043404100
0.037485200 0.040410800 0.045224700
0.040456700 0.038041900 0.041602100
0.036174500 0.040112400 0.037971100
0.036035500 0.043617000 0.038466100
0.034861500 0.041024000 0.037343300
0.031690900 0.036345400 0.036136500
0.029018200 0.037817100 0.035089900
0.027304900 0.033216900 0.032321100
0.027458400 0.032255100 0.031596100
END_DATA
