.local/share/DisplayCAL/storage/DisplayPort-2CRT/DisplayPort-2CRT.ti3
CTI3   

DESCRIPTOR "Argyll Calibration Target chart information 3"
ORIGINATOR "Argyll dispread"
CREATED "Fri Nov 11 17:06:07 2022"
DEVICE_CLASS "DISPLAY"
SINGLE_DIM_STEPS "5"
COMP_GREY_STEPS "52"
MULTI_DIM_STEPS "5"
COLOR_REP "RGB_XYZ"
TARGET_INSTRUMENT "X-Rite i1 DisplayPro, ColorMunki Display"
DISPLAY_TYPE_REFRESH "NO"
DISPLAY_TYPE_BASE_ID "1"
INSTRUMENT_TYPE_SPECTRAL "NO"
LUMINANCE_XYZ_CDM2 "94.088560 98.629313 108.238090"
NORMALIZED_TO_Y_100 "YES"
VIDEO_LUT_CALIBRATION_POSSIBLE "YES"

BEGIN_ARGYLL_COLPROF_ARGS
-v -qh -aX -bn -C "No copyright. Created with DisplayCAL 3.8.9.3 and ArgyllCMS 2.3.1" -M "Monitor 3, Output DisplayPort-2"
END_ARGYLL_COLPROF_ARGS

OBSERVER "1931_2"
USE_BLACK_POINT_COMPENSATION "NO"
BLACK_POINT_CORRECTION "0.0"
HIRES_B2A "YES"
HIRES_B2A_SIZE "-1"
SMOOTH_B2A "YES"
PATCH_SEQUENCE "OPTIMIZE_DISPLAY_RESPONSE_DELAY"

NUMBER_OF_FIELDS 7
BEGIN_DATA_FORMAT
SAMPLE_ID RGB_R RGB_G RGB_B XYZ_X XYZ_Y XYZ_Z
END_DATA_FORMAT

NUMBER_OF_SETS 175
BEGIN_DATA
1 100.00000 100.00000 100.00000 95.396100 100.00000 109.74200
2 100.00000 100.00000 75.000000 86.182100 95.672500 61.717200
3 100.00000 100.00000 100.00000 95.466100 100.14800 109.74400
4 100.00000 100.00000 100.00000 95.451200 100.18800 109.92800
5 0.0000000 0.0000000 0.0000000 0.0000000 0.0000000 0.0000000
6 25.000000 0.0000000 0.0000000 2.3857300 1.3638600 0.0961486
7 50.000000 0.0000000 0.0000000 10.309700 5.8676900 0.4095740
8 75.000000 0.0000000 0.0000000 24.276000 13.868300 0.9924840
9 100.00000 0.0000000 0.0000000 47.538600 27.129900 1.9999600
10 100.00000 0.0000000 25.000000 48.233300 27.636400 7.0484700
11 100.00000 25.000000 25.000000 49.586600 30.893000 7.4490200
12 100.00000 50.000000 25.000000 54.840000 41.498700 9.3290300
13 100.00000 75.000000 25.000000 63.441700 60.346200 12.680500
14 0.0000000 0.0000000 25.000000 0.9270440 0.4333290 4.8710700
15 25.000000 0.0000000 25.000000 3.2877600 1.7776300 4.9359800
16 75.000000 0.0000000 100.00000 43.120200 22.453200 100.33600
17 100.00000 0.0000000 100.00000 66.249400 35.641100 100.90200
18 1.9608000 1.9608000 1.9608000 0.1237380 0.1389310 0.1495750
19 3.9216000 3.9216000 3.9216000 0.2958110 0.3216490 0.3408670
20 5.8824000 5.8824000 5.8824000 0.4851100 0.5180870 0.5658220
21 7.8431000 7.8431000 7.8431000 0.7127350 0.7450920 0.8122620
22 9.8039000 9.8039000 9.8039000 0.9475500 1.0135400 1.0993600
23 11.765000 11.765000 11.765000 1.2427700 1.3055800 1.4369200
24 13.726000 13.726000 13.726000 1.6265400 1.6955400 1.8748100
25 15.686000 15.686000 15.686000 2.0576300 2.1247200 2.2949000
26 17.647000 17.647000 17.647000 2.4972600 2.6389400 2.8227200
27 19.608000 19.608000 19.608000 3.0249200 3.1898600 3.4250200
28 21.569000 21.569000 21.569000 3.5933400 3.8249200 4.1225600
29 23.529000 23.529000 23.529000 4.2420200 4.4879900 4.7879400
30 27.451000 27.451000 27.451000 5.7205500 6.0144400 6.5449000
31 29.412000 29.412000 29.412000 6.5486500 6.9224500 7.5793600
32 31.373000 31.373000 31.373000 7.4670700 7.8323500 8.7498700
33 33.333000 33.333000 33.333000 8.4009000 8.8089100 9.8643600
34 35.294000 35.294000 35.294000 9.5080600 9.9223200 10.960900
35 37.255000 37.255000 37.255000 10.569500 11.101400 12.213300
36 39.216000 39.216000 39.216000 11.920500 12.500600 13.728200
37 41.176000 41.176000 41.176000 13.315000 13.811400 15.113900
38 43.137000 43.137000 43.137000 14.677400 15.316000 16.388400
39 45.098000 45.098000 45.098000 16.357200 17.207300 18.408200
40 47.059000 47.059000 47.059000 17.946200 18.843300 20.284400
41 49.020000 49.020000 49.020000 19.584000 20.594700 22.481300
42 50.980000 50.980000 50.980000 21.481600 22.420000 25.068800
43 52.941000 52.941000 52.941000 23.184300 24.384000 26.406500
44 54.902000 54.902000 54.902000 24.748900 26.237800 27.674400
45 56.863000 56.863000 56.863000 26.847700 28.289100 30.719800
46 58.824000 58.824000 58.824000 29.344200 30.678600 34.568800
47 60.784000 60.784000 60.784000 31.359900 33.050700 36.145700
48 62.745000 62.745000 62.745000 33.696700 35.539500 38.656900
49 64.706000 64.706000 64.706000 36.008600 37.954500 41.215600
50 66.667000 66.667000 66.667000 38.394000 40.445100 43.956600
51 68.627000 68.627000 68.627000 40.706000 42.860100 46.515200
52 70.588000 70.588000 70.588000 43.164700 45.426300 49.438800
53 72.549000 72.549000 72.549000 45.638400 47.952300 52.178900
54 76.471000 76.471000 76.471000 51.197600 53.901300 58.577800
55 78.431000 78.431000 78.431000 54.389700 57.246800 62.232900
56 80.392000 80.392000 80.392000 57.438500 60.368400 65.703700
57 82.353000 82.353000 82.353000 60.542300 63.678500 69.359700
58 84.314000 84.314000 84.314000 63.499400 66.837400 72.650800
59 86.275000 86.275000 86.275000 66.533300 69.999200 76.304900
60 88.235000 88.235000 88.235000 70.335500 74.014500 80.691600
61 90.196000 90.196000 90.196000 74.801200 78.660800 85.807900
62 92.157000 92.157000 92.157000 78.441700 82.565000 90.013100
63 94.118000 94.118000 94.118000 82.552400 86.842400 94.946100
64 96.078000 96.078000 96.078000 87.018100 91.488700 100.06200
65 98.039000 98.039000 98.039000 90.788800 95.357100 104.62900
66 25.000000 25.000000 0.0000000 3.9531700 4.6769300 0.6264550
67 50.000000 25.000000 0.0000000 11.839900 9.1929100 0.9425240
68 75.000000 25.000000 0.0000000 25.732600 17.172000 1.5331600
69 100.00000 25.000000 0.0000000 49.109500 30.447100 2.5195300
70 100.00000 50.000000 0.0000000 54.104900 41.227800 4.3311200
71 50.000000 50.000000 0.0000000 16.823300 20.109500 2.6962600
72 75.000000 50.000000 0.0000000 30.875300 28.036300 3.2903500
73 25.000000 50.000000 0.0000000 8.9678400 15.603100 2.4014300
74 25.000000 75.000000 0.0000000 17.840100 34.930000 5.6264600
75 50.000000 75.000000 0.0000000 25.683100 39.363000 6.0269300
76 75.000000 75.000000 0.0000000 39.634400 47.254000 6.5631600
77 100.00000 75.000000 0.0000000 62.699100 60.148000 7.4828000
78 25.000000 100.00000 0.0000000 32.595700 67.083900 11.326500
79 50.000000 100.00000 0.0000000 40.317600 71.366700 11.483200
80 75.000000 100.00000 0.0000000 54.233500 78.997000 12.091100
81 100.00000 100.00000 0.0000000 77.185000 91.595300 13.133100
82 100.00000 100.00000 25.000000 77.879100 91.864600 17.937300
83 50.000000 0.0000000 25.000000 11.211700 6.2733300 5.2823700
84 50.000000 25.000000 50.000000 16.133100 11.229700 22.285600
85 0.0000000 25.000000 0.0000000 1.5228000 3.2906100 0.5323040
86 0.0000000 25.000000 25.000000 2.4267600 3.7252000 5.3928000
87 25.490000 25.490000 25.490000 4.9685300 5.2313500 5.5293900
88 50.000000 25.000000 25.000000 12.856900 9.6842500 5.7942000
89 75.000000 25.000000 25.000000 26.552400 17.464000 6.4242500
90 0.0000000 50.000000 0.0000000 6.6473600 14.347600 2.2850800
91 0.0000000 50.000000 25.000000 7.6770300 14.721900 7.1385600
92 25.000000 50.000000 25.000000 9.8511900 15.943800 7.2632200
93 50.000000 50.000000 25.000000 17.693200 20.376700 7.6591200
94 75.000000 50.000000 25.000000 31.595700 28.306600 8.2184000
95 0.0000000 75.000000 0.0000000 15.442100 33.559700 5.4847900
96 0.0000000 75.000000 25.000000 16.318100 33.900100 10.311500
97 25.000000 75.000000 25.000000 18.725700 35.084300 10.573900
98 50.000000 75.000000 25.000000 26.438200 39.480300 10.775900
99 75.000000 75.000000 25.000000 40.459000 47.373900 11.640600
100 0.0000000 100.00000 0.0000000 30.156100 65.639100 11.152300
101 0.0000000 100.00000 25.000000 31.102800 65.982100 16.313000
102 25.000000 100.00000 25.000000 33.398600 67.203000 16.301200
103 50.000000 100.00000 25.000000 41.130800 71.486200 16.506700
104 75.000000 100.00000 25.000000 55.032500 79.156600 17.301400
105 0.0000000 0.0000000 50.000000 3.9414300 1.8324000 20.879100
106 25.000000 0.0000000 50.000000 6.4803400 3.2427500 21.412500
107 50.000000 0.0000000 50.000000 14.152900 7.6982500 21.736500
108 75.000000 0.0000000 50.000000 28.105400 15.822600 22.367000
109 100.00000 0.0000000 50.000000 51.093200 29.260600 23.239000
110 100.00000 0.0000000 75.000000 56.713200 31.342500 51.608100
111 100.00000 25.000000 75.000000 58.113900 34.536500 51.832000
112 75.000000 0.0000000 25.000000 25.141400 14.238800 5.9593100
113 75.000000 25.000000 50.000000 29.668400 18.992300 22.549400
114 100.00000 25.000000 50.000000 52.805500 32.159900 23.025800
115 25.000000 25.000000 50.000000 7.9875400 6.6263000 21.423900
116 25.000000 50.000000 50.000000 12.898900 17.385400 23.159900
117 75.000000 50.000000 50.000000 34.981500 29.865700 25.130400
118 100.00000 50.000000 50.000000 57.842500 42.938700 25.012200
119 100.00000 50.000000 75.000000 63.071300 45.239500 53.606700
120 25.000000 75.000000 50.000000 21.810500 36.713800 26.571100
121 50.000000 75.000000 50.000000 29.600400 41.144800 26.720600
122 75.000000 75.000000 50.000000 43.629300 48.965800 27.788100
123 100.00000 75.000000 50.000000 66.703800 61.827800 29.171700
124 100.00000 75.000000 75.000000 71.678200 64.192300 56.399600
125 25.000000 100.00000 50.000000 36.488000 68.937700 31.737100
126 50.000000 100.00000 50.000000 44.543800 73.273400 33.725800
127 75.000000 100.00000 50.000000 58.570500 81.012800 34.275300
128 100.00000 100.00000 50.000000 81.464200 93.681800 34.879600
129 25.000000 0.0000000 75.000000 11.941200 5.7903600 50.281900
130 50.000000 0.0000000 75.000000 20.041300 10.532400 50.409900
131 75.000000 0.0000000 75.000000 33.740400 18.240200 51.040400
132 75.000000 25.000000 75.000000 34.975600 21.683300 51.455100
133 75.000000 50.000000 100.00000 49.671600 36.608100 102.33600
134 25.000000 25.000000 75.000000 13.393100 9.1357600 50.508100
135 25.000000 50.000000 100.00000 27.865500 24.251500 101.76200
136 0.0000000 25.000000 50.000000 5.4557200 5.1911600 21.194500
137 0.0000000 25.000000 75.000000 11.029100 7.5588100 50.519800
138 0.0000000 50.000000 75.000000 16.103000 18.653200 52.300600
139 25.000000 50.000000 75.000000 18.432500 19.948200 52.283600
140 50.000000 50.000000 75.000000 26.129400 24.343700 52.411900
141 75.000000 50.000000 75.000000 40.135400 32.309600 53.042000
142 74.510000 74.510000 74.510000 48.525500 50.962900 55.468200
143 0.0000000 75.000000 75.000000 24.923100 37.978300 55.279700
144 25.000000 75.000000 75.000000 27.144300 39.123500 55.079200
145 50.000000 75.000000 75.000000 34.968000 43.555800 55.388100
146 0.0000000 75.000000 50.000000 19.515600 35.493000 26.587600
147 0.0000000 100.00000 50.000000 34.102100 67.681400 31.741900
148 0.0000000 100.00000 75.000000 39.473500 70.092500 60.427800
149 25.000000 100.00000 75.000000 41.786500 71.200400 60.407000
150 50.000000 100.00000 75.000000 49.575100 75.558500 60.715000
151 75.000000 100.00000 75.000000 63.491100 83.261700 61.158900
152 75.000000 100.00000 100.00000 72.801900 87.706300 109.73100
153 25.000000 0.0000000 100.00000 21.480500 10.009100 99.756400
154 50.000000 0.0000000 100.00000 29.715600 15.268800 100.07500
155 0.0000000 0.0000000 75.000000 9.4379900 4.4040600 50.118200
156 0.0000000 0.0000000 100.00000 18.923800 8.6932500 99.777400
157 0.0000000 25.000000 100.00000 20.495000 12.121400 100.18500
158 25.000000 25.000000 100.00000 22.876200 13.606600 99.989000
159 50.000000 25.000000 100.00000 30.626800 17.758300 100.29300
160 75.000000 25.000000 100.00000 44.644300 25.756800 100.55900
161 100.00000 25.000000 100.00000 67.700000 38.869100 100.94300
162 100.00000 50.000000 100.00000 72.654000 49.644800 102.53800
163 50.000000 25.000000 75.000000 21.281800 13.490700 50.814100
164 50.000000 50.000000 100.00000 35.650700 28.682400 101.88900
165 0.0000000 50.000000 50.000000 10.512600 16.129100 23.162700
166 0.0000000 50.000000 100.00000 25.535900 22.956500 101.77900
167 0.0000000 75.000000 100.00000 34.279300 42.278700 104.39500
168 25.000000 75.000000 100.00000 36.550400 43.458000 104.01200
169 50.000000 75.000000 100.00000 44.374000 47.890300 104.32100
170 75.000000 75.000000 100.00000 58.218300 55.745200 104.77000
171 100.00000 75.000000 100.00000 81.134100 68.560800 105.15000
172 0.0000000 100.00000 100.00000 48.914500 74.501200 109.36100
173 25.000000 100.00000 100.00000 51.209100 75.722000 109.34300
174 50.000000 100.00000 100.00000 58.924400 80.004500 109.46900
175 100.00000 100.00000 100.00000 95.647800 100.37400 110.11000
END_DATA
CAL    

DESCRIPTOR "Argyll Device Calibration State"
ORIGINATOR "Argyll dispread"
CREATED "Fri Nov 11 17:06:07 2022"
DEVICE_CLASS "DISPLAY"
COLOR_REP "RGB"

BEGIN_ARGYLL_DISPCAL_ARGS
-v2 -ql -t6500 -b120.0 -gs -f1.0 -k0 -A4.0 -d3 -c1 -yn -P0.889184397163,0.296703296703,1.24867724868
END_ARGYLL_DISPCAL_ARGS


NUMBER_OF_FIELDS 4
BEGIN_DATA_FORMAT
RGB_I RGB_R RGB_G RGB_B
END_DATA_FORMAT

NUMBER_OF_SETS 256
BEGIN_DATA
0.00000000 0.00000000 0.00000000 0.00000000
0.00392157 0.05466340 0.10151900 0.07357610
0.00784314 0.08518470 0.13965900 0.10797600
0.01176470 0.10583200 0.15948200 0.12674400
0.01568630 0.12039800 0.17195200 0.13937500
0.01960780 0.13107000 0.18102600 0.14878500
0.02352940 0.13939800 0.18805100 0.15632600
0.02745100 0.14628600 0.19387900 0.16265200
0.03137250 0.15225900 0.19909300 0.16825800
0.03529410 0.15753600 0.20383700 0.17336300
0.03921570 0.16237900 0.20819700 0.17806100
0.04313730 0.16690500 0.21222900 0.18245400
0.04705880 0.17119700 0.21597400 0.18673400
0.05098040 0.17528500 0.21945400 0.19090500
0.05490200 0.17918900 0.22282100 0.19496800
0.05882350 0.18301300 0.22618400 0.19892000
0.06274510 0.18679800 0.22953800 0.20273400
0.06666670 0.19053800 0.23288000 0.20640800
0.07058820 0.19422000 0.23620700 0.20993600
0.07450980 0.19784100 0.23951600 0.21332300
0.07843140 0.20138200 0.24280300 0.21658500
0.08235290 0.20484200 0.24606000 0.21982800
0.08627450 0.20821700 0.24928800 0.22306900
0.09019610 0.21150300 0.25246700 0.22630800
0.09411760 0.21470800 0.25557300 0.22954200
0.09803920 0.21785000 0.25860800 0.23277900
0.10196100 0.22100400 0.26157800 0.23603100
0.10588200 0.22417600 0.26449100 0.23930100
0.10980400 0.22736900 0.26734700 0.24259800
0.11372500 0.23059700 0.27015500 0.24592400
0.11764700 0.23387000 0.27298500 0.24927500
0.12156900 0.23718600 0.27586900 0.25260600
0.12549000 0.24055200 0.27880000 0.25590300
0.12941200 0.24396800 0.28177900 0.25916600
0.13333300 0.24743000 0.28481300 0.26240000
0.13725500 0.25088900 0.28790200 0.26560400
0.14117600 0.25433200 0.29102600 0.26877900
0.14509800 0.25775200 0.29418400 0.27192100
0.14902000 0.26114900 0.29737900 0.27502600
0.15294100 0.26452800 0.30060100 0.27809400
0.15686300 0.26788300 0.30384000 0.28117700
0.16078400 0.27120400 0.30708500 0.28428800
0.16470600 0.27449000 0.31033300 0.28743700
0.16862700 0.27774300 0.31357600 0.29060700
0.17254900 0.28096300 0.31681200 0.29376200
0.17647100 0.28415600 0.32003800 0.29690100
0.18039200 0.28736000 0.32325100 0.30003200
0.18431400 0.29056700 0.32645100 0.30316200
0.18823500 0.29377500 0.32964100 0.30628700
0.19215700 0.29699400 0.33282000 0.30941300
0.19607800 0.30021800 0.33599800 0.31254300
0.20000000 0.30344200 0.33919400 0.31567600
0.20392200 0.30666400 0.34239000 0.31881100
0.20784300 0.30988300 0.34555500 0.32195000
0.21176500 0.31309800 0.34869200 0.32509300
0.21568600 0.31630700 0.35180000 0.32824000
0.21960800 0.31950500 0.35488100 0.33140100
0.22352900 0.32268900 0.35793700 0.33460200
0.22745100 0.32586100 0.36096400 0.33784400
0.23137300 0.32902000 0.36396700 0.34108700
0.23529400 0.33219100 0.36696400 0.34430700
0.23921600 0.33538100 0.36995300 0.34750100
0.24313700 0.33856800 0.37293000 0.35067400
0.24705900 0.34171900 0.37589000 0.35383100
0.25098000 0.34483200 0.37885300 0.35696500
0.25490200 0.34791400 0.38182300 0.36007300
0.25882400 0.35096400 0.38480500 0.36316300
0.26274500 0.35398500 0.38779700 0.36624200
0.26666700 0.35697900 0.39079900 0.36931800
0.27058800 0.35995100 0.39381200 0.37242300
0.27451000 0.36290700 0.39684300 0.37556000
0.27843100 0.36585800 0.39989900 0.37873500
0.28235300 0.36884000 0.40299500 0.38195600
0.28627500 0.37186700 0.40613200 0.38522700
0.29019600 0.37493500 0.40929900 0.38854400
0.29411800 0.37804200 0.41245000 0.39189900
0.29803900 0.38120300 0.41557700 0.39529300
0.30196100 0.38442800 0.41866500 0.39872200
0.30588200 0.38771400 0.42168700 0.40218900
0.30980400 0.39105400 0.42464600 0.40567100
0.31372500 0.39444500 0.42755100 0.40910300
0.31764700 0.39788500 0.43046400 0.41246900
0.32156900 0.40132800 0.43340000 0.41574700
0.32549000 0.40472800 0.43635400 0.41893100
0.32941200 0.40808900 0.43932300 0.42203400
0.33333300 0.41140700 0.44230600 0.42509300
0.33725500 0.41467600 0.44530800 0.42811700
0.34117600 0.41791400 0.44832500 0.43111200
0.34509800 0.42113900 0.45135400 0.43408900
0.34902000 0.42436300 0.45439700 0.43704600
0.35294100 0.42759200 0.45745100 0.43998100
0.35686300 0.43083600 0.46051000 0.44290300
0.36078400 0.43409700 0.46357500 0.44584900
0.36470600 0.43737200 0.46664400 0.44882900
0.36862700 0.44065300 0.46972100 0.45184500
0.37254900 0.44393800 0.47280800 0.45489200
0.37647100 0.44723500 0.47590700 0.45796800
0.38039200 0.45055900 0.47902300 0.46107500
0.38431400 0.45392800 0.48216000 0.46420500
0.38823500 0.45733700 0.48532300 0.46734800
0.39215700 0.46077300 0.48851500 0.47051000
0.39607800 0.46422700 0.49173600 0.47368900
0.40000000 0.46769400 0.49498700 0.47688000
0.40392200 0.47117500 0.49828100 0.48007600
0.40784300 0.47465800 0.50166400 0.48327100
0.41176500 0.47813000 0.50513500 0.48646400
0.41568600 0.48159200 0.50869100 0.48965600
0.41960800 0.48504200 0.51233400 0.49288300
0.42352900 0.48848300 0.51605200 0.49618300
0.42745100 0.49196500 0.51974700 0.49956700
0.43137300 0.49552000 0.52339600 0.50302400
0.43529400 0.49911900 0.52699500 0.50654600
0.43921600 0.50275200 0.53053800 0.51005200
0.44313700 0.50635300 0.53402300 0.51353000
0.44705900 0.50989600 0.53745800 0.51699000
0.45098000 0.51339300 0.54085600 0.52044200
0.45490200 0.51685600 0.54421900 0.52388500
0.45882400 0.52028800 0.54757000 0.52731700
0.46274500 0.52369300 0.55091900 0.53073600
0.46666700 0.52707300 0.55426500 0.53414400
0.47058800 0.53042500 0.55760800 0.53754500
0.47451000 0.53376300 0.56095700 0.54093800
0.47843100 0.53708500 0.56430400 0.54433000
0.48235300 0.54039800 0.56764700 0.54771900
0.48627500 0.54370700 0.57098300 0.55110900
0.49019600 0.54702900 0.57430100 0.55450800
0.49411800 0.55035900 0.57757900 0.55791700
0.49803900 0.55369800 0.58082100 0.56133100
0.50196100 0.55704400 0.58402700 0.56475100
0.50588200 0.56039800 0.58716600 0.56817700
0.50980400 0.56376000 0.59023300 0.57157300
0.51372500 0.56709700 0.59322900 0.57493300
0.51764700 0.57039200 0.59616500 0.57824500
0.52156900 0.57364500 0.59909700 0.58149300
0.52549000 0.57684700 0.60203800 0.58468600
0.52941200 0.57999600 0.60500400 0.58782900
0.53333300 0.58309000 0.60799800 0.59097100
0.53725500 0.58616000 0.61102500 0.59414200
0.54117600 0.58925600 0.61408300 0.59731800
0.54509800 0.59236600 0.61716900 0.60049400
0.54902000 0.59548400 0.62027800 0.60367200
0.55294100 0.59860600 0.62340300 0.60685800
0.55686300 0.60173300 0.62654600 0.61004800
0.56078400 0.60487000 0.62973100 0.61324600
0.56470600 0.60801600 0.63296900 0.61644700
0.56862700 0.61117300 0.63626500 0.61964800
0.57254900 0.61435000 0.63961500 0.62287700
0.57647100 0.61757700 0.64300300 0.62613700
0.58039200 0.62084900 0.64641700 0.62943600
0.58431400 0.62415700 0.64985200 0.63278100
0.58823500 0.62750000 0.65330400 0.63617000
0.59215700 0.63087400 0.65677900 0.63959600
0.59607800 0.63428300 0.66028400 0.64305200
0.60000000 0.63773600 0.66381900 0.64653000
0.60392200 0.64124400 0.66738600 0.65002100
0.60784300 0.64480400 0.67099800 0.65353100
0.61176500 0.64840600 0.67462200 0.65705800
0.61568600 0.65205200 0.67825300 0.66061100
0.61960800 0.65574500 0.68189900 0.66421200
0.62352900 0.65946600 0.68551400 0.66781100
0.62745100 0.66317600 0.68905600 0.67140400
0.63137300 0.66687400 0.69252300 0.67498300
0.63529400 0.67050300 0.69591600 0.67848300
0.63921600 0.67403800 0.69923200 0.68188800
0.64313700 0.67748800 0.70246000 0.68519400
0.64705900 0.68086100 0.70559700 0.68840500
0.65098000 0.68417800 0.70865700 0.69153300
0.65490200 0.68744900 0.71165400 0.69459300
0.65882400 0.69067300 0.71460400 0.69759300
0.66274500 0.69384200 0.71751400 0.70053500
0.66666700 0.69694300 0.72038200 0.70342400
0.67058800 0.69998200 0.72320400 0.70629000
0.67451000 0.70299400 0.72597900 0.70914700
0.67843100 0.70599100 0.72871500 0.71199600
0.68235300 0.70897600 0.73142100 0.71483800
0.68627500 0.71195100 0.73410000 0.71767200
0.69019600 0.71492200 0.73675500 0.72050600
0.69411800 0.71789300 0.73940800 0.72334500
0.69803900 0.72085900 0.74212300 0.72618300
0.70196100 0.72380900 0.74489800 0.72900600
0.70588200 0.72674000 0.74773600 0.73182200
0.70980400 0.72967500 0.75063500 0.73468800
0.71372500 0.73267300 0.75357100 0.73762400
0.71764700 0.73573800 0.75653300 0.74063000
0.72156900 0.73885500 0.75952200 0.74369400
0.72549000 0.74198800 0.76254200 0.74678000
0.72941200 0.74513500 0.76560200 0.74988900
0.73333300 0.74829500 0.76869800 0.75301500
0.73725500 0.75146300 0.77182400 0.75615300
0.74117600 0.75464600 0.77497200 0.75930200
0.74509800 0.75784500 0.77814200 0.76246800
0.74902000 0.76106100 0.78134200 0.76565500
0.75294100 0.76429300 0.78457200 0.76886000
0.75686300 0.76754300 0.78782800 0.77208900
0.76078400 0.77081500 0.79110300 0.77535500
0.76470600 0.77412100 0.79440500 0.77866400
0.76862700 0.77746600 0.79773900 0.78200900
0.77254900 0.78084900 0.80110900 0.78538400
0.77647100 0.78426600 0.80452600 0.78879300
0.78039200 0.78771700 0.80793500 0.79223700
0.78431400 0.79118000 0.81131500 0.79571500
0.78823500 0.79459700 0.81466400 0.79916400
0.79215700 0.79795900 0.81796900 0.80255600
0.79607800 0.80127200 0.82122200 0.80588800
0.80000000 0.80455000 0.82441700 0.80916200
0.80392200 0.80778600 0.82756300 0.81237900
0.80784300 0.81097000 0.83066500 0.81554100
0.81176500 0.81409200 0.83373500 0.81865200
0.81568600 0.81715300 0.83682300 0.82170200
0.81960800 0.82019100 0.83993900 0.82470600
0.82352900 0.82326200 0.84308900 0.82774300
0.82745100 0.82636600 0.84627600 0.83082400
0.83137300 0.82950100 0.84949700 0.83394900
0.83529400 0.83266900 0.85275400 0.83712200
0.83921600 0.83588900 0.85605500 0.84034700
0.84313700 0.83916000 0.85938900 0.84362600
0.84705900 0.84247300 0.86273300 0.84695700
0.85098000 0.84579600 0.86608700 0.85032000
0.85490200 0.84911800 0.86944900 0.85369300
0.85882400 0.85243800 0.87281800 0.85708100
0.86274500 0.85575000 0.87619700 0.86046600
0.86666700 0.85906900 0.87961200 0.86385000
0.87058800 0.86242800 0.88305800 0.86726200
0.87451000 0.86582800 0.88653100 0.87071600
0.87843100 0.86927400 0.89003600 0.87421300
0.88235300 0.87276200 0.89356800 0.87774500
0.88627500 0.87627700 0.89713300 0.88130000
0.89019600 0.87981300 0.90073300 0.88488000
0.89411800 0.88336900 0.90434600 0.88848100
0.89803900 0.88694500 0.90796700 0.89210200
0.90196100 0.89054000 0.91160100 0.89575700
0.90588200 0.89416100 0.91526400 0.89944600
0.90980400 0.89781500 0.91894700 0.90317900
0.91372500 0.90149500 0.92260900 0.90695000
0.91764700 0.90518400 0.92625000 0.91072700
0.92156900 0.90887900 0.92987100 0.91450000
0.92549000 0.91256600 0.93347100 0.91827000
0.92941200 0.91624400 0.93705600 0.92202600
0.93333300 0.91991400 0.94062900 0.92577000
0.93725500 0.92357900 0.94418800 0.92950500
0.94117600 0.92723500 0.94773700 0.93323000
0.94509800 0.93088000 0.95127400 0.93694600
0.94902000 0.93451700 0.95479900 0.94065300
0.95294100 0.93814800 0.95831400 0.94435200
0.95686300 0.94177400 0.96182100 0.94804300
0.96078400 0.94539300 0.96532000 0.95172800
0.96470600 0.94900400 0.96880800 0.95540400
0.96862700 0.95260800 0.97228300 0.95907200
0.97254900 0.95620800 0.97574500 0.96273600
0.97647100 0.95980400 0.97919400 0.96639600
0.98039200 0.96339600 0.98262900 0.97005200
0.98431400 0.96698400 0.98605200 0.97370500
0.98823500 0.97056800 0.98946100 0.97735400
0.99215700 0.97414700 0.99285800 0.98099800
0.99607800 0.97772200 0.99624200 0.98463900
1.00000000 0.98129300 0.99961300 0.98827600
END_DATA
