.local/share/DisplayCAL/storage/DisplayPort-01440p/DisplayPort-01440p.cal
CAL    

DESCRIPTOR "Argyll Device Calibration Curves"
ORIGINATOR "Argyll dispcal"
CREATED "Wed Nov  9 23:21:58 2022"
DEVICE_CLASS "DISPLAY"
COLOR_REP "RGB"
VIDEO_LUT_CALIBRATION_POSSIBLE "YES"
TV_OUTPUT_ENCODING "NO"
DEVICE_TYPE "n"
TARGET_WHITE_XYZ "114.020608 120.000000 130.503190"
TARGET_GAMMA "2.2"
DEGREE_OF_BLACK_OUTPUT_OFFSET "1.0"
BLACK_POINT_CORRECTION "0.0"
BLACK_NEUTRAL_BLEND_RATE "4.0"
BLACK_POINT_HACK "YES"
QUALITY "low"

BEGIN_ARGYLL_DISPCAL_ARGS
-v2 -d1 -c1 -yn -P0.539272030651,0.177685950413,1.24867724868 -X "PFS_Phosphor_Family_31Jan17.ccss" -ql -t6500 -b120.0 -g2.2 -f1.0 -k0 -A4.0 -b
END_ARGYLL_DISPCAL_ARGS


NUMBER_OF_FIELDS 4
BEGIN_DATA_FORMAT
RGB_I RGB_R RGB_G RGB_B
END_DATA_FORMAT

NUMBER_OF_SETS 256
BEGIN_DATA
0.00000000 0.00000000 0.00000000 0.00000000
0.00392157 0.00321968 0.00323419 0.00303730
0.00784314 0.00650499 0.00653303 0.00613980
0.01176470 0.00985796 0.00989847 0.00930962
0.01568630 0.01328070 0.01333260 0.01254900
0.01960780 0.01677540 0.01683740 0.01586010
0.02352940 0.02034440 0.02041520 0.01924560
0.02745100 0.02399000 0.02406840 0.02270780
0.03137250 0.02771480 0.02779920 0.02624950
0.03529410 0.03152130 0.03161010 0.02987330
0.03921570 0.03541140 0.03550340 0.03358230
0.04313730 0.03937740 0.03947390 0.03737710
0.04705880 0.04340910 0.04351100 0.04124930
0.05098040 0.04749700 0.04760270 0.04519340
0.05490200 0.05162930 0.05173740 0.04919830
0.05882350 0.05579630 0.05590480 0.05326070
0.06274510 0.05998200 0.06008800 0.05737280
0.06666670 0.06417130 0.06427250 0.06152070
0.07058820 0.06835460 0.06844980 0.06569840
0.07450980 0.07252900 0.07261410 0.06990410
0.07843140 0.07669470 0.07676210 0.07413290
0.08235290 0.08085060 0.08089300 0.07838020
0.08627450 0.08499250 0.08500420 0.08263730
0.09019610 0.08912060 0.08909920 0.08690220
0.09411760 0.09323990 0.09318460 0.09118320
0.09803920 0.09734850 0.09725790 0.09548150
0.10196100 0.10144800 0.10132100 0.09978880
0.10588200 0.10552800 0.10536700 0.10409700
0.10980400 0.10958800 0.10939400 0.10838900
0.11372500 0.11362700 0.11340500 0.11266300
0.11764700 0.11763900 0.11739300 0.11691100
0.12156900 0.12162800 0.12136200 0.12112600
0.12549000 0.12559900 0.12531100 0.12531100
0.12941200 0.12954900 0.12924100 0.12946000
0.13333300 0.13347600 0.13314700 0.13356000
0.13725500 0.13738400 0.13703100 0.13761000
0.14117600 0.14127300 0.14089600 0.14161500
0.14509800 0.14515200 0.14474300 0.14558200
0.14902000 0.14902700 0.14858800 0.14953400
0.15294100 0.15290200 0.15243500 0.15347300
0.15686300 0.15678300 0.15628700 0.15740900
0.16078400 0.16067200 0.16015000 0.16134400
0.16470600 0.16456400 0.16402000 0.16527300
0.16862700 0.16846000 0.16789600 0.16919500
0.17254900 0.17234900 0.17177000 0.17309800
0.17647100 0.17623300 0.17564000 0.17698000
0.18039200 0.18010400 0.17950700 0.18083900
0.18431400 0.18396500 0.18336400 0.18467900
0.18823500 0.18781900 0.18722100 0.18850600
0.19215700 0.19166100 0.19107300 0.19231900
0.19607800 0.19549000 0.19491700 0.19611500
0.20000000 0.19930700 0.19875200 0.19989600
0.20392200 0.20312000 0.20258400 0.20367300
0.20784300 0.20692900 0.20641500 0.20744900
0.21176500 0.21073800 0.21024600 0.21122400
0.21568600 0.21455000 0.21407800 0.21500000
0.21960800 0.21836300 0.21791300 0.21877500
0.22352900 0.22217500 0.22174100 0.22254000
0.22745100 0.22600600 0.22558000 0.22632000
0.23137300 0.22985600 0.22943700 0.23012200
0.23529400 0.23371600 0.23330500 0.23393700
0.23921600 0.23758700 0.23718200 0.23776000
0.24313700 0.24146900 0.24107000 0.24159300
0.24705900 0.24536000 0.24496900 0.24543400
0.25098000 0.24926000 0.24887900 0.24928500
0.25490200 0.25316800 0.25280100 0.25314700
0.25882400 0.25708200 0.25673300 0.25701800
0.26274500 0.26100000 0.26067400 0.26089700
0.26666700 0.26492200 0.26462300 0.26478600
0.27058800 0.26884900 0.26857900 0.26868000
0.27451000 0.27278500 0.27254500 0.27258700
0.27843100 0.27672700 0.27651900 0.27650300
0.28235300 0.28066800 0.28049500 0.28041900
0.28627500 0.28460400 0.28446300 0.28432900
0.29019600 0.28854900 0.28843100 0.28823800
0.29411800 0.29250600 0.29240800 0.29216100
0.29803900 0.29646700 0.29638600 0.29609500
0.30196100 0.30043000 0.30036300 0.30003600
0.30588200 0.30438300 0.30432900 0.30397400
0.30980400 0.30832500 0.30828000 0.30789400
0.31372500 0.31226100 0.31222300 0.31180100
0.31764700 0.31618800 0.31615700 0.31569600
0.32156900 0.32010600 0.32008400 0.31958600
0.32549000 0.32401000 0.32400300 0.32346900
0.32941200 0.32789900 0.32790900 0.32734000
0.33333300 0.33177300 0.33180500 0.33119800
0.33725500 0.33563700 0.33569100 0.33504600
0.34117600 0.33949300 0.33957000 0.33888700
0.34509800 0.34333900 0.34344200 0.34272200
0.34902000 0.34717900 0.34730700 0.34655200
0.35294100 0.35101600 0.35116700 0.35038000
0.35686300 0.35485400 0.35502600 0.35421200
0.36078400 0.35869400 0.35888500 0.35805000
0.36470600 0.36253600 0.36273900 0.36188800
0.36862700 0.36639100 0.36659700 0.36572900
0.37254900 0.37025300 0.37046000 0.36958500
0.37647100 0.37412500 0.37432400 0.37345000
0.38039200 0.37800400 0.37819000 0.37732300
0.38431400 0.38188900 0.38205500 0.38119200
0.38823500 0.38577900 0.38592000 0.38505400
0.39215700 0.38966200 0.38977800 0.38889900
0.39607800 0.39352400 0.39361400 0.39271600
0.40000000 0.39736100 0.39742000 0.39648900
0.40392200 0.40119400 0.40120500 0.40021600
0.40784300 0.40503400 0.40499200 0.40392000
0.41176500 0.40887700 0.40878200 0.40761500
0.41568600 0.41271100 0.41256500 0.41129500
0.41960800 0.41653400 0.41633500 0.41495700
0.42352900 0.42034500 0.42009300 0.41860000
0.42745100 0.42414900 0.42384300 0.42222900
0.43137300 0.42794900 0.42758900 0.42584800
0.43529400 0.43175500 0.43134100 0.42946100
0.43921600 0.43556700 0.43510500 0.43308600
0.44313700 0.43938200 0.43888600 0.43672900
0.44705900 0.44320400 0.44267600 0.44039600
0.45098000 0.44705300 0.44649200 0.44408700
0.45490200 0.45092300 0.45034300 0.44782900
0.45882400 0.45481300 0.45422400 0.45162700
0.46274500 0.45871700 0.45813100 0.45548000
0.46666700 0.46264400 0.46206200 0.45938000
0.47058800 0.46658900 0.46602600 0.46332600
0.47451000 0.47055600 0.47001500 0.46732600
0.47843100 0.47454400 0.47403300 0.47136900
0.48235300 0.47855100 0.47807500 0.47545700
0.48627500 0.48257300 0.48213800 0.47958300
0.49019600 0.48660900 0.48621900 0.48373600
0.49411800 0.49066200 0.49031800 0.48791600
0.49803900 0.49473000 0.49443600 0.49212200
0.50196100 0.49880900 0.49857200 0.49635600
0.50588200 0.50288100 0.50270800 0.50061400
0.50980400 0.50694400 0.50683000 0.50486300
0.51372500 0.51099800 0.51093800 0.50908800
0.51764700 0.51504300 0.51503400 0.51328900
0.52156900 0.51907900 0.51911600 0.51746600
0.52549000 0.52311000 0.52318800 0.52161900
0.52941200 0.52714100 0.52725500 0.52575700
0.53333300 0.53116800 0.53132000 0.52989000
0.53725500 0.53519500 0.53538300 0.53401800
0.54117600 0.53921500 0.53944400 0.53814800
0.54509800 0.54322300 0.54349200 0.54226700
0.54902000 0.54723300 0.54753300 0.54636400
0.55294100 0.55124500 0.55157500 0.55045300
0.55686300 0.55525800 0.55561500 0.55453800
0.56078400 0.55927100 0.55965100 0.55861900
0.56470600 0.56327500 0.56368200 0.56268400
0.56862700 0.56726200 0.56769700 0.56673200
0.57254900 0.57124000 0.57169600 0.57075300
0.57647100 0.57521900 0.57569400 0.57476200
0.58039200 0.57918900 0.57968400 0.57876700
0.58431400 0.58314500 0.58365800 0.58276100
0.58823500 0.58708600 0.58761700 0.58674300
0.59215700 0.59101600 0.59156600 0.59071300
0.59607800 0.59493700 0.59550500 0.59467200
0.60000000 0.59885300 0.59943700 0.59862200
0.60392200 0.60277100 0.60336900 0.60257300
0.60784300 0.60668700 0.60730000 0.60653100
0.61176500 0.61059800 0.61122800 0.61049400
0.61568600 0.61450600 0.61514900 0.61445900
0.61960800 0.61841600 0.61907300 0.61842700
0.62352900 0.62233000 0.62299900 0.62240900
0.62745100 0.62624600 0.62692700 0.62640400
0.63137300 0.63016400 0.63085400 0.63040000
0.63529400 0.63408400 0.63478400 0.63439600
0.63921600 0.63800300 0.63871600 0.63839200
0.64313700 0.64192100 0.64264700 0.64238300
0.64705900 0.64583000 0.64657400 0.64636300
0.65098000 0.64971900 0.65048600 0.65032500
0.65490200 0.65357900 0.65437100 0.65426200
0.65882400 0.65740500 0.65822400 0.65816600
0.66274500 0.66119900 0.66204300 0.66203500
0.66666700 0.66498900 0.66583800 0.66586900
0.67058800 0.66880800 0.66965000 0.66970500
0.67451000 0.67265400 0.67348900 0.67357000
0.67843100 0.67652700 0.67735500 0.67746600
0.68235300 0.68041700 0.68124100 0.68138900
0.68627500 0.68431200 0.68513500 0.68533000
0.69019600 0.68820600 0.68902700 0.68928000
0.69411800 0.69209700 0.69291400 0.69323900
0.69803900 0.69598500 0.69679400 0.69720000
0.70196100 0.69986400 0.70067000 0.70116600
0.70588200 0.70372900 0.70453000 0.70511900
0.70980400 0.70758500 0.70837800 0.70905300
0.71372500 0.71143300 0.71221200 0.71296500
0.71764700 0.71528400 0.71604500 0.71686600
0.72156900 0.71913700 0.71988400 0.72077300
0.72549000 0.72298200 0.72372200 0.72468000
0.72941200 0.72683000 0.72755900 0.72858200
0.73333300 0.73068100 0.73140500 0.73249200
0.73725500 0.73453400 0.73525300 0.73640600
0.74117600 0.73839300 0.73910600 0.74032700
0.74509800 0.74225700 0.74296600 0.74425300
0.74902000 0.74612800 0.74683300 0.74818600
0.75294100 0.75000300 0.75070800 0.75212600
0.75686300 0.75388200 0.75458900 0.75607300
0.76078400 0.75776700 0.75847700 0.76002800
0.76470600 0.76165900 0.76237300 0.76399300
0.76862700 0.76555100 0.76627300 0.76796500
0.77254900 0.76944900 0.77017700 0.77194700
0.77647100 0.77335000 0.77409200 0.77594700
0.78039200 0.77725000 0.77801200 0.77995700
0.78431400 0.78115400 0.78193600 0.78397100
0.78823500 0.78505700 0.78586900 0.78799000
0.79215700 0.78895200 0.78980100 0.79200500
0.79607800 0.79283000 0.79372100 0.79600300
0.80000000 0.79670300 0.79762700 0.79998300
0.80392200 0.80059300 0.80154300 0.80397500
0.80784300 0.80449900 0.80548100 0.80798700
0.81176500 0.80841400 0.80943700 0.81202000
0.81568600 0.81233500 0.81340400 0.81607500
0.81960800 0.81626100 0.81738200 0.82015300
0.82352900 0.82018900 0.82136800 0.82424400
0.82745100 0.82412200 0.82536200 0.82834300
0.83137300 0.82805800 0.82936200 0.83244800
0.83529400 0.83199200 0.83336500 0.83654800
0.83921600 0.83591900 0.83736400 0.84063700
0.84313700 0.83984500 0.84135800 0.84471800
0.84705900 0.84376800 0.84535300 0.84879100
0.85098000 0.84768100 0.84934200 0.85284700
0.85490200 0.85157700 0.85331800 0.85688100
0.85882400 0.85547200 0.85728500 0.86091000
0.86274500 0.85936700 0.86125400 0.86493600
0.86666700 0.86325200 0.86521700 0.86895300
0.87058800 0.86712900 0.86916900 0.87296000
0.87451000 0.87100100 0.87311600 0.87695600
0.87843100 0.87486700 0.87705400 0.88093000
0.88235300 0.87872400 0.88098500 0.88488100
0.88627500 0.88256400 0.88490000 0.88880700
0.89019600 0.88640500 0.88880700 0.89273300
0.89411800 0.89025100 0.89272100 0.89666100
0.89803900 0.89409500 0.89663100 0.90058300
0.90196100 0.89792800 0.90053200 0.90448100
0.90588200 0.90174700 0.90441600 0.90835300
0.90980400 0.90555600 0.90828500 0.91221000
0.91372500 0.90936200 0.91214900 0.91605500
0.91764700 0.91316000 0.91600500 0.91988600
0.92156900 0.91694700 0.91985000 0.92370500
0.92549000 0.92073300 0.92369300 0.92752200
0.92941200 0.92451500 0.92753300 0.93133000
0.93333300 0.92829000 0.93136500 0.93512700
0.93725500 0.93206400 0.93519600 0.93891700
0.94117600 0.93583500 0.93902300 0.94270200
0.94509800 0.93960600 0.94285100 0.94648200
0.94902000 0.94337500 0.94667500 0.95025500
0.95294100 0.94714200 0.95049900 0.95402200
0.95686300 0.95090800 0.95432000 0.95778300
0.96078400 0.95467300 0.95814000 0.96153800
0.96470600 0.95843500 0.96195700 0.96528600
0.96862700 0.96219500 0.96577000 0.96902700
0.97254900 0.96594900 0.96957800 0.97275800
0.97647100 0.96969800 0.97338100 0.97648200
0.98039200 0.97344300 0.97717800 0.98019800
0.98431400 0.97718200 0.98097000 0.98390500
0.98823500 0.98091700 0.98475700 0.98760400
0.99215700 0.98464600 0.98853800 0.99129500
0.99607800 0.98837100 0.99231400 0.99497800
1.00000000 0.99209100 0.99608400 0.99865300
END_DATA
CAL    

DESCRIPTOR "Argyll Calibration options and model"
ORIGINATOR "Argyll dispcal"
CREATED "Wed Nov  9 23:21:58 202"

NUMBER_OF_FIELDS 3
BEGIN_DATA_FORMAT
R_P G_P B_P
END_DATA_FORMAT

NUMBER_OF_SETS 32
BEGIN_DATA
0.0000977204 0.0004861550 0.0009372140
0.9999020000 0.9995140000 0.9990630000
1.7192900000 1.6364300000 1.4840200000
0.5534850000 0.5453400000 0.5410660000
0.0417880000 0.0546479000 0.1124680000
0.0741247000 0.0921223000 0.1314720000
0.0923375000 0.1030560000 0.1159930000
0.1295820000 0.1487310000 0.0899489000
0.0972567000 0.0888756000 0.0725644000
0.0809725000 0.0655153000 0.0720905000
0.0568390000 0.0510623000 0.0617187000
0.0556387000 0.0479785000 0.0557002000
0.0531057000 0.0555620000 0.0535124000
0.0458669000 0.0469894000 0.0470004000
0.0437354000 0.0368087000 0.0471431000
0.0427069000 0.0534731000 0.0558631000
0.0389089000 0.0388343000 0.0380238000
0.0368582000 0.0410195000 0.0365470000
0.0365463000 0.0336685000 0.0305951000
0.0342347000 0.0378278000 0.0347974000
0.0338534000 0.0352150000 0.0320453000
0.0295602000 0.0323466000 0.0301077000
0.0270664000 0.0338277000 0.0270832000
0.0265696000 0.0323013000 0.0236441000
0.0262716000 0.0310841000 0.0265642000
0.0257609000 0.0313381000 0.0262018000
0.0247921000 0.0294846000 0.0221268000
0.0228853000 0.0265513000 0.0222170000
0.0223470000 0.0261151000 0.0226598000
0.0216878000 0.0282004000 0.0207923000
0.0204938000 0.0299591000 0.0186714000
0.0197047000 0.0288929000 0.0173514000
END_DATA
