.local/share/DisplayCAL/storage/DisplayPort-01440p/DisplayPort-01440p.bpc.ti3
CTI3   

DESCRIPTOR "Argyll Calibration Target chart information 3"
ORIGINATOR "Argyll dispread"
CREATED "Wed Nov  9 23:21:58 2022"
DEVICE_CLASS "DISPLAY"
SINGLE_DIM_STEPS "5"
COMP_GREY_STEPS "52"
MULTI_DIM_STEPS "5"
COLOR_REP "RGB_XYZ"
TARGET_INSTRUMENT "X-Rite i1 DisplayPro, ColorMunki Display"
DISPLAY_TYPE_REFRESH "NO"
DISPLAY_TYPE_BASE_ID "1"
INSTRUMENT_TYPE_SPECTRAL "NO"
LUMINANCE_XYZ_CDM2 "113.206800 119.468331 130.400062"
NORMALIZED_TO_Y_100 "YES"
VIDEO_LUT_CALIBRATION_POSSIBLE "YES"

BEGIN_ARGYLL_COLPROF_ARGS
-v -qh -aX -bn -C "No copyright. Created with DisplayCAL 3.8.9.3 and ArgyllCMS 2.3.1" -M "Monitor 1, Output DisplayPort-0"
END_ARGYLL_COLPROF_ARGS

OBSERVER "1931_2"
USE_BLACK_POINT_COMPENSATION "NO"
BLACK_POINT_CORRECTION "0.0"
HIRES_B2A "YES"
HIRES_B2A_SIZE "-1"
SMOOTH_B2A "YES"
PATCH_SEQUENCE "OPTIMIZE_DISPLAY_RESPONSE_DELAY"

NUMBER_OF_FIELDS 7
BEGIN_DATA_FORMAT
SAMPLE_ID RGB_R RGB_G RGB_B XYZ_X XYZ_Y XYZ_Z
END_DATA_FORMAT

NUMBER_OF_SETS 175
BEGIN_DATA
1 100.00000 100.00000 100.00000 94.758800 100.00000 109.15000
2 100.00000 100.00000 75.000000 86.007700 96.663000 60.988000
3 100.00000 100.00000 100.00000 94.758800 100.00000 109.15000
4 100.00000 100.00000 100.00000 94.758800 100.00000 109.15000
5 0.0000000 0.0000000 0.0000000 0.0833822 0.0879942 0.0960457
6 25.000000 0.0000000 0.0000000 2.7271501 1.2644300 0.1730952
7 50.000000 0.0000000 0.0000000 12.206200 5.4818600 0.2620499
8 75.000000 0.0000000 0.0000000 29.549200 13.199200 0.4238320
9 100.00000 0.0000000 0.0000000 56.141500 25.031600 0.6821340
10 100.00000 0.0000000 25.000000 57.015900 25.360600 5.6710300
11 100.00000 25.000000 25.000000 58.025100 28.596400 5.9195300
12 100.00000 50.000000 25.000000 61.391200 40.065500 6.9416500
13 100.00000 75.000000 25.000000 67.522800 60.964000 8.8573500
14 0.0000000 0.0000000 25.000000 0.9514918 0.4172140 4.8643989
15 25.000000 0.0000000 25.000000 3.5988345 1.5949500 4.9783710
16 75.000000 0.0000000 100.00000 48.159200 20.178300 102.64200
17 100.00000 0.0000000 100.00000 74.712600 31.960600 102.92300
18 1.9608000 1.9608000 1.9608000 0.0937770 0.0991271 0.1081947
19 3.9216000 3.9216000 3.9216000 0.1402274 0.1490570 0.1707587
20 5.8824000 5.8824000 5.8824000 0.2400313 0.2548260 0.3001795
21 7.8431000 7.8431000 7.8431000 0.4079172 0.4310190 0.4980784
22 9.8039000 9.8039000 9.8039000 0.6421631 0.6783300 0.7562802
23 11.765000 11.765000 11.765000 0.9338289 0.9838540 1.0968272
24 13.726000 13.726000 13.726000 1.2845846 1.3571100 1.4898668
25 15.686000 15.686000 15.686000 1.6940516 1.7826000 1.9830436
26 17.647000 17.647000 17.647000 2.1695205 2.2913300 2.5254074
27 19.608000 19.608000 19.608000 2.7174702 2.8579500 3.1544220
28 21.569000 21.569000 21.569000 3.3111201 3.4874000 3.8304607
29 23.529000 23.529000 23.529000 3.9775100 4.1922500 4.6085670
30 27.451000 27.451000 27.451000 5.5745000 5.8598300 6.4218597
31 29.412000 29.412000 29.412000 6.4775100 6.8305600 7.4660599
32 31.373000 31.373000 31.373000 7.4524700 7.8607300 8.5764600
33 33.333000 33.333000 33.333000 8.5200400 8.9882100 9.8289700
34 35.294000 35.294000 35.294000 9.6781100 10.220600 11.107900
35 37.255000 37.255000 37.255000 10.915000 11.492100 12.505000
36 39.216000 39.216000 39.216000 12.109600 12.815100 13.901600
37 41.176000 41.176000 41.176000 13.464500 14.211500 15.458600
38 43.137000 43.137000 43.137000 14.837900 15.664700 16.943400
39 45.098000 45.098000 45.098000 16.349100 17.208000 18.590900
40 47.059000 47.059000 47.059000 17.891500 18.905500 20.321300
41 49.020000 49.020000 49.020000 19.674500 20.722300 22.349800
42 50.980000 50.980000 50.980000 21.459400 22.632600 24.460800
43 52.941000 52.941000 52.941000 23.412200 24.693600 26.738100
44 54.902000 54.902000 54.902000 25.393900 26.815200 29.014000
45 56.863000 56.863000 56.863000 27.441200 28.998600 31.461900
46 58.824000 58.824000 58.824000 29.594900 31.271100 33.923400
47 60.784000 60.784000 60.784000 31.748500 33.543500 36.385000
48 62.745000 62.745000 62.745000 34.129000 36.028300 39.153700
49 64.706000 64.706000 64.706000 36.477100 38.512000 41.769600
50 66.667000 66.667000 66.667000 38.993400 41.086700 44.691400
51 68.627000 68.627000 68.627000 41.523800 43.815100 47.615000
52 70.588000 70.588000 70.588000 44.160600 46.572800 50.691300
53 72.549000 72.549000 72.549000 46.826700 49.391200 53.768200
54 76.471000 76.471000 76.471000 52.489400 55.329100 60.229400
55 78.431000 78.431000 78.431000 55.428900 58.514400 63.767900
56 80.392000 80.392000 80.392000 58.590500 61.784600 67.306000
57 82.353000 82.353000 82.353000 61.831000 65.210500 71.151400
58 84.314000 84.314000 84.314000 65.145400 68.664700 74.996800
59 86.275000 86.275000 86.275000 68.538700 72.274600 79.149400
60 88.235000 88.235000 88.235000 72.044800 75.999600 82.996900
61 90.196000 90.196000 90.196000 75.647900 79.727800 87.302600
62 92.157000 92.157000 92.157000 79.171000 83.546900 91.304100
63 94.118000 94.118000 94.118000 82.865200 87.397400 95.763700
64 96.078000 96.078000 96.078000 86.751000 91.518800 100.22500
65 98.039000 98.039000 98.039000 90.649100 95.606700 104.53400
66 25.000000 25.000000 0.0000000 3.6901300 4.4166400 0.4570833
67 50.000000 25.000000 0.0000000 13.291700 8.6841200 0.5462820
68 75.000000 25.000000 0.0000000 30.617200 16.398300 0.7092660
69 100.00000 25.000000 0.0000000 57.057800 28.176800 0.9678770
70 100.00000 50.000000 0.0000000 60.317500 39.477900 1.9927000
71 50.000000 50.000000 0.0000000 16.586600 20.042500 1.5762700
72 75.000000 50.000000 0.0000000 34.006900 27.769700 1.7377000
73 25.000000 50.000000 0.0000000 7.0306900 15.807000 1.4882300
74 25.000000 75.000000 0.0000000 13.158100 36.705400 3.3838000
75 50.000000 75.000000 0.0000000 22.831500 40.936700 3.4652100
76 75.000000 75.000000 0.0000000 40.178000 48.635700 3.6280100
77 100.00000 75.000000 0.0000000 66.518900 60.404500 3.8879200
78 25.000000 100.00000 0.0000000 22.676600 69.060400 6.3358000
79 50.000000 100.00000 0.0000000 32.289900 73.170300 6.4097800
80 75.000000 100.00000 0.0000000 49.740100 80.958200 6.5742500
81 100.00000 100.00000 0.0000000 75.934000 92.670500 6.8393400
82 100.00000 100.00000 25.000000 76.763100 93.112900 11.820900
83 50.000000 0.0000000 25.000000 13.071300 5.8080800 5.1116497
84 50.000000 25.000000 50.000000 17.273700 10.300700 22.523100
85 0.0000000 25.000000 0.0000000 1.0040900 3.2298600 0.4330519
86 0.0000000 25.000000 25.000000 1.8954800 3.6440600 5.1966314
87 25.490000 25.490000 25.490000 4.7430100 5.0037600 5.4807891
88 50.000000 25.000000 25.000000 14.149500 9.0855900 5.4012500
89 75.000000 25.000000 25.000000 31.559400 16.825300 5.5941900
90 0.0000000 50.000000 0.0000000 4.3453300 14.635100 1.4658800
91 0.0000000 50.000000 25.000000 5.2303900 15.164900 6.2238700
92 25.000000 50.000000 25.000000 7.9815400 16.305200 6.3452200
93 50.000000 50.000000 25.000000 17.575300 20.601500 6.4738700
94 75.000000 50.000000 25.000000 34.995400 28.328700 6.6343600
95 0.0000000 75.000000 0.0000000 10.471700 35.533400 3.3566300
96 0.0000000 75.000000 25.000000 11.463300 36.152200 8.1298700
97 25.000000 75.000000 25.000000 14.167400 37.324800 8.2404200
98 50.000000 75.000000 25.000000 23.806000 41.588800 8.3694600
99 75.000000 75.000000 25.000000 41.160200 49.288000 8.5683100
100 0.0000000 100.00000 0.0000000 19.917800 67.860100 6.3165200
101 0.0000000 100.00000 25.000000 20.888300 68.325100 11.054400
102 25.000000 100.00000 25.000000 23.561600 69.437000 11.158100
103 50.000000 100.00000 25.000000 33.307600 73.790000 11.306200
104 75.000000 100.00000 25.000000 50.748700 81.424400 11.492200
105 0.0000000 0.0000000 50.000000 4.0471949 1.5925400 21.894749
106 25.000000 0.0000000 50.000000 6.7114004 2.7754100 22.076079
107 50.000000 0.0000000 50.000000 16.191400 6.9915700 22.273500
108 75.000000 0.0000000 50.000000 33.507100 14.693500 22.550300
109 100.00000 0.0000000 50.000000 60.076100 26.507800 23.102200
110 100.00000 0.0000000 75.000000 65.901400 28.716100 55.067800
111 100.00000 25.000000 75.000000 66.917300 32.018900 55.255500
112 75.000000 0.0000000 25.000000 30.418700 13.521700 5.3497300
113 75.000000 25.000000 50.000000 34.698600 18.047100 22.825000
114 100.00000 25.000000 50.000000 61.128700 29.795000 23.357500
115 25.000000 25.000000 50.000000 7.7209000 6.0531800 22.405400
116 25.000000 50.000000 50.000000 11.160600 17.638800 23.433700
117 75.000000 50.000000 50.000000 38.125800 29.635000 23.843100
118 100.00000 50.000000 50.000000 64.532600 41.312400 24.340400
119 100.00000 50.000000 75.000000 70.318900 43.629100 56.296400
120 25.000000 75.000000 50.000000 17.342800 38.658400 25.311600
121 50.000000 75.000000 50.000000 27.006300 42.923200 25.558200
122 75.000000 75.000000 50.000000 44.376400 50.622900 25.832000
123 100.00000 75.000000 50.000000 70.570500 62.275500 26.236400
124 100.00000 75.000000 75.000000 76.551600 64.616400 58.201100
125 25.000000 100.00000 50.000000 26.775100 70.738000 28.197400
126 50.000000 100.00000 50.000000 36.464200 75.063300 28.426600
127 75.000000 100.00000 50.000000 53.887500 82.730900 28.740200
128 100.00000 100.00000 50.000000 79.944700 94.327300 29.197700
129 25.000000 0.0000000 75.000000 12.512100 4.9780100 53.893896
130 50.000000 0.0000000 75.000000 21.979600 9.1813900 54.190900
131 75.000000 0.0000000 75.000000 39.327200 16.899900 54.480700
132 75.000000 25.000000 75.000000 40.483200 20.265200 54.668300
133 75.000000 50.000000 100.00000 52.780200 35.378000 104.02600
134 25.000000 25.000000 75.000000 13.555800 8.2873900 54.387400
135 25.000000 50.000000 100.00000 25.874400 23.383800 103.89700
136 0.0000000 25.000000 50.000000 4.9994900 4.8539900 22.169197
137 0.0000000 25.000000 75.000000 10.799200 7.0748500 53.931300
138 0.0000000 50.000000 75.000000 14.190400 18.747400 54.820100
139 25.000000 50.000000 75.000000 16.955200 19.955800 55.429000
140 50.000000 50.000000 75.000000 26.596900 24.219900 55.572700
141 75.000000 50.000000 75.000000 44.012000 31.946900 55.709300
142 74.510000 74.510000 74.510000 49.645700 52.393500 57.152200
143 0.0000000 75.000000 75.000000 20.378400 39.767100 56.725400
144 25.000000 75.000000 75.000000 23.155500 40.942100 57.180900
145 50.000000 75.000000 75.000000 32.784900 45.239600 57.478100
146 0.0000000 75.000000 50.000000 14.524100 37.456200 25.009600
147 0.0000000 100.00000 50.000000 23.958600 69.535800 27.905500
148 0.0000000 100.00000 75.000000 29.718800 71.758200 59.665300
149 25.000000 100.00000 75.000000 32.537600 72.960300 59.967900
150 50.000000 100.00000 75.000000 42.241100 77.286100 60.265000
151 75.000000 100.00000 75.000000 59.765500 84.982900 60.706300
152 75.000000 100.00000 100.00000 68.578400 88.381600 109.02200
153 25.000000 0.0000000 100.00000 21.352500 8.2565800 102.36100
154 50.000000 0.0000000 100.00000 30.760200 12.439600 102.50500
155 0.0000000 0.0000000 75.000000 9.8250301 3.7845000 53.590468
156 0.0000000 0.0000000 100.00000 18.693500 7.0705800 102.21000
157 0.0000000 25.000000 100.00000 19.709000 10.432900 102.70500
158 25.000000 25.000000 100.00000 22.390600 11.605300 102.70200
159 50.000000 25.000000 100.00000 31.920100 15.826500 102.84600
160 75.000000 25.000000 100.00000 49.216400 23.557700 102.98300
161 100.00000 25.000000 100.00000 75.532700 35.266000 103.26500
162 100.00000 50.000000 100.00000 79.067000 47.025700 104.30700
163 50.000000 25.000000 75.000000 23.054300 12.523600 54.378700
164 50.000000 50.000000 100.00000 35.471500 27.680300 104.04200
165 0.0000000 50.000000 50.000000 8.3610800 16.437300 23.222100
166 0.0000000 50.000000 100.00000 23.129700 22.209900 103.59500
167 0.0000000 75.000000 100.00000 29.347100 43.290300 105.50000
168 25.000000 75.000000 100.00000 32.059500 44.463100 105.65000
169 50.000000 75.000000 100.00000 41.688900 48.760600 105.94800
170 75.000000 75.000000 100.00000 59.029900 56.459400 106.08400
171 100.00000 75.000000 100.00000 85.210300 68.077800 106.21300
172 0.0000000 100.00000 100.00000 38.596400 75.159000 108.28600
173 25.000000 100.00000 100.00000 41.353500 76.299500 108.43600
174 50.000000 100.00000 100.00000 51.163300 80.654600 108.88500
175 100.00000 100.00000 100.00000 94.643100 99.944500 109.30300
END_DATA
CAL    

DESCRIPTOR "Argyll Device Calibration State"
ORIGINATOR "Argyll dispread"
CREATED "Wed Nov  9 23:21:58 2022"
DEVICE_CLASS "DISPLAY"
COLOR_REP "RGB"

BEGIN_ARGYLL_DISPCAL_ARGS
-v2 -ql -t6500 -b120.0 -g2.2 -f1.0 -k0 -A4.0 -d1 -c1 -yn -P0.539272030651,0.177685950413,1.24867724868 -X "PFS_Phosphor_Family_31Jan17.ccss"
END_ARGYLL_DISPCAL_ARGS


NUMBER_OF_FIELDS 4
BEGIN_DATA_FORMAT
RGB_I RGB_R RGB_G RGB_B
END_DATA_FORMAT

NUMBER_OF_SETS 256
BEGIN_DATA
0.00000000 0.00000000 0.00000000 0.00000000
0.00392157 0.00321968 0.00323419 0.00303730
0.00784314 0.00650499 0.00653303 0.00613980
0.01176470 0.00985796 0.00989847 0.00930962
0.01568630 0.01328070 0.01333260 0.01254900
0.01960780 0.01677540 0.01683740 0.01586010
0.02352940 0.02034440 0.02041520 0.01924560
0.02745100 0.02399000 0.02406840 0.02270780
0.03137250 0.02771480 0.02779920 0.02624950
0.03529410 0.03152130 0.03161010 0.02987330
0.03921570 0.03541140 0.03550340 0.03358230
0.04313730 0.03937740 0.03947390 0.03737710
0.04705880 0.04340910 0.04351100 0.04124930
0.05098040 0.04749700 0.04760270 0.04519340
0.05490200 0.05162930 0.05173740 0.04919830
0.05882350 0.05579630 0.05590480 0.05326070
0.06274510 0.05998200 0.06008800 0.05737280
0.06666670 0.06417130 0.06427250 0.06152070
0.07058820 0.06835460 0.06844980 0.06569840
0.07450980 0.07252900 0.07261410 0.06990410
0.07843140 0.07669470 0.07676210 0.07413290
0.08235290 0.08085060 0.08089300 0.07838020
0.08627450 0.08499250 0.08500420 0.08263730
0.09019610 0.08912060 0.08909920 0.08690220
0.09411760 0.09323990 0.09318460 0.09118320
0.09803920 0.09734850 0.09725790 0.09548150
0.10196100 0.10144800 0.10132100 0.09978880
0.10588200 0.10552800 0.10536700 0.10409700
0.10980400 0.10958800 0.10939400 0.10838900
0.11372500 0.11362700 0.11340500 0.11266300
0.11764700 0.11763900 0.11739300 0.11691100
0.12156900 0.12162800 0.12136200 0.12112600
0.12549000 0.12559900 0.12531100 0.12531100
0.12941200 0.12954900 0.12924100 0.12946000
0.13333300 0.13347600 0.13314700 0.13356000
0.13725500 0.13738400 0.13703100 0.13761000
0.14117600 0.14127300 0.14089600 0.14161500
0.14509800 0.14515200 0.14474300 0.14558200
0.14902000 0.14902700 0.14858800 0.14953400
0.15294100 0.15290200 0.15243500 0.15347300
0.15686300 0.15678300 0.15628700 0.15740900
0.16078400 0.16067200 0.16015000 0.16134400
0.16470600 0.16456400 0.16402000 0.16527300
0.16862700 0.16846000 0.16789600 0.16919500
0.17254900 0.17234900 0.17177000 0.17309800
0.17647100 0.17623300 0.17564000 0.17698000
0.18039200 0.18010400 0.17950700 0.18083900
0.18431400 0.18396500 0.18336400 0.18467900
0.18823500 0.18781900 0.18722100 0.18850600
0.19215700 0.19166100 0.19107300 0.19231900
0.19607800 0.19549000 0.19491700 0.19611500
0.20000000 0.19930700 0.19875200 0.19989600
0.20392200 0.20312000 0.20258400 0.20367300
0.20784300 0.20692900 0.20641500 0.20744900
0.21176500 0.21073800 0.21024600 0.21122400
0.21568600 0.21455000 0.21407800 0.21500000
0.21960800 0.21836300 0.21791300 0.21877500
0.22352900 0.22217500 0.22174100 0.22254000
0.22745100 0.22600600 0.22558000 0.22632000
0.23137300 0.22985600 0.22943700 0.23012200
0.23529400 0.23371600 0.23330500 0.23393700
0.23921600 0.23758700 0.23718200 0.23776000
0.24313700 0.24146900 0.24107000 0.24159300
0.24705900 0.24536000 0.24496900 0.24543400
0.25098000 0.24926000 0.24887900 0.24928500
0.25490200 0.25316800 0.25280100 0.25314700
0.25882400 0.25708200 0.25673300 0.25701800
0.26274500 0.26100000 0.26067400 0.26089700
0.26666700 0.26492200 0.26462300 0.26478600
0.27058800 0.26884900 0.26857900 0.26868000
0.27451000 0.27278500 0.27254500 0.27258700
0.27843100 0.27672700 0.27651900 0.27650300
0.28235300 0.28066800 0.28049500 0.28041900
0.28627500 0.28460400 0.28446300 0.28432900
0.29019600 0.28854900 0.28843100 0.28823800
0.29411800 0.29250600 0.29240800 0.29216100
0.29803900 0.29646700 0.29638600 0.29609500
0.30196100 0.30043000 0.30036300 0.30003600
0.30588200 0.30438300 0.30432900 0.30397400
0.30980400 0.30832500 0.30828000 0.30789400
0.31372500 0.31226100 0.31222300 0.31180100
0.31764700 0.31618800 0.31615700 0.31569600
0.32156900 0.32010600 0.32008400 0.31958600
0.32549000 0.32401000 0.32400300 0.32346900
0.32941200 0.32789900 0.32790900 0.32734000
0.33333300 0.33177300 0.33180500 0.33119800
0.33725500 0.33563700 0.33569100 0.33504600
0.34117600 0.33949300 0.33957000 0.33888700
0.34509800 0.34333900 0.34344200 0.34272200
0.34902000 0.34717900 0.34730700 0.34655200
0.35294100 0.35101600 0.35116700 0.35038000
0.35686300 0.35485400 0.35502600 0.35421200
0.36078400 0.35869400 0.35888500 0.35805000
0.36470600 0.36253600 0.36273900 0.36188800
0.36862700 0.36639100 0.36659700 0.36572900
0.37254900 0.37025300 0.37046000 0.36958500
0.37647100 0.37412500 0.37432400 0.37345000
0.38039200 0.37800400 0.37819000 0.37732300
0.38431400 0.38188900 0.38205500 0.38119200
0.38823500 0.38577900 0.38592000 0.38505400
0.39215700 0.38966200 0.38977800 0.38889900
0.39607800 0.39352400 0.39361400 0.39271600
0.40000000 0.39736100 0.39742000 0.39648900
0.40392200 0.40119400 0.40120500 0.40021600
0.40784300 0.40503400 0.40499200 0.40392000
0.41176500 0.40887700 0.40878200 0.40761500
0.41568600 0.41271100 0.41256500 0.41129500
0.41960800 0.41653400 0.41633500 0.41495700
0.42352900 0.42034500 0.42009300 0.41860000
0.42745100 0.42414900 0.42384300 0.42222900
0.43137300 0.42794900 0.42758900 0.42584800
0.43529400 0.43175500 0.43134100 0.42946100
0.43921600 0.43556700 0.43510500 0.43308600
0.44313700 0.43938200 0.43888600 0.43672900
0.44705900 0.44320400 0.44267600 0.44039600
0.45098000 0.44705300 0.44649200 0.44408700
0.45490200 0.45092300 0.45034300 0.44782900
0.45882400 0.45481300 0.45422400 0.45162700
0.46274500 0.45871700 0.45813100 0.45548000
0.46666700 0.46264400 0.46206200 0.45938000
0.47058800 0.46658900 0.46602600 0.46332600
0.47451000 0.47055600 0.47001500 0.46732600
0.47843100 0.47454400 0.47403300 0.47136900
0.48235300 0.47855100 0.47807500 0.47545700
0.48627500 0.48257300 0.48213800 0.47958300
0.49019600 0.48660900 0.48621900 0.48373600
0.49411800 0.49066200 0.49031800 0.48791600
0.49803900 0.49473000 0.49443600 0.49212200
0.50196100 0.49880900 0.49857200 0.49635600
0.50588200 0.50288100 0.50270800 0.50061400
0.50980400 0.50694400 0.50683000 0.50486300
0.51372500 0.51099800 0.51093800 0.50908800
0.51764700 0.51504300 0.51503400 0.51328900
0.52156900 0.51907900 0.51911600 0.51746600
0.52549000 0.52311000 0.52318800 0.52161900
0.52941200 0.52714100 0.52725500 0.52575700
0.53333300 0.53116800 0.53132000 0.52989000
0.53725500 0.53519500 0.53538300 0.53401800
0.54117600 0.53921500 0.53944400 0.53814800
0.54509800 0.54322300 0.54349200 0.54226700
0.54902000 0.54723300 0.54753300 0.54636400
0.55294100 0.55124500 0.55157500 0.55045300
0.55686300 0.55525800 0.55561500 0.55453800
0.56078400 0.55927100 0.55965100 0.55861900
0.56470600 0.56327500 0.56368200 0.56268400
0.56862700 0.56726200 0.56769700 0.56673200
0.57254900 0.57124000 0.57169600 0.57075300
0.57647100 0.57521900 0.57569400 0.57476200
0.58039200 0.57918900 0.57968400 0.57876700
0.58431400 0.58314500 0.58365800 0.58276100
0.58823500 0.58708600 0.58761700 0.58674300
0.59215700 0.59101600 0.59156600 0.59071300
0.59607800 0.59493700 0.59550500 0.59467200
0.60000000 0.59885300 0.59943700 0.59862200
0.60392200 0.60277100 0.60336900 0.60257300
0.60784300 0.60668700 0.60730000 0.60653100
0.61176500 0.61059800 0.61122800 0.61049400
0.61568600 0.61450600 0.61514900 0.61445900
0.61960800 0.61841600 0.61907300 0.61842700
0.62352900 0.62233000 0.62299900 0.62240900
0.62745100 0.62624600 0.62692700 0.62640400
0.63137300 0.63016400 0.63085400 0.63040000
0.63529400 0.63408400 0.63478400 0.63439600
0.63921600 0.63800300 0.63871600 0.63839200
0.64313700 0.64192100 0.64264700 0.64238300
0.64705900 0.64583000 0.64657400 0.64636300
0.65098000 0.64971900 0.65048600 0.65032500
0.65490200 0.65357900 0.65437100 0.65426200
0.65882400 0.65740500 0.65822400 0.65816600
0.66274500 0.66119900 0.66204300 0.66203500
0.66666700 0.66498900 0.66583800 0.66586900
0.67058800 0.66880800 0.66965000 0.66970500
0.67451000 0.67265400 0.67348900 0.67357000
0.67843100 0.67652700 0.67735500 0.67746600
0.68235300 0.68041700 0.68124100 0.68138900
0.68627500 0.68431200 0.68513500 0.68533000
0.69019600 0.68820600 0.68902700 0.68928000
0.69411800 0.69209700 0.69291400 0.69323900
0.69803900 0.69598500 0.69679400 0.69720000
0.70196100 0.69986400 0.70067000 0.70116600
0.70588200 0.70372900 0.70453000 0.70511900
0.70980400 0.70758500 0.70837800 0.70905300
0.71372500 0.71143300 0.71221200 0.71296500
0.71764700 0.71528400 0.71604500 0.71686600
0.72156900 0.71913700 0.71988400 0.72077300
0.72549000 0.72298200 0.72372200 0.72468000
0.72941200 0.72683000 0.72755900 0.72858200
0.73333300 0.73068100 0.73140500 0.73249200
0.73725500 0.73453400 0.73525300 0.73640600
0.74117600 0.73839300 0.73910600 0.74032700
0.74509800 0.74225700 0.74296600 0.74425300
0.74902000 0.74612800 0.74683300 0.74818600
0.75294100 0.75000300 0.75070800 0.75212600
0.75686300 0.75388200 0.75458900 0.75607300
0.76078400 0.75776700 0.75847700 0.76002800
0.76470600 0.76165900 0.76237300 0.76399300
0.76862700 0.76555100 0.76627300 0.76796500
0.77254900 0.76944900 0.77017700 0.77194700
0.77647100 0.77335000 0.77409200 0.77594700
0.78039200 0.77725000 0.77801200 0.77995700
0.78431400 0.78115400 0.78193600 0.78397100
0.78823500 0.78505700 0.78586900 0.78799000
0.79215700 0.78895200 0.78980100 0.79200500
0.79607800 0.79283000 0.79372100 0.79600300
0.80000000 0.79670300 0.79762700 0.79998300
0.80392200 0.80059300 0.80154300 0.80397500
0.80784300 0.80449900 0.80548100 0.80798700
0.81176500 0.80841400 0.80943700 0.81202000
0.81568600 0.81233500 0.81340400 0.81607500
0.81960800 0.81626100 0.81738200 0.82015300
0.82352900 0.82018900 0.82136800 0.82424400
0.82745100 0.82412200 0.82536200 0.82834300
0.83137300 0.82805800 0.82936200 0.83244800
0.83529400 0.83199200 0.83336500 0.83654800
0.83921600 0.83591900 0.83736400 0.84063700
0.84313700 0.83984500 0.84135800 0.84471800
0.84705900 0.84376800 0.84535300 0.84879100
0.85098000 0.84768100 0.84934200 0.85284700
0.85490200 0.85157700 0.85331800 0.85688100
0.85882400 0.85547200 0.85728500 0.86091000
0.86274500 0.85936700 0.86125400 0.86493600
0.86666700 0.86325200 0.86521700 0.86895300
0.87058800 0.86712900 0.86916900 0.87296000
0.87451000 0.87100100 0.87311600 0.87695600
0.87843100 0.87486700 0.87705400 0.88093000
0.88235300 0.87872400 0.88098500 0.88488100
0.88627500 0.88256400 0.88490000 0.88880700
0.89019600 0.88640500 0.88880700 0.89273300
0.89411800 0.89025100 0.89272100 0.89666100
0.89803900 0.89409500 0.89663100 0.90058300
0.90196100 0.89792800 0.90053200 0.90448100
0.90588200 0.90174700 0.90441600 0.90835300
0.90980400 0.90555600 0.90828500 0.91221000
0.91372500 0.90936200 0.91214900 0.91605500
0.91764700 0.91316000 0.91600500 0.91988600
0.92156900 0.91694700 0.91985000 0.92370500
0.92549000 0.92073300 0.92369300 0.92752200
0.92941200 0.92451500 0.92753300 0.93133000
0.93333300 0.92829000 0.93136500 0.93512700
0.93725500 0.93206400 0.93519600 0.93891700
0.94117600 0.93583500 0.93902300 0.94270200
0.94509800 0.93960600 0.94285100 0.94648200
0.94902000 0.94337500 0.94667500 0.95025500
0.95294100 0.94714200 0.95049900 0.95402200
0.95686300 0.95090800 0.95432000 0.95778300
0.96078400 0.95467300 0.95814000 0.96153800
0.96470600 0.95843500 0.96195700 0.96528600
0.96862700 0.96219500 0.96577000 0.96902700
0.97254900 0.96594900 0.96957800 0.97275800
0.97647100 0.96969800 0.97338100 0.97648200
0.98039200 0.97344300 0.97717800 0.98019800
0.98431400 0.97718200 0.98097000 0.98390500
0.98823500 0.98091700 0.98475700 0.98760400
0.99215700 0.98464600 0.98853800 0.99129500
0.99607800 0.98837100 0.99231400 0.99497800
1.00000000 0.99209100 0.99608400 0.99865300
END_DATA
