.local/share/DisplayCAL/storage/DisplayPort-0 #1 2022QDMODIFIED/DisplayPort-0 #1 2022QDMODIFIED.bpc.ti3
CTI3   

DESCRIPTOR "Argyll Calibration Target chart information 3"
ORIGINATOR "Argyll dispread"
CREATED "Wed Nov  9 22:32:50 2022"
DEVICE_CLASS "DISPLAY"
SINGLE_DIM_STEPS "5"
COMP_GREY_STEPS "52"
MULTI_DIM_STEPS "5"
COLOR_REP "RGB_XYZ"
TARGET_INSTRUMENT "X-Rite i1 DisplayPro, ColorMunki Display"
DISPLAY_TYPE_REFRESH "YES"
DISPLAY_TYPE_BASE_ID "2"
INSTRUMENT_TYPE_SPECTRAL "NO"
LUMINANCE_XYZ_CDM2 "113.769539 119.680593 130.741979"
NORMALIZED_TO_Y_100 "YES"
VIDEO_LUT_CALIBRATION_POSSIBLE "YES"

BEGIN_ARGYLL_COLPROF_ARGS
-v -qh -aX -bn -C "No copyright. Created with DisplayCAL 3.8.9.3 and ArgyllCMS 2.3.1" -M "Monitor 1, Output DisplayPort-0"
END_ARGYLL_COLPROF_ARGS

OBSERVER "1931_2"
USE_BLACK_POINT_COMPENSATION "NO"
BLACK_POINT_CORRECTION "0.0"
HIRES_B2A "YES"
HIRES_B2A_SIZE "-1"
SMOOTH_B2A "YES"
PATCH_SEQUENCE "OPTIMIZE_DISPLAY_RESPONSE_DELAY"

NUMBER_OF_FIELDS 7
BEGIN_DATA_FORMAT
SAMPLE_ID RGB_R RGB_G RGB_B XYZ_X XYZ_Y XYZ_Z
END_DATA_FORMAT

NUMBER_OF_SETS 175
BEGIN_DATA
1 100.00000 100.00000 100.00000 95.061000 100.00000 109.24200
2 100.00000 100.00000 75.000000 86.246103 96.689701 60.921314
3 100.00000 100.00000 100.00000 95.015700 100.03200 109.24300
4 100.00000 100.00000 100.00000 95.061000 100.00000 109.24200
5 0.0000000 0.0000000 0.0000000 0.0855536 0.0899986 0.0983163
6 25.000000 0.0000000 0.0000000 2.6072414 1.1953285 0.1778621
7 50.000000 0.0000000 0.0000000 12.150224 5.3778873 0.2781672
8 75.000000 0.0000000 0.0000000 29.521619 12.990625 0.4591193
9 100.00000 0.0000000 0.0000000 56.349911 24.750122 0.7497353
10 100.00000 0.0000000 25.000000 57.186811 25.063822 5.4762299
11 100.00000 25.000000 25.000000 58.187411 28.209121 5.7392598
12 100.00000 50.000000 25.000000 61.532410 39.794917 6.7755195
13 100.00000 75.000000 25.000000 67.744708 60.840111 8.6555490
14 0.0000000 0.0000000 25.000000 0.9064031 0.4001427 4.6172429
15 25.000000 0.0000000 25.000000 3.4351331 1.5075284 4.7712260
16 75.000000 0.0000000 100.00000 48.137214 19.956823 102.70000
17 100.00000 0.0000000 100.00000 74.898906 31.684920 103.00500
18 1.9608000 1.9608000 1.9608000 0.0961190 0.1011428 0.1105552
19 3.9216000 3.9216000 3.9216000 0.1412317 0.1495018 0.1707762
20 5.8824000 5.8824000 5.8824000 0.2388012 0.2523237 0.2995181
21 7.8431000 7.8431000 7.8431000 0.3985362 0.4229027 0.4860063
22 9.8039000 9.8039000 9.8039000 0.6192043 0.6533696 0.7410991
23 11.765000 11.765000 11.765000 0.8952536 0.9459985 1.0483164
24 13.726000 13.726000 13.726000 1.2308233 1.3068784 1.4240739
25 15.686000 15.686000 15.686000 1.6243692 1.7183983 1.8938192
26 17.647000 17.647000 17.647000 2.0794476 2.2073882 2.4063107
27 19.608000 19.608000 19.608000 2.5917969 2.7527780 2.9979560
28 21.569000 21.569000 21.569000 3.1644266 3.3511479 3.6503384
29 23.529000 23.529000 23.529000 3.8064263 4.0335777 4.3621663
30 27.451000 27.451000 27.451000 5.3673858 5.6815272 6.1446593
31 29.412000 29.412000 29.412000 6.2648256 6.6327269 7.1838393
32 31.373000 31.373000 31.373000 7.2422553 7.6605066 8.3196590
33 33.333000 33.333000 33.333000 8.3708550 8.8252363 9.5654487
34 35.294000 35.294000 35.294000 9.6048246 10.108326 10.992128
35 37.255000 37.255000 37.255000 10.835624 11.408926 12.400928
36 39.216000 39.216000 39.216000 12.103324 12.763325 13.844227
37 41.176000 41.176000 41.176000 13.448823 14.155125 15.361827
38 43.137000 43.137000 43.137000 14.829323 15.602924 16.877627
39 45.098000 45.098000 45.098000 16.297523 17.172424 18.531826
40 47.059000 47.059000 47.059000 17.852422 18.770423 20.243626
41 49.020000 49.020000 49.020000 19.499222 20.583723 22.190125
42 50.980000 50.980000 50.980000 21.408921 22.575822 24.398724
43 52.941000 52.941000 52.941000 23.322721 24.568022 26.627024
44 54.902000 54.902000 54.902000 25.304120 26.681321 28.898823
45 56.863000 56.863000 56.863000 27.313420 28.888920 31.378922
46 58.824000 58.824000 58.824000 29.468919 31.152520 33.845922
47 60.784000 60.784000 60.784000 31.699018 33.444119 36.312921
48 62.745000 62.745000 62.745000 34.081818 35.919218 39.087820
49 64.706000 64.706000 64.706000 36.386817 38.425618 41.709919
50 66.667000 66.667000 66.667000 38.828016 41.021517 44.485719
51 68.627000 68.627000 68.627000 41.438115 43.708016 47.568518
52 70.588000 70.588000 70.588000 44.164615 46.449515 50.497917
53 72.549000 72.549000 72.549000 46.787814 49.289315 53.582016
54 76.471000 76.471000 76.471000 52.455812 55.203913 60.057714
55 78.431000 78.431000 78.431000 55.397311 58.377112 63.603913
56 80.392000 80.392000 80.392000 58.591510 61.694811 67.150512
57 82.353000 82.353000 82.353000 61.773010 65.046010 70.850811
58 84.314000 84.314000 84.314000 65.107209 68.580509 74.859110
59 86.275000 86.275000 86.275000 68.545108 72.203608 78.867809
60 88.235000 88.235000 88.235000 72.161307 75.943107 82.876808
61 90.196000 90.196000 90.196000 75.661006 79.627706 87.039206
62 92.157000 92.157000 92.157000 79.355405 83.522605 91.356205
63 94.118000 94.118000 94.118000 83.020603 87.357104 95.672704
64 96.078000 96.078000 96.078000 86.951702 91.489402 99.991003
65 98.039000 98.039000 98.039000 90.882801 95.621701 104.30900
66 25.000000 25.000000 0.0000000 3.5505964 4.2799576 0.4506614
67 50.000000 25.000000 0.0000000 13.191424 8.4994864 0.5508343
68 75.000000 25.000000 0.0000000 30.561219 16.109624 0.7316863
69 100.00000 25.000000 0.0000000 57.321611 27.836221 1.0213212
70 100.00000 50.000000 0.0000000 60.653910 39.265318 2.0366509
71 50.000000 50.000000 0.0000000 16.555623 19.988023 1.5720910
72 75.000000 50.000000 0.0000000 34.074818 27.654121 1.7540110
73 25.000000 50.000000 0.0000000 6.9454054 15.786224 1.4728010
74 25.000000 75.000000 0.0000000 13.155724 36.831218 3.3430905
75 50.000000 75.000000 0.0000000 22.765721 41.033117 3.4414405
76 75.000000 75.000000 0.0000000 40.180216 48.610615 3.6182004
77 100.00000 75.000000 0.0000000 66.789908 60.282411 3.9081203
78 25.000000 100.00000 0.0000000 22.668721 69.330909 6.2562997
79 50.000000 100.00000 0.0000000 32.412018 73.435508 6.3413596
80 75.000000 100.00000 0.0000000 49.856513 81.073505 6.5221796
81 100.00000 100.00000 0.0000000 76.347805 92.749602 6.8192195
82 100.00000 100.00000 25.000000 77.119105 93.190702 11.540928
83 50.000000 0.0000000 25.000000 12.978524 5.6895872 4.9112097
84 50.000000 25.000000 50.000000 17.195322 10.088526 22.475025
85 0.0000000 25.000000 0.0000000 0.9866071 3.1663679 0.4252833
86 0.0000000 25.000000 25.000000 1.8218169 3.5320478 4.9354796
87 25.490000 25.490000 25.490000 4.5559961 4.8121974 5.2265087
88 50.000000 25.000000 25.000000 14.037323 8.8722763 5.1780500
89 75.000000 25.000000 25.000000 31.483918 16.514724 5.3965899
90 0.0000000 50.000000 0.0000000 4.3939261 14.679625 1.4483811
91 0.0000000 50.000000 25.000000 5.1960459 15.147324 5.9644298
92 25.000000 50.000000 25.000000 7.8387951 16.282424 6.0678797
93 50.000000 50.000000 25.000000 17.531122 20.512523 6.2034097
94 75.000000 50.000000 25.000000 34.909217 28.122721 6.4219996
95 0.0000000 75.000000 0.0000000 10.529524 35.696719 3.3178605
96 0.0000000 75.000000 25.000000 11.434824 36.252718 7.8316692
97 25.000000 75.000000 25.000000 14.002123 37.359818 7.9304892
98 50.000000 75.000000 25.000000 23.696321 41.590017 8.0747291
99 75.000000 75.000000 25.000000 41.147916 49.228215 8.2891491
100 0.0000000 100.00000 0.0000000 20.042722 68.196309 6.2319297
101 0.0000000 100.00000 25.000000 20.886121 68.631409 10.728328
102 25.000000 100.00000 25.000000 23.495921 69.706009 10.814228
103 50.000000 100.00000 25.000000 33.221418 73.996707 10.968428
104 75.000000 100.00000 25.000000 50.717713 81.602505 11.179328
105 0.0000000 0.0000000 50.000000 4.0116524 1.5728884 21.732206
106 25.000000 0.0000000 50.000000 6.5702161 2.6908780 22.014376
107 50.000000 0.0000000 50.000000 16.115023 6.8729368 22.223925
108 75.000000 0.0000000 50.000000 33.533218 14.504525 22.455925
109 100.00000 0.0000000 50.000000 60.326510 26.246821 22.993425
110 100.00000 0.0000000 75.000000 66.141308 28.439321 54.837916
111 100.00000 25.000000 75.000000 67.132408 31.602420 55.170416
112 75.000000 0.0000000 25.000000 30.347119 13.302725 5.1245800
113 75.000000 25.000000 50.000000 34.652117 17.733824 22.756925
114 100.00000 25.000000 50.000000 61.288710 29.404920 23.164125
115 25.000000 25.000000 50.000000 7.5332852 5.8585371 22.261224
116 25.000000 50.000000 50.000000 10.935524 17.529624 23.283525
117 75.000000 50.000000 50.000000 38.111616 29.399020 23.785025
118 100.00000 50.000000 50.000000 64.766309 41.072217 24.286824
119 100.00000 50.000000 75.000000 70.575307 43.358916 56.187615
120 25.000000 75.000000 50.000000 17.165622 38.634818 25.110024
121 50.000000 75.000000 50.000000 26.881620 42.865716 25.356924
122 75.000000 75.000000 50.000000 44.380015 50.564914 25.654224
123 100.00000 75.000000 50.000000 70.854607 62.121611 26.147224
124 100.00000 75.000000 75.000000 76.812805 64.464410 58.048415
125 25.000000 100.00000 50.000000 26.666320 70.981208 28.025923
126 50.000000 100.00000 50.000000 36.449717 75.239907 28.239223
127 75.000000 100.00000 50.000000 53.916412 82.878705 28.524723
128 100.00000 100.00000 50.000000 80.435004 94.402902 29.011123
129 25.000000 0.0000000 75.000000 12.352124 4.8791774 53.767411
130 50.000000 0.0000000 75.000000 21.905121 9.0581562 54.073616
131 75.000000 0.0000000 75.000000 39.259416 16.667224 54.226016
132 75.000000 25.000000 75.000000 40.434016 19.943023 54.558816
133 75.000000 50.000000 100.00000 52.728812 35.089219 104.05100
134 25.000000 25.000000 75.000000 13.348324 8.0754865 54.100316
135 25.000000 50.000000 100.00000 25.668820 23.249122 103.74600
136 0.0000000 25.000000 50.000000 4.9249460 4.7258975 21.949621
137 0.0000000 25.000000 75.000000 10.729224 6.9360368 53.793716
138 0.0000000 50.000000 75.000000 14.131923 18.673923 54.657416
139 25.000000 50.000000 75.000000 16.775623 19.783423 55.117016
140 50.000000 50.000000 75.000000 26.426420 24.046122 55.270116
141 75.000000 50.000000 75.000000 43.942615 31.652620 55.575215
142 74.510000 74.510000 74.510000 49.592613 52.186214 56.819415
143 0.0000000 75.000000 75.000000 20.356522 39.812717 56.672015
144 25.000000 75.000000 75.000000 22.967821 40.921217 56.978315
145 50.000000 75.000000 75.000000 32.738318 45.179616 57.130915
146 0.0000000 75.000000 50.000000 14.569623 37.526818 24.875724
147 0.0000000 100.00000 50.000000 23.987220 69.844909 27.751023
148 0.0000000 100.00000 75.000000 29.819119 72.098508 59.545414
149 25.000000 100.00000 75.000000 32.430318 73.207008 59.851714
150 50.000000 100.00000 75.000000 42.200815 77.465307 60.004314
151 75.000000 100.00000 75.000000 59.671810 85.104104 60.309914
152 75.000000 100.00000 100.00000 68.581008 88.477003 108.93800
153 25.000000 0.0000000 100.00000 21.217021 8.1545865 102.39500
154 50.000000 0.0000000 100.00000 30.779219 12.342825 102.54800
155 0.0000000 0.0000000 75.000000 9.7866846 3.7517277 53.460682
156 0.0000000 0.0000000 100.00000 18.662622 7.0399768 102.24200
157 0.0000000 25.000000 100.00000 19.591522 10.276626 102.42200
158 25.000000 25.000000 100.00000 22.215621 11.389926 102.72800
159 50.000000 25.000000 100.00000 31.830818 15.600924 102.72700
160 75.000000 25.000000 100.00000 49.256513 23.272222 103.03300
161 100.00000 25.000000 100.00000 75.914806 34.911719 103.33800
162 100.00000 50.000000 100.00000 79.341705 46.761015 104.35600
163 50.000000 25.000000 75.000000 22.972121 12.297625 54.253116
164 50.000000 50.000000 100.00000 35.397317 27.480521 104.05200
165 0.0000000 50.000000 50.000000 8.3576350 16.388324 22.920825
166 0.0000000 50.000000 100.00000 23.057521 22.140622 103.44000
167 0.0000000 75.000000 100.00000 29.278919 43.338916 105.30100
168 25.000000 75.000000 100.00000 31.890218 44.447416 105.60800
169 50.000000 75.000000 100.00000 41.618715 48.678715 105.91400
170 75.000000 75.000000 100.00000 59.057210 56.316513 106.06600
171 100.00000 75.000000 100.00000 85.533903 67.898909 106.21800
172 0.0000000 100.00000 100.00000 38.653716 75.443307 108.17400
173 25.000000 100.00000 100.00000 41.307015 76.578807 108.32700
174 50.000000 100.00000 100.00000 51.142513 80.839206 108.78600
175 100.00000 100.00000 100.00000 94.973700 100.00500 109.39600
END_DATA
CAL    

DESCRIPTOR "Argyll Device Calibration State"
ORIGINATOR "Argyll dispread"
CREATED "Wed Nov  9 22:32:50 2022"
DEVICE_CLASS "DISPLAY"
COLOR_REP "RGB"

BEGIN_ARGYLL_DISPCAL_ARGS
-v2 -ql -t6500 -b120.0 -g2.2 -f1.0 -k0 -A4.0 -d1 -c1 -yr -P0.510057471264,0.22520661157,1.24867724868 -X "Microstep MAG274QRF-QD (ColorMunki).ccss"
END_ARGYLL_DISPCAL_ARGS


NUMBER_OF_FIELDS 4
BEGIN_DATA_FORMAT
RGB_I RGB_R RGB_G RGB_B
END_DATA_FORMAT

NUMBER_OF_SETS 256
BEGIN_DATA
0.00000000 0.00000000 0.00000000 0.00000000
0.00392157 0.00321446 0.00322179 0.00300635
0.00784314 0.00648956 0.00650363 0.00607499
0.01176470 0.00982704 0.00984720 0.00920785
0.01568630 0.01322870 0.01325430 0.01240700
0.01960780 0.01669640 0.01672670 0.01567450
0.02352940 0.02023210 0.02026630 0.01901260
0.02745100 0.02383780 0.02387510 0.02242370
0.03137250 0.02751560 0.02755510 0.02591010
0.03529410 0.03126770 0.03130850 0.02947440
0.03921570 0.03509660 0.03513760 0.03311920
0.04313730 0.03900110 0.03904010 0.03684730
0.04705880 0.04296760 0.04300470 0.04064950
0.05098040 0.04698170 0.04702000 0.04451650
0.05490200 0.05102380 0.05106820 0.04843320
0.05882350 0.05508010 0.05513340 0.05238680
0.06274510 0.05913930 0.05920270 0.05636890
0.06666670 0.06319190 0.06326690 0.06037050
0.07058820 0.06723070 0.06732010 0.06438960
0.07450980 0.07124590 0.07135330 0.06842630
0.07843140 0.07523370 0.07536350 0.07247180
0.08235290 0.07919620 0.07935160 0.07652420
0.08627450 0.08313390 0.08331780 0.08058330
0.09019610 0.08705160 0.08726690 0.08464550
0.09411760 0.09095830 0.09120780 0.08871860
0.09803920 0.09486190 0.09514590 0.09281530
0.10196100 0.09876750 0.09908550 0.09693390
0.10588200 0.10268000 0.10303100 0.10107700
0.10980400 0.10659500 0.10697600 0.10523500
0.11372500 0.11051400 0.11092300 0.10939700
0.11764700 0.11443100 0.11486500 0.11355600
0.12156900 0.11833500 0.11879300 0.11769300
0.12549000 0.12222700 0.12270800 0.12179900
0.12941200 0.12610500 0.12661000 0.12587200
0.13333300 0.12996700 0.13049600 0.12990500
0.13725500 0.13380400 0.13436100 0.13388600
0.14117600 0.13761600 0.13820700 0.13781300
0.14509800 0.14139900 0.14203000 0.14168400
0.14902000 0.14515600 0.14583700 0.14550800
0.15294100 0.14890000 0.14963700 0.14930600
0.15686300 0.15263500 0.15343100 0.15308500
0.16078400 0.15636300 0.15722300 0.15684900
0.16470600 0.16009000 0.16101100 0.16060300
0.16862700 0.16381400 0.16479500 0.16434300
0.17254900 0.16753500 0.16857200 0.16806900
0.17647100 0.17125700 0.17234000 0.17178300
0.18039200 0.17498100 0.17609900 0.17547900
0.18431400 0.17871100 0.17985000 0.17916200
0.18823500 0.18244200 0.18359200 0.18283200
0.19215700 0.18618400 0.18733400 0.18649900
0.19607800 0.18993100 0.19107000 0.19016200
0.20000000 0.19368300 0.19480500 0.19382200
0.20392200 0.19744100 0.19853600 0.19748100
0.20784300 0.20120500 0.20226900 0.20114100
0.21176500 0.20497600 0.20600900 0.20481300
0.21568600 0.20875600 0.20975500 0.20849600
0.21960800 0.21254200 0.21351000 0.21219200
0.22352900 0.21633700 0.21727500 0.21590200
0.22745100 0.22013200 0.22104100 0.21962200
0.23137300 0.22393100 0.22482000 0.22334700
0.23529400 0.22775200 0.22862300 0.22710000
0.23921600 0.23158600 0.23244200 0.23088400
0.24313700 0.23543100 0.23627800 0.23469100
0.24705900 0.23929000 0.24013000 0.23852000
0.25098000 0.24316100 0.24399500 0.24236700
0.25490200 0.24704200 0.24787100 0.24622900
0.25882400 0.25093500 0.25175900 0.25010600
0.26274500 0.25483900 0.25565600 0.25399600
0.26666700 0.25875500 0.25956300 0.25789600
0.27058800 0.26268000 0.26347700 0.26180400
0.27451000 0.26661600 0.26739800 0.26572400
0.27843100 0.27056300 0.27133000 0.26965300
0.28235300 0.27452300 0.27527200 0.27359600
0.28627500 0.27849600 0.27922400 0.27754900
0.29019600 0.28247600 0.28317900 0.28151000
0.29411800 0.28646200 0.28713900 0.28547400
0.29803900 0.29047200 0.29112000 0.28945100
0.30196100 0.29450400 0.29512000 0.29345700
0.30588200 0.29855400 0.29913600 0.29748800
0.30980400 0.30262400 0.30316800 0.30154600
0.31372500 0.30670700 0.30720600 0.30562000
0.31764700 0.31080600 0.31125500 0.30969900
0.32156900 0.31492300 0.31531200 0.31378700
0.32549000 0.31905600 0.31938000 0.31788400
0.32941200 0.32319900 0.32345200 0.32199300
0.33333300 0.32734700 0.32752300 0.32610200
0.33725500 0.33150000 0.33159500 0.33020800
0.34117600 0.33564600 0.33565800 0.33430900
0.34509800 0.33976400 0.33969500 0.33839000
0.34902000 0.34385700 0.34370800 0.34243800
0.35294100 0.34792400 0.34769600 0.34645500
0.35686300 0.35196900 0.35166400 0.35044700
0.36078400 0.35599300 0.35560900 0.35442000
0.36470600 0.35999500 0.35953300 0.35837200
0.36862700 0.36397400 0.36343000 0.36229800
0.37254900 0.36794400 0.36731600 0.36620000
0.37647100 0.37190500 0.37119000 0.37009800
0.38039200 0.37586100 0.37505300 0.37398900
0.38431400 0.37980600 0.37890400 0.37787600
0.38823500 0.38374400 0.38274500 0.38174700
0.39215700 0.38767600 0.38657900 0.38560000
0.39607800 0.39159300 0.39040100 0.38943200
0.40000000 0.39547900 0.39420000 0.39323500
0.40392200 0.39933400 0.39796700 0.39699100
0.40784300 0.40318000 0.40171600 0.40069800
0.41176500 0.40702200 0.40547000 0.40437900
0.41568600 0.41084900 0.40922300 0.40804700
0.41960800 0.41465200 0.41296700 0.41169600
0.42352900 0.41843200 0.41669700 0.41532100
0.42745100 0.42219400 0.42041800 0.41892500
0.43137300 0.42593800 0.42413700 0.42251600
0.43529400 0.42967200 0.42785400 0.42609700
0.43921600 0.43340500 0.43157900 0.42967100
0.44313700 0.43714500 0.43531900 0.43325800
0.44705900 0.44089100 0.43907900 0.43686700
0.45098000 0.44464600 0.44285500 0.44050800
0.45490200 0.44843000 0.44666500 0.44418400
0.45882400 0.45223700 0.45051500 0.44791600
0.46274500 0.45606800 0.45439700 0.45171500
0.46666700 0.45992100 0.45831200 0.45557500
0.47058800 0.46380300 0.46225900 0.45949100
0.47451000 0.46770600 0.46624100 0.46346100
0.47843100 0.47162600 0.47024600 0.46748900
0.48235300 0.47556300 0.47427500 0.47156000
0.48627500 0.47951600 0.47832600 0.47566800
0.49019600 0.48347800 0.48239500 0.47980700
0.49411800 0.48744800 0.48647900 0.48397000
0.49803900 0.49142700 0.49058000 0.48815300
0.50196100 0.49541300 0.49469700 0.49235600
0.50588200 0.49940800 0.49882900 0.49658000
0.50980400 0.50340200 0.50296000 0.50082400
0.51372500 0.50739200 0.50707800 0.50506400
0.51764700 0.51137800 0.51118400 0.50928400
0.52156900 0.51535900 0.51527700 0.51348400
0.52549000 0.51933800 0.51935900 0.51766300
0.52941200 0.52332100 0.52343300 0.52182100
0.53333300 0.52731000 0.52750100 0.52596700
0.53725500 0.53130200 0.53156500 0.53010700
0.54117600 0.53530100 0.53562800 0.53424500
0.54509800 0.53930200 0.53968700 0.53838700
0.54902000 0.54329800 0.54373600 0.54252100
0.55294100 0.54729900 0.54778500 0.54663600
0.55686300 0.55130700 0.55183800 0.55074800
0.56078400 0.55532000 0.55589100 0.55486200
0.56470600 0.55932800 0.55993500 0.55897400
0.56862700 0.56332900 0.56396800 0.56306700
0.57254900 0.56731300 0.56797900 0.56713700
0.57647100 0.57128600 0.57197500 0.57117700
0.58039200 0.57526100 0.57597000 0.57520100
0.58431400 0.57923500 0.57995700 0.57922200
0.58823500 0.58320000 0.58393100 0.58323300
0.59215700 0.58716200 0.58789600 0.58723400
0.59607800 0.59112000 0.59185100 0.59122600
0.60000000 0.59507400 0.59579500 0.59520200
0.60392200 0.59902600 0.59973200 0.59916500
0.60784300 0.60298000 0.60366800 0.60312300
0.61176500 0.60693200 0.60760400 0.60708500
0.61568600 0.61088500 0.61153900 0.61104700
0.61960800 0.61483800 0.61547000 0.61500800
0.62352900 0.61879700 0.61940400 0.61897300
0.62745100 0.62275900 0.62333600 0.62294700
0.63137300 0.62672000 0.62726500 0.62692900
0.63529400 0.63067400 0.63118700 0.63090700
0.63921600 0.63462700 0.63510800 0.63487700
0.64313700 0.63858200 0.63903000 0.63884500
0.64705900 0.64254200 0.64295400 0.64280600
0.65098000 0.64650100 0.64687500 0.64676000
0.65490200 0.65045100 0.65078600 0.65070200
0.65882400 0.65437600 0.65467200 0.65462700
0.66274500 0.65827000 0.65852800 0.65852100
0.66666700 0.66213500 0.66235200 0.66238000
0.67058800 0.66598500 0.66615600 0.66620400
0.67451000 0.66985700 0.66998000 0.67002000
0.67843100 0.67375200 0.67382800 0.67386400
0.68235300 0.67766800 0.67770100 0.67773600
0.68627500 0.68159400 0.68159000 0.68163400
0.69019600 0.68551500 0.68548000 0.68554400
0.69411800 0.68942500 0.68936400 0.68945700
0.69803900 0.69332300 0.69324200 0.69337300
0.70196100 0.69721600 0.69711700 0.69729100
0.70588200 0.70110300 0.70099200 0.70121700
0.70980400 0.70498100 0.70486000 0.70514300
0.71372500 0.70884700 0.70871900 0.70905600
0.71764700 0.71270200 0.71256800 0.71294900
0.72156900 0.71655900 0.71641900 0.71682700
0.72549000 0.72042200 0.72027600 0.72071300
0.72941200 0.72428400 0.72413400 0.72460800
0.73333300 0.72815600 0.72799700 0.72850600
0.73725500 0.73203600 0.73187400 0.73242100
0.74117600 0.73591800 0.73575300 0.73635200
0.74509800 0.73980000 0.73963800 0.74029200
0.74902000 0.74368500 0.74352700 0.74423900
0.75294100 0.74757100 0.74742300 0.74819500
0.75686300 0.75146100 0.75132300 0.75215700
0.76078400 0.75535400 0.75522700 0.75612500
0.76470600 0.75925000 0.75913600 0.76009800
0.76862700 0.76315300 0.76305300 0.76407900
0.77254900 0.76706300 0.76698100 0.76807400
0.77647100 0.77099000 0.77092600 0.77209000
0.78039200 0.77492600 0.77488200 0.77613500
0.78431400 0.77886100 0.77884300 0.78019800
0.78823500 0.78279900 0.78280500 0.78426100
0.79215700 0.78674100 0.78677200 0.78833200
0.79607800 0.79067600 0.79073500 0.79240300
0.80000000 0.79459700 0.79468400 0.79646300
0.80392200 0.79851300 0.79862300 0.80050500
0.80784300 0.80244500 0.80258100 0.80455800
0.81176500 0.80639300 0.80656200 0.80863600
0.81568600 0.81034600 0.81055700 0.81273700
0.81960800 0.81430000 0.81455900 0.81685600
0.82352900 0.81826200 0.81857200 0.82099800
0.82745100 0.82222800 0.82259400 0.82515500
0.83137300 0.82619500 0.82662000 0.82931500
0.83529400 0.83016200 0.83064900 0.83347300
0.83921600 0.83413000 0.83467700 0.83762500
0.84313700 0.83810000 0.83870100 0.84177200
0.84705900 0.84207500 0.84272500 0.84591500
0.85098000 0.84605400 0.84675100 0.85005600
0.85490200 0.85003100 0.85077200 0.85418500
0.85882400 0.85399700 0.85478000 0.85829600
0.86274500 0.85797100 0.85879000 0.86240700
0.86666700 0.86195100 0.86280400 0.86652000
0.87058800 0.86592300 0.86680700 0.87061800
0.87451000 0.86988800 0.87079800 0.87470200
0.87843100 0.87384700 0.87478100 0.87877000
0.88235300 0.87779600 0.87875300 0.88281100
0.88627500 0.88173500 0.88271300 0.88682800
0.89019600 0.88565800 0.88665800 0.89082500
0.89411800 0.88958500 0.89060800 0.89482700
0.89803900 0.89351500 0.89456100 0.89882900
0.90196100 0.89744100 0.89851000 0.90282500
0.90588200 0.90136200 0.90245100 0.90680100
0.90980400 0.90527000 0.90637700 0.91075500
0.91372500 0.90917700 0.91029900 0.91470200
0.91764700 0.91308000 0.91421600 0.91863900
0.92156900 0.91698000 0.91812800 0.92257000
0.92549000 0.92087800 0.92203800 0.92649800
0.92941200 0.92478000 0.92595000 0.93042600
0.93333300 0.92867800 0.92985700 0.93434500
0.93725500 0.93257400 0.93376200 0.93825700
0.94117600 0.93646900 0.93766500 0.94216300
0.94509800 0.94036300 0.94156700 0.94606300
0.94902000 0.94425300 0.94546500 0.94995300
0.95294100 0.94814100 0.94936000 0.95383600
0.95686300 0.95202800 0.95325300 0.95771000
0.96078400 0.95591200 0.95714400 0.96157900
0.96470600 0.95979400 0.96103200 0.96543900
0.96862700 0.96367300 0.96491700 0.96929100
0.97254900 0.96755100 0.96880000 0.97313800
0.97647100 0.97142800 0.97268000 0.97698100
0.98039200 0.97530400 0.97655900 0.98081700
0.98431400 0.97917800 0.98043500 0.98464900
0.98823500 0.98305100 0.98430900 0.98847600
0.99215700 0.98692300 0.98818000 0.99229800
0.99607800 0.99079300 0.99205000 0.99611500
1.00000000 0.99466300 0.99591700 0.99992700
END_DATA
