.local/share/DisplayCAL/storage/DisplayPort-0 #1 2022QDMODIFIED/DisplayPort-0 #1 2022QDMODIFIED.cal
CAL    

DESCRIPTOR "Argyll Device Calibration Curves"
ORIGINATOR "Argyll dispcal"
CREATED "Wed Nov  9 22:32:50 2022"
DEVICE_CLASS "DISPLAY"
COLOR_REP "RGB"
VIDEO_LUT_CALIBRATION_POSSIBLE "YES"
TV_OUTPUT_ENCODING "NO"
DEVICE_TYPE "r"
TARGET_WHITE_XYZ "114.020608 120.000000 130.503190"
TARGET_GAMMA "2.2"
DEGREE_OF_BLACK_OUTPUT_OFFSET "1.0"
BLACK_POINT_CORRECTION "0.0"
BLACK_NEUTRAL_BLEND_RATE "4.0"
BLACK_POINT_HACK "YES"
QUALITY "low"

BEGIN_ARGYLL_DISPCAL_ARGS
-v2 -d1 -c1 -yr -P0.510057471264,0.22520661157,1.24867724868 -X "Microstep MAG274QRF-QD (ColorMunki).ccss" -ql -t6500 -b120.0 -g2.2 -f1.0 -k0 -A4.0 -b
END_ARGYLL_DISPCAL_ARGS


NUMBER_OF_FIELDS 4
BEGIN_DATA_FORMAT
RGB_I RGB_R RGB_G RGB_B
END_DATA_FORMAT

NUMBER_OF_SETS 256
BEGIN_DATA
0.00000000 0.00000000 0.00000000 0.00000000
0.00392157 0.00321446 0.00322179 0.00300635
0.00784314 0.00648956 0.00650363 0.00607499
0.01176470 0.00982704 0.00984720 0.00920785
0.01568630 0.01322870 0.01325430 0.01240700
0.01960780 0.01669640 0.01672670 0.01567450
0.02352940 0.02023210 0.02026630 0.01901260
0.02745100 0.02383780 0.02387510 0.02242370
0.03137250 0.02751560 0.02755510 0.02591010
0.03529410 0.03126770 0.03130850 0.02947440
0.03921570 0.03509660 0.03513760 0.03311920
0.04313730 0.03900110 0.03904010 0.03684730
0.04705880 0.04296760 0.04300470 0.04064950
0.05098040 0.04698170 0.04702000 0.04451650
0.05490200 0.05102380 0.05106820 0.04843320
0.05882350 0.05508010 0.05513340 0.05238680
0.06274510 0.05913930 0.05920270 0.05636890
0.06666670 0.06319190 0.06326690 0.06037050
0.07058820 0.06723070 0.06732010 0.06438960
0.07450980 0.07124590 0.07135330 0.06842630
0.07843140 0.07523370 0.07536350 0.07247180
0.08235290 0.07919620 0.07935160 0.07652420
0.08627450 0.08313390 0.08331780 0.08058330
0.09019610 0.08705160 0.08726690 0.08464550
0.09411760 0.09095830 0.09120780 0.08871860
0.09803920 0.09486190 0.09514590 0.09281530
0.10196100 0.09876750 0.09908550 0.09693390
0.10588200 0.10268000 0.10303100 0.10107700
0.10980400 0.10659500 0.10697600 0.10523500
0.11372500 0.11051400 0.11092300 0.10939700
0.11764700 0.11443100 0.11486500 0.11355600
0.12156900 0.11833500 0.11879300 0.11769300
0.12549000 0.12222700 0.12270800 0.12179900
0.12941200 0.12610500 0.12661000 0.12587200
0.13333300 0.12996700 0.13049600 0.12990500
0.13725500 0.13380400 0.13436100 0.13388600
0.14117600 0.13761600 0.13820700 0.13781300
0.14509800 0.14139900 0.14203000 0.14168400
0.14902000 0.14515600 0.14583700 0.14550800
0.15294100 0.14890000 0.14963700 0.14930600
0.15686300 0.15263500 0.15343100 0.15308500
0.16078400 0.15636300 0.15722300 0.15684900
0.16470600 0.16009000 0.16101100 0.16060300
0.16862700 0.16381400 0.16479500 0.16434300
0.17254900 0.16753500 0.16857200 0.16806900
0.17647100 0.17125700 0.17234000 0.17178300
0.18039200 0.17498100 0.17609900 0.17547900
0.18431400 0.17871100 0.17985000 0.17916200
0.18823500 0.18244200 0.18359200 0.18283200
0.19215700 0.18618400 0.18733400 0.18649900
0.19607800 0.18993100 0.19107000 0.19016200
0.20000000 0.19368300 0.19480500 0.19382200
0.20392200 0.19744100 0.19853600 0.19748100
0.20784300 0.20120500 0.20226900 0.20114100
0.21176500 0.20497600 0.20600900 0.20481300
0.21568600 0.20875600 0.20975500 0.20849600
0.21960800 0.21254200 0.21351000 0.21219200
0.22352900 0.21633700 0.21727500 0.21590200
0.22745100 0.22013200 0.22104100 0.21962200
0.23137300 0.22393100 0.22482000 0.22334700
0.23529400 0.22775200 0.22862300 0.22710000
0.23921600 0.23158600 0.23244200 0.23088400
0.24313700 0.23543100 0.23627800 0.23469100
0.24705900 0.23929000 0.24013000 0.23852000
0.25098000 0.24316100 0.24399500 0.24236700
0.25490200 0.24704200 0.24787100 0.24622900
0.25882400 0.25093500 0.25175900 0.25010600
0.26274500 0.25483900 0.25565600 0.25399600
0.26666700 0.25875500 0.25956300 0.25789600
0.27058800 0.26268000 0.26347700 0.26180400
0.27451000 0.26661600 0.26739800 0.26572400
0.27843100 0.27056300 0.27133000 0.26965300
0.28235300 0.27452300 0.27527200 0.27359600
0.28627500 0.27849600 0.27922400 0.27754900
0.29019600 0.28247600 0.28317900 0.28151000
0.29411800 0.28646200 0.28713900 0.28547400
0.29803900 0.29047200 0.29112000 0.28945100
0.30196100 0.29450400 0.29512000 0.29345700
0.30588200 0.29855400 0.29913600 0.29748800
0.30980400 0.30262400 0.30316800 0.30154600
0.31372500 0.30670700 0.30720600 0.30562000
0.31764700 0.31080600 0.31125500 0.30969900
0.32156900 0.31492300 0.31531200 0.31378700
0.32549000 0.31905600 0.31938000 0.31788400
0.32941200 0.32319900 0.32345200 0.32199300
0.33333300 0.32734700 0.32752300 0.32610200
0.33725500 0.33150000 0.33159500 0.33020800
0.34117600 0.33564600 0.33565800 0.33430900
0.34509800 0.33976400 0.33969500 0.33839000
0.34902000 0.34385700 0.34370800 0.34243800
0.35294100 0.34792400 0.34769600 0.34645500
0.35686300 0.35196900 0.35166400 0.35044700
0.36078400 0.35599300 0.35560900 0.35442000
0.36470600 0.35999500 0.35953300 0.35837200
0.36862700 0.36397400 0.36343000 0.36229800
0.37254900 0.36794400 0.36731600 0.36620000
0.37647100 0.37190500 0.37119000 0.37009800
0.38039200 0.37586100 0.37505300 0.37398900
0.38431400 0.37980600 0.37890400 0.37787600
0.38823500 0.38374400 0.38274500 0.38174700
0.39215700 0.38767600 0.38657900 0.38560000
0.39607800 0.39159300 0.39040100 0.38943200
0.40000000 0.39547900 0.39420000 0.39323500
0.40392200 0.39933400 0.39796700 0.39699100
0.40784300 0.40318000 0.40171600 0.40069800
0.41176500 0.40702200 0.40547000 0.40437900
0.41568600 0.41084900 0.40922300 0.40804700
0.41960800 0.41465200 0.41296700 0.41169600
0.42352900 0.41843200 0.41669700 0.41532100
0.42745100 0.42219400 0.42041800 0.41892500
0.43137300 0.42593800 0.42413700 0.42251600
0.43529400 0.42967200 0.42785400 0.42609700
0.43921600 0.43340500 0.43157900 0.42967100
0.44313700 0.43714500 0.43531900 0.43325800
0.44705900 0.44089100 0.43907900 0.43686700
0.45098000 0.44464600 0.44285500 0.44050800
0.45490200 0.44843000 0.44666500 0.44418400
0.45882400 0.45223700 0.45051500 0.44791600
0.46274500 0.45606800 0.45439700 0.45171500
0.46666700 0.45992100 0.45831200 0.45557500
0.47058800 0.46380300 0.46225900 0.45949100
0.47451000 0.46770600 0.46624100 0.46346100
0.47843100 0.47162600 0.47024600 0.46748900
0.48235300 0.47556300 0.47427500 0.47156000
0.48627500 0.47951600 0.47832600 0.47566800
0.49019600 0.48347800 0.48239500 0.47980700
0.49411800 0.48744800 0.48647900 0.48397000
0.49803900 0.49142700 0.49058000 0.48815300
0.50196100 0.49541300 0.49469700 0.49235600
0.50588200 0.49940800 0.49882900 0.49658000
0.50980400 0.50340200 0.50296000 0.50082400
0.51372500 0.50739200 0.50707800 0.50506400
0.51764700 0.51137800 0.51118400 0.50928400
0.52156900 0.51535900 0.51527700 0.51348400
0.52549000 0.51933800 0.51935900 0.51766300
0.52941200 0.52332100 0.52343300 0.52182100
0.53333300 0.52731000 0.52750100 0.52596700
0.53725500 0.53130200 0.53156500 0.53010700
0.54117600 0.53530100 0.53562800 0.53424500
0.54509800 0.53930200 0.53968700 0.53838700
0.54902000 0.54329800 0.54373600 0.54252100
0.55294100 0.54729900 0.54778500 0.54663600
0.55686300 0.55130700 0.55183800 0.55074800
0.56078400 0.55532000 0.55589100 0.55486200
0.56470600 0.55932800 0.55993500 0.55897400
0.56862700 0.56332900 0.56396800 0.56306700
0.57254900 0.56731300 0.56797900 0.56713700
0.57647100 0.57128600 0.57197500 0.57117700
0.58039200 0.57526100 0.57597000 0.57520100
0.58431400 0.57923500 0.57995700 0.57922200
0.58823500 0.58320000 0.58393100 0.58323300
0.59215700 0.58716200 0.58789600 0.58723400
0.59607800 0.59112000 0.59185100 0.59122600
0.60000000 0.59507400 0.59579500 0.59520200
0.60392200 0.59902600 0.59973200 0.59916500
0.60784300 0.60298000 0.60366800 0.60312300
0.61176500 0.60693200 0.60760400 0.60708500
0.61568600 0.61088500 0.61153900 0.61104700
0.61960800 0.61483800 0.61547000 0.61500800
0.62352900 0.61879700 0.61940400 0.61897300
0.62745100 0.62275900 0.62333600 0.62294700
0.63137300 0.62672000 0.62726500 0.62692900
0.63529400 0.63067400 0.63118700 0.63090700
0.63921600 0.63462700 0.63510800 0.63487700
0.64313700 0.63858200 0.63903000 0.63884500
0.64705900 0.64254200 0.64295400 0.64280600
0.65098000 0.64650100 0.64687500 0.64676000
0.65490200 0.65045100 0.65078600 0.65070200
0.65882400 0.65437600 0.65467200 0.65462700
0.66274500 0.65827000 0.65852800 0.65852100
0.66666700 0.66213500 0.66235200 0.66238000
0.67058800 0.66598500 0.66615600 0.66620400
0.67451000 0.66985700 0.66998000 0.67002000
0.67843100 0.67375200 0.67382800 0.67386400
0.68235300 0.67766800 0.67770100 0.67773600
0.68627500 0.68159400 0.68159000 0.68163400
0.69019600 0.68551500 0.68548000 0.68554400
0.69411800 0.68942500 0.68936400 0.68945700
0.69803900 0.69332300 0.69324200 0.69337300
0.70196100 0.69721600 0.69711700 0.69729100
0.70588200 0.70110300 0.70099200 0.70121700
0.70980400 0.70498100 0.70486000 0.70514300
0.71372500 0.70884700 0.70871900 0.70905600
0.71764700 0.71270200 0.71256800 0.71294900
0.72156900 0.71655900 0.71641900 0.71682700
0.72549000 0.72042200 0.72027600 0.72071300
0.72941200 0.72428400 0.72413400 0.72460800
0.73333300 0.72815600 0.72799700 0.72850600
0.73725500 0.73203600 0.73187400 0.73242100
0.74117600 0.73591800 0.73575300 0.73635200
0.74509800 0.73980000 0.73963800 0.74029200
0.74902000 0.74368500 0.74352700 0.74423900
0.75294100 0.74757100 0.74742300 0.74819500
0.75686300 0.75146100 0.75132300 0.75215700
0.76078400 0.75535400 0.75522700 0.75612500
0.76470600 0.75925000 0.75913600 0.76009800
0.76862700 0.76315300 0.76305300 0.76407900
0.77254900 0.76706300 0.76698100 0.76807400
0.77647100 0.77099000 0.77092600 0.77209000
0.78039200 0.77492600 0.77488200 0.77613500
0.78431400 0.77886100 0.77884300 0.78019800
0.78823500 0.78279900 0.78280500 0.78426100
0.79215700 0.78674100 0.78677200 0.78833200
0.79607800 0.79067600 0.79073500 0.79240300
0.80000000 0.79459700 0.79468400 0.79646300
0.80392200 0.79851300 0.79862300 0.80050500
0.80784300 0.80244500 0.80258100 0.80455800
0.81176500 0.80639300 0.80656200 0.80863600
0.81568600 0.81034600 0.81055700 0.81273700
0.81960800 0.81430000 0.81455900 0.81685600
0.82352900 0.81826200 0.81857200 0.82099800
0.82745100 0.82222800 0.82259400 0.82515500
0.83137300 0.82619500 0.82662000 0.82931500
0.83529400 0.83016200 0.83064900 0.83347300
0.83921600 0.83413000 0.83467700 0.83762500
0.84313700 0.83810000 0.83870100 0.84177200
0.84705900 0.84207500 0.84272500 0.84591500
0.85098000 0.84605400 0.84675100 0.85005600
0.85490200 0.85003100 0.85077200 0.85418500
0.85882400 0.85399700 0.85478000 0.85829600
0.86274500 0.85797100 0.85879000 0.86240700
0.86666700 0.86195100 0.86280400 0.86652000
0.87058800 0.86592300 0.86680700 0.87061800
0.87451000 0.86988800 0.87079800 0.87470200
0.87843100 0.87384700 0.87478100 0.87877000
0.88235300 0.87779600 0.87875300 0.88281100
0.88627500 0.88173500 0.88271300 0.88682800
0.89019600 0.88565800 0.88665800 0.89082500
0.89411800 0.88958500 0.89060800 0.89482700
0.89803900 0.89351500 0.89456100 0.89882900
0.90196100 0.89744100 0.89851000 0.90282500
0.90588200 0.90136200 0.90245100 0.90680100
0.90980400 0.90527000 0.90637700 0.91075500
0.91372500 0.90917700 0.91029900 0.91470200
0.91764700 0.91308000 0.91421600 0.91863900
0.92156900 0.91698000 0.91812800 0.92257000
0.92549000 0.92087800 0.92203800 0.92649800
0.92941200 0.92478000 0.92595000 0.93042600
0.93333300 0.92867800 0.92985700 0.93434500
0.93725500 0.93257400 0.93376200 0.93825700
0.94117600 0.93646900 0.93766500 0.94216300
0.94509800 0.94036300 0.94156700 0.94606300
0.94902000 0.94425300 0.94546500 0.94995300
0.95294100 0.94814100 0.94936000 0.95383600
0.95686300 0.95202800 0.95325300 0.95771000
0.96078400 0.95591200 0.95714400 0.96157900
0.96470600 0.95979400 0.96103200 0.96543900
0.96862700 0.96367300 0.96491700 0.96929100
0.97254900 0.96755100 0.96880000 0.97313800
0.97647100 0.97142800 0.97268000 0.97698100
0.98039200 0.97530400 0.97655900 0.98081700
0.98431400 0.97917800 0.98043500 0.98464900
0.98823500 0.98305100 0.98430900 0.98847600
0.99215700 0.98692300 0.98818000 0.99229800
0.99607800 0.99079300 0.99205000 0.99611500
1.00000000 0.99466300 0.99591700 0.99992700
END_DATA
CAL    

DESCRIPTOR "Argyll Calibration options and model"
ORIGINATOR "Argyll dispcal"
CREATED "Wed Nov  9 22:32:50 202"

NUMBER_OF_FIELDS 3
BEGIN_DATA_FORMAT
R_P G_P B_P
END_DATA_FORMAT

NUMBER_OF_SETS 32
BEGIN_DATA
0.0000254524 0.0004017860 0.0008512410
0.9999750000 0.9995980000 0.9991490000
1.6782700000 1.6038800000 1.4455300000
0.5597260000 0.5499150000 0.5455050000
0.0438509000 0.0535234000 0.1095480000
0.0720479000 0.0879200000 0.1276690000
0.0895530000 0.0990932000 0.1134750000
0.1222580000 0.1444230000 0.0891685000
0.0927628000 0.0871593000 0.0705286000
0.0782334000 0.0652836000 0.0692122000
0.0567801000 0.0507185000 0.0593460000
0.0554969000 0.0481302000 0.0543070000
0.0522096000 0.0545472000 0.0524001000
0.0455876000 0.0458352000 0.0458405000
0.0426450000 0.0358873000 0.0463591000
0.0419009000 0.0527072000 0.0553844000
0.0388124000 0.0381662000 0.0363802000
0.0370295000 0.0406395000 0.0341635000
0.0361219000 0.0334169000 0.0286042000
0.0338880000 0.0373538000 0.0337659000
0.0328119000 0.0338828000 0.0320711000
0.0288051000 0.0310935000 0.0288503000
0.0262575000 0.0336167000 0.0259704000
0.0262686000 0.0322559000 0.0225159000
0.0264429000 0.0305111000 0.0259224000
0.0254665000 0.0308837000 0.0253210000
0.0233792000 0.0290474000 0.0205163000
0.0221100000 0.0263499000 0.0208171000
0.0222056000 0.0260683000 0.0219869000
0.0210546000 0.0281334000 0.0198565000
0.0202539000 0.0301816000 0.0178880000
0.0190200000 0.0287700000 0.0164730000
END_DATA
