.local/share/DisplayCAL/storage/DisplayPort-0 #1 2022/DisplayPort-0 #1 2022.ti3
CTI3   

DESCRIPTOR "Argyll Calibration Target chart information 3"
ORIGINATOR "Argyll dispread"
CREATED "Wed Nov  9 21:56:40 2022"
DEVICE_CLASS "DISPLAY"
SINGLE_DIM_STEPS "4"
COMP_GREY_STEPS "52"
MULTI_DIM_STEPS "4"
COLOR_REP "RGB_XYZ"
TARGET_INSTRUMENT "X-Rite i1 DisplayPro, ColorMunki Display"
DISPLAY_TYPE_REFRESH "NO"
DISPLAY_TYPE_BASE_ID "1"
INSTRUMENT_TYPE_SPECTRAL "NO"
LUMINANCE_XYZ_CDM2 "113.433567 119.568452 130.217122"
NORMALIZED_TO_Y_100 "YES"
VIDEO_LUT_CALIBRATION_POSSIBLE "YES"

BEGIN_ARGYLL_COLPROF_ARGS
-v -qh -aX -bn -C "No copyright. Created with DisplayCAL 3.8.9.3 and ArgyllCMS 2.3.1" -M "Monitor 1, Output DisplayPort-0"
END_ARGYLL_COLPROF_ARGS

OBSERVER "1931_2"
USE_BLACK_POINT_COMPENSATION "NO"
BLACK_POINT_CORRECTION "0.0"
HIRES_B2A "YES"
HIRES_B2A_SIZE "-1"
SMOOTH_B2A "YES"
PATCH_SEQUENCE "OPTIMIZE_DISPLAY_RESPONSE_DELAY"

NUMBER_OF_FIELDS 7
BEGIN_DATA_FORMAT
SAMPLE_ID RGB_R RGB_G RGB_B XYZ_X XYZ_Y XYZ_Z
END_DATA_FORMAT

NUMBER_OF_SETS 115
BEGIN_DATA
1 100.00000 100.00000 100.00000 94.869100 100.00000 108.90600
2 100.00000 66.667000 100.00000 83.059400 60.073300 105.27400
3 100.00000 100.00000 100.00000 94.901500 100.00100 109.05900
4 100.00000 100.00000 100.00000 94.901500 100.00100 109.05900
5 0.0000000 0.0000000 0.0000000 0.0830608 0.0880820 0.1485320
6 33.333000 0.0000000 0.0000000 4.9385600 2.2451300 0.1949690
7 66.667000 0.0000000 0.0000000 22.808500 10.184500 0.3661570
8 100.00000 0.0000000 0.0000000 56.201300 25.017900 0.6983410
9 100.00000 0.0000000 33.333000 57.829400 25.629700 9.8426000
10 100.00000 33.333000 33.333000 59.636100 31.595700 10.350900
11 100.00000 66.667000 33.333000 66.112600 53.370500 12.281900
12 100.00000 66.667000 66.667000 72.139800 55.752700 45.233700
13 66.667000 0.0000000 100.00000 41.319000 17.098000 102.25600
14 100.00000 0.0000000 100.00000 74.662400 31.900500 102.68300
15 1.9608000 1.9608000 1.9608000 0.0940641 0.0996426 0.1585580
16 3.9216000 3.9216000 3.9216000 0.1441240 0.1525930 0.2144290
17 5.8824000 5.8824000 5.8824000 0.2466530 0.2620120 0.3361250
18 7.8431000 7.8431000 7.8431000 0.4134530 0.4397680 0.5089700
19 9.8039000 9.8039000 9.8039000 0.6337970 0.6732800 0.7582480
20 11.765000 11.765000 11.765000 0.9219390 0.9738530 1.0830000
21 13.726000 13.726000 13.726000 1.2515700 1.3292600 1.4460500
22 15.686000 15.686000 15.686000 1.6416200 1.7356000 1.9072000
23 17.647000 17.647000 17.647000 2.0870300 2.2192000 2.4316000
24 19.608000 19.608000 19.608000 2.6201100 2.7713700 3.0279900
25 21.569000 21.569000 21.569000 3.2175300 3.3991600 3.7029100
26 23.529000 23.529000 23.529000 3.8593800 4.0764300 4.4441800
27 25.490000 25.490000 25.490000 4.5935700 4.8421600 5.2723700
28 27.451000 27.451000 27.451000 5.3796400 5.6913600 6.1504800
29 29.412000 29.412000 29.412000 6.2912800 6.6518800 7.1991200
30 31.373000 31.373000 31.373000 7.2790700 7.6940700 8.3425000
31 33.333000 33.333000 33.333000 8.3908000 8.8509200 9.5655400
32 35.294000 35.294000 35.294000 9.6058500 10.138600 11.015200
33 37.255000 37.255000 37.255000 10.904700 11.477900 12.460800
34 39.216000 39.216000 39.216000 12.169500 12.838900 13.911000
35 41.176000 41.176000 41.176000 13.500000 14.260700 15.528500
36 43.137000 43.137000 43.137000 14.941400 15.774600 17.200600
37 45.098000 45.098000 45.098000 16.479600 17.377200 18.841900
38 47.059000 47.059000 47.059000 18.002100 19.013000 20.621200
39 49.020000 49.020000 49.020000 19.650900 20.738500 22.508500
40 50.980000 50.980000 50.980000 21.500800 22.675200 24.582100
41 52.941000 52.941000 52.941000 23.314100 24.644500 26.694600
42 54.902000 54.902000 54.902000 25.348900 26.732300 29.015600
43 56.863000 56.863000 56.863000 27.388900 28.913800 31.435000
44 58.824000 58.824000 58.824000 29.540700 31.184300 33.894500
45 60.784000 60.784000 60.784000 31.766500 33.483100 36.353900
46 62.745000 62.745000 62.745000 34.071000 35.937500 39.120300
47 64.706000 64.706000 64.706000 36.372600 38.451500 41.734700
48 66.667000 66.667000 66.667000 38.960800 41.052300 44.654000
49 68.627000 68.627000 68.627000 41.563000 43.806700 47.575000
50 70.588000 70.588000 70.588000 44.165300 46.561000 50.496100
51 72.549000 72.549000 72.549000 46.829200 49.377000 53.570400
52 74.510000 74.510000 74.510000 49.658100 52.343500 56.798300
53 76.471000 76.471000 76.471000 52.561100 55.338200 60.026100
54 78.431000 78.431000 78.431000 55.498100 58.520900 63.561600
55 80.392000 80.392000 80.392000 58.615400 61.761100 67.249500
56 82.353000 82.353000 82.353000 61.820800 65.183100 70.939100
57 84.314000 84.314000 84.314000 65.194200 68.696000 74.934400
58 86.275000 86.275000 86.275000 68.552300 72.301900 78.931000
59 88.235000 88.235000 88.235000 72.223500 76.114700 83.080900
60 90.196000 90.196000 90.196000 75.684900 79.809500 87.077900
61 92.157000 92.157000 92.157000 79.385400 83.682900 91.228400
62 94.118000 94.118000 94.118000 83.044200 87.529200 95.531600
63 96.078000 96.078000 96.078000 86.865100 91.585400 99.836400
64 98.039000 98.039000 98.039000 90.792200 95.671000 104.29400
65 33.333000 33.333000 0.0000000 6.7622200 8.1315600 0.7263370
66 66.667000 33.333000 0.0000000 24.698200 16.094400 0.8984260
67 100.00000 33.333000 0.0000000 57.889300 30.827700 1.2276000
68 100.00000 66.667000 0.0000000 64.223700 52.383300 3.1898500
69 66.667000 66.667000 0.0000000 31.276200 37.801800 2.8665600
70 33.333000 66.667000 0.0000000 13.246900 29.794300 2.6947600
71 33.333000 100.00000 0.0000000 25.213900 70.024300 6.3793400
72 66.667000 100.00000 0.0000000 43.317600 78.060100 6.5525600
73 100.00000 100.00000 0.0000000 76.177200 92.706300 6.8842100
74 100.00000 100.00000 33.333000 77.941600 93.544300 16.013800
75 100.00000 100.00000 66.667000 83.993000 95.893600 48.868400
76 0.0000000 33.333000 0.0000000 1.8191700 5.9509300 0.6808840
77 0.0000000 33.333000 33.333000 3.4408600 6.6703600 9.4059500
78 33.333000 66.667000 66.667000 20.874400 33.043000 44.212700
79 0.0000000 66.667000 0.0000000 8.2507100 27.593500 2.6500100
80 0.0000000 66.667000 33.333000 9.8873900 28.461200 11.388100
81 33.333000 66.667000 33.333000 14.921400 30.663100 11.611800
82 66.667000 66.667000 33.333000 32.955500 38.670800 11.805600
83 0.0000000 100.00000 0.0000000 20.190000 68.009500 6.3503200
84 0.0000000 100.00000 33.333000 21.766800 68.662500 15.008700
85 33.333000 100.00000 33.333000 26.840300 70.925400 15.280400
86 66.667000 100.00000 33.333000 45.006600 78.929400 15.538100
87 66.667000 100.00000 66.667000 51.035900 81.277900 48.288300
88 66.667000 0.0000000 33.333000 24.407100 10.786700 9.3156700
89 66.667000 0.0000000 66.667000 30.351400 13.033300 42.066900
90 100.00000 0.0000000 66.667000 63.814100 27.880100 42.799400
91 100.00000 33.333000 66.667000 65.590700 33.870000 43.321300
92 66.667000 33.333000 33.333000 26.416400 16.852600 9.8316700
93 66.667000 33.333000 66.667000 32.379300 19.168500 42.588900
94 0.0000000 0.0000000 33.333000 1.6675800 0.6858940 8.8471600
95 0.0000000 33.333000 66.667000 9.3680700 8.9520800 41.846400
96 33.333000 33.333000 66.667000 14.363800 11.155900 42.300000
97 0.0000000 66.667000 66.667000 15.791700 30.839500 43.759700
98 0.0000000 100.00000 66.667000 27.718900 71.008600 47.394300
99 33.333000 100.00000 66.667000 32.801500 73.212100 47.847300
100 33.333000 0.0000000 33.333000 6.5404800 2.8487400 9.0570800
101 33.333000 0.0000000 66.667000 12.495100 5.0958600 41.777800
102 33.333000 0.0000000 100.00000 23.473300 9.1659700 102.12000
103 0.0000000 0.0000000 66.667000 7.5855700 2.9200400 41.324100
104 0.0000000 0.0000000 100.00000 18.628700 7.0212500 101.97200
105 0.0000000 33.333000 100.00000 20.470600 13.152300 102.49500
106 33.333000 33.333000 100.00000 25.401700 15.358700 102.79600
107 66.667000 33.333000 100.00000 43.394100 23.305300 102.93200
108 100.00000 33.333000 100.00000 76.496200 38.037000 103.35900
109 0.0000000 66.667000 100.00000 26.988600 35.220700 104.41000
110 33.333000 66.667000 100.00000 31.964900 37.394900 104.71000
111 66.667000 66.667000 100.00000 50.019000 45.403200 104.99900
112 66.667000 100.00000 100.00000 62.006100 85.447100 108.63200
113 0.0000000 100.00000 100.00000 38.783100 75.240400 108.04300
114 33.333000 100.00000 100.00000 43.878000 77.410500 108.34300
115 100.00000 100.00000 100.00000 94.901500 100.00100 109.05900
END_DATA
CAL    

DESCRIPTOR "Argyll Device Calibration State"
ORIGINATOR "Argyll dispread"
CREATED "Wed Nov  9 21:56:40 2022"
DEVICE_CLASS "DISPLAY"
COLOR_REP "RGB"

BEGIN_ARGYLL_DISPCAL_ARGS
-v2 -ql -t6500 -b120.0 -g2.2 -f1.0 -k0 -A4.0 -d1 -c1 -yn -P0.510057471264,0.22520661157,1.24867724868 -X "PFS_Phosphor_Family_31Jan17.ccss"
END_ARGYLL_DISPCAL_ARGS


NUMBER_OF_FIELDS 4
BEGIN_DATA_FORMAT
RGB_I RGB_R RGB_G RGB_B
END_DATA_FORMAT

NUMBER_OF_SETS 256
BEGIN_DATA
0.00000000 0.00000000 0.00000000 0.00000000
0.00392157 0.00327985 0.00330745 0.00306525
0.00784314 0.00662653 0.00667914 0.00619458
0.01176470 0.01004210 0.01011690 0.00939001
0.01568630 0.01352870 0.01362280 0.01265370
0.01960780 0.01708860 0.01719880 0.01598770
0.02352940 0.02072410 0.02084710 0.01939460
0.02745100 0.02443760 0.02456980 0.02287650
0.03137250 0.02823180 0.02836930 0.02643610
0.03529410 0.03210910 0.03224800 0.03007600
0.03921570 0.03606960 0.03620640 0.03379890
0.04313730 0.04009310 0.04022840 0.03760300
0.04705880 0.04414890 0.04428980 0.04146790
0.05098040 0.04822040 0.04837570 0.04537510
0.05490200 0.05229690 0.05247250 0.04931810
0.05882350 0.05637190 0.05657290 0.05329420
0.06274510 0.06044150 0.06066820 0.05730870
0.06666670 0.06449400 0.06474510 0.06135540
0.07058820 0.06851440 0.06879260 0.06542050
0.07450980 0.07249890 0.07280900 0.06949300
0.07843140 0.07645310 0.07680000 0.07356990
0.08235290 0.08039010 0.08077440 0.07765520
0.08627450 0.08432250 0.08473810 0.08175500
0.09019610 0.08825740 0.08869580 0.08587390
0.09411760 0.09219810 0.09265270 0.09001160
0.09803920 0.09614370 0.09661250 0.09416940
0.10196100 0.10009900 0.10058000 0.09834480
0.10588200 0.10405700 0.10455200 0.10253500
0.10980400 0.10800700 0.10851900 0.10671900
0.11372500 0.11193900 0.11247400 0.11088000
0.11764700 0.11584000 0.11640500 0.11500500
0.12156900 0.11970000 0.12030600 0.11907000
0.12549000 0.12351600 0.12417700 0.12307500
0.12941200 0.12728800 0.12801600 0.12702100
0.13333300 0.13101700 0.13182300 0.13090600
0.13725500 0.13470600 0.13559700 0.13472700
0.14117600 0.13836800 0.13934400 0.13849300
0.14509800 0.14200700 0.14306500 0.14220700
0.14902000 0.14563500 0.14677300 0.14588400
0.15294100 0.14925900 0.15047400 0.14953800
0.15686300 0.15288400 0.15417500 0.15318100
0.16078400 0.15652200 0.15788600 0.15683000
0.16470600 0.16018000 0.16161200 0.16049700
0.16862700 0.16386500 0.16535900 0.16419000
0.17254900 0.16758200 0.16912500 0.16791100
0.17647100 0.17133100 0.17291000 0.17165800
0.18039200 0.17511000 0.17671000 0.17542500
0.18431400 0.17891100 0.18051800 0.17920700
0.18823500 0.18272900 0.18432900 0.18299300
0.19215700 0.18656500 0.18814500 0.18678900
0.19607800 0.19040500 0.19195500 0.19058200
0.20000000 0.19424300 0.19575700 0.19436500
0.20392200 0.19807200 0.19954600 0.19813200
0.20784300 0.20189200 0.20332500 0.20188200
0.21176500 0.20569800 0.20709300 0.20561500
0.21568600 0.20949200 0.21085300 0.20933000
0.21960800 0.21327300 0.21460600 0.21302900
0.22352900 0.21704000 0.21835100 0.21671000
0.22745100 0.22079200 0.22208400 0.22036700
0.23137300 0.22454000 0.22582400 0.22401200
0.23529400 0.22829100 0.22957700 0.22766700
0.23921600 0.23204400 0.23333800 0.23133100
0.24313700 0.23580300 0.23710900 0.23500100
0.24705900 0.23957000 0.24089400 0.23868200
0.25098000 0.24334600 0.24469100 0.24237900
0.25490200 0.24713100 0.24849900 0.24609100
0.25882400 0.25092900 0.25232200 0.24981900
0.26274500 0.25474700 0.25616200 0.25357500
0.26666700 0.25858300 0.26001700 0.25735800
0.27058800 0.26243200 0.26388400 0.26116600
0.27451000 0.26629800 0.26776400 0.26499600
0.27843100 0.27019100 0.27166200 0.26885500
0.28235300 0.27410300 0.27557500 0.27274200
0.28627500 0.27803600 0.27950600 0.27665200
0.29019600 0.28198400 0.28344600 0.28058300
0.29411800 0.28594600 0.28739700 0.28452500
0.29803900 0.28993900 0.29137300 0.28849000
0.30196100 0.29395400 0.29537100 0.29248600
0.30588200 0.29798900 0.29938600 0.29650800
0.30980400 0.30203900 0.30341400 0.30055400
0.31372500 0.30610100 0.30745100 0.30460800
0.31764700 0.31018700 0.31150800 0.30867200
0.32156900 0.31428500 0.31557800 0.31276400
0.32549000 0.31838700 0.31965800 0.31687100
0.32941200 0.32249500 0.32374200 0.32098800
0.33333300 0.32660800 0.32782900 0.32511100
0.33725500 0.33072400 0.33191600 0.32923800
0.34117600 0.33482800 0.33599700 0.33336800
0.34509800 0.33890800 0.34005900 0.33748100
0.34902000 0.34296500 0.34410100 0.34157000
0.35294100 0.34699700 0.34812600 0.34563600
0.35686300 0.35100000 0.35213100 0.34967500
0.36078400 0.35498200 0.35612200 0.35369300
0.36470600 0.35894100 0.36010500 0.35770000
0.36862700 0.36287100 0.36407300 0.36169000
0.37254900 0.36677700 0.36803400 0.36566500
0.37647100 0.37066200 0.37198800 0.36963100
0.38039200 0.37453400 0.37594200 0.37359900
0.38431400 0.37839300 0.37989400 0.37757400
0.38823500 0.38223700 0.38384300 0.38154600
0.39215700 0.38607600 0.38779300 0.38551300
0.39607800 0.38990500 0.39173800 0.38947100
0.40000000 0.39371600 0.39566500 0.39341300
0.40392200 0.39751200 0.39957100 0.39732800
0.40784300 0.40132500 0.40347800 0.40123000
0.41176500 0.40516100 0.40739300 0.40513300
0.41568600 0.40900800 0.41130400 0.40903300
0.41960800 0.41285900 0.41520000 0.41291600
0.42352900 0.41671900 0.41908200 0.41677800
0.42745100 0.42058900 0.42295200 0.42061800
0.43137300 0.42445800 0.42680500 0.42442800
0.43529400 0.42833600 0.43064600 0.42820300
0.43921600 0.43222700 0.43448400 0.43196100
0.44313700 0.43612800 0.43831800 0.43570800
0.44705900 0.44001800 0.44213900 0.43943900
0.45098000 0.44390600 0.44595300 0.44314700
0.45490200 0.44779700 0.44977500 0.44685500
0.45882400 0.45168300 0.45359900 0.45057000
0.46274500 0.45556100 0.45742400 0.45429300
0.46666700 0.45943000 0.46125200 0.45802100
0.47058800 0.46329900 0.46509100 0.46175800
0.47451000 0.46715900 0.46893600 0.46551800
0.47843100 0.47101500 0.47279000 0.46929300
0.48235300 0.47487200 0.47665800 0.47308900
0.48627500 0.47873500 0.48054300 0.47691300
0.49019600 0.48260700 0.48444400 0.48076700
0.49411800 0.48649100 0.48836400 0.48465300
0.49803900 0.49038600 0.49230300 0.48857200
0.50196100 0.49429300 0.49626000 0.49252400
0.50588200 0.49821300 0.50023600 0.49650900
0.50980400 0.50214200 0.50422100 0.50052500
0.51372500 0.50608100 0.50821300 0.50455200
0.51764700 0.51002900 0.51221300 0.50859200
0.52156900 0.51398600 0.51622100 0.51264200
0.52549000 0.51794900 0.52023400 0.51670300
0.52941200 0.52191200 0.52425400 0.52077400
0.53333300 0.52586900 0.52827500 0.52485400
0.53725500 0.52981600 0.53229200 0.52893600
0.54117600 0.53376400 0.53630800 0.53301100
0.54509800 0.53771400 0.54032100 0.53708200
0.54902000 0.54166500 0.54432700 0.54114300
0.55294100 0.54562500 0.54833400 0.54519200
0.55686300 0.54959600 0.55234500 0.54924000
0.56078400 0.55357600 0.55636100 0.55329700
0.56470600 0.55755800 0.56037200 0.55735300
0.56862700 0.56154000 0.56437900 0.56139700
0.57254900 0.56551100 0.56837000 0.56542400
0.57647100 0.56947600 0.57234900 0.56942900
0.58039200 0.57344500 0.57633000 0.57342700
0.58431400 0.57740600 0.58030200 0.57741900
0.58823500 0.58136100 0.58426400 0.58140000
0.59215700 0.58530800 0.58821400 0.58536800
0.59607800 0.58925300 0.59215700 0.58932400
0.60000000 0.59320200 0.59609600 0.59327400
0.60392200 0.59715400 0.60003400 0.59722500
0.60784300 0.60110400 0.60397100 0.60117400
0.61176500 0.60504700 0.60790400 0.60512100
0.61568600 0.60897900 0.61182900 0.60906000
0.61960800 0.61291000 0.61574700 0.61298500
0.62352900 0.61684900 0.61967000 0.61691300
0.62745100 0.62079700 0.62359800 0.62085400
0.63137300 0.62475900 0.62753200 0.62481000
0.63529400 0.62872500 0.63146800 0.62877500
0.63921600 0.63268900 0.63540000 0.63273800
0.64313700 0.63665100 0.63933000 0.63669300
0.64705900 0.64061900 0.64326400 0.64064200
0.65098000 0.64458700 0.64720200 0.64458500
0.65490200 0.64854500 0.65113200 0.64851400
0.65882400 0.65247600 0.65504100 0.65242500
0.66274500 0.65637100 0.65891800 0.65630300
0.66666700 0.66023200 0.66276300 0.66014600
0.67058800 0.66409300 0.66659000 0.66395500
0.67451000 0.66797600 0.67043900 0.66777000
0.67843100 0.67188200 0.67431200 0.67161400
0.68235300 0.67580400 0.67821000 0.67548600
0.68627500 0.67972400 0.68211600 0.67937900
0.69019600 0.68363600 0.68602200 0.68328100
0.69411800 0.68753600 0.68992000 0.68719100
0.69803900 0.69143300 0.69381300 0.69110500
0.70196100 0.69532700 0.69770600 0.69502400
0.70588200 0.69920800 0.70159500 0.69894500
0.70980400 0.70307400 0.70547300 0.70285100
0.71372500 0.70692400 0.70934200 0.70673800
0.71764700 0.71076300 0.71320400 0.71061000
0.72156900 0.71460500 0.71707000 0.71447900
0.72549000 0.71845500 0.72094600 0.71836100
0.72941200 0.72231100 0.72482800 0.72225800
0.73333300 0.72617700 0.72871900 0.72616600
0.73725500 0.73003900 0.73261400 0.73009000
0.74117600 0.73389100 0.73650700 0.73401500
0.74509800 0.73773800 0.74039800 0.73793600
0.74902000 0.74158400 0.74429100 0.74185600
0.75294100 0.74543100 0.74818800 0.74577900
0.75686300 0.74928700 0.75209300 0.74970900
0.76078400 0.75315400 0.75600600 0.75365500
0.76470600 0.75703000 0.75992900 0.75761800
0.76862700 0.76091300 0.76386400 0.76159800
0.77254900 0.76479900 0.76780300 0.76558700
0.77647100 0.76869900 0.77175700 0.76959400
0.78039200 0.77260700 0.77572400 0.77363000
0.78431400 0.77651200 0.77969300 0.77768200
0.78823500 0.78041500 0.78366300 0.78173500
0.79215700 0.78431600 0.78763700 0.78578900
0.79607800 0.78820800 0.79161000 0.78984200
0.80000000 0.79208300 0.79557400 0.79389100
0.80392200 0.79596700 0.79953300 0.79793600
0.80784300 0.79987900 0.80351200 0.80200100
0.81176500 0.80381100 0.80750700 0.80608600
0.81568600 0.80774600 0.81150500 0.81018000
0.81960800 0.81168100 0.81549900 0.81427500
0.82352900 0.81561400 0.81949500 0.81837400
0.82745100 0.81954300 0.82349100 0.82247100
0.83137300 0.82347600 0.82749100 0.82657400
0.83529400 0.82741400 0.83149700 0.83068500
0.83921600 0.83136200 0.83550800 0.83480300
0.84313700 0.83531200 0.83952100 0.83892200
0.84705900 0.83925900 0.84353200 0.84303500
0.85098000 0.84320700 0.84754200 0.84713600
0.85490200 0.84715100 0.85154600 0.85122600
0.85882400 0.85108700 0.85553800 0.85530100
0.86274500 0.85503000 0.85953400 0.85937700
0.86666700 0.85897200 0.86352900 0.86344900
0.87058800 0.86290400 0.86751300 0.86750600
0.87451000 0.86682600 0.87148800 0.87154800
0.87843100 0.87073900 0.87545400 0.87557100
0.88235300 0.87465100 0.87941400 0.87957800
0.88627500 0.87855700 0.88336400 0.88355700
0.89019600 0.88245000 0.88729500 0.88751100
0.89411800 0.88634300 0.89122800 0.89146500
0.89803900 0.89023300 0.89516000 0.89541800
0.90196100 0.89412200 0.89909100 0.89936500
0.90588200 0.89800200 0.90301600 0.90329300
0.90980400 0.90186800 0.90692800 0.90720400
0.91372500 0.90573000 0.91083600 0.91110600
0.91764700 0.90958600 0.91473800 0.91499800
0.92156900 0.91343600 0.91863300 0.91887400
0.92549000 0.91728100 0.92252300 0.92274600
0.92941200 0.92112400 0.92641300 0.92661500
0.93333300 0.92496000 0.93029800 0.93047400
0.93725500 0.92879800 0.93418200 0.93432900
0.94117600 0.93263300 0.93806400 0.93817400
0.94509800 0.93646700 0.94194500 0.94201600
0.94902000 0.94030200 0.94582400 0.94585000
0.95294100 0.94413400 0.94970100 0.94967500
0.95686300 0.94796500 0.95357600 0.95349500
0.96078400 0.95179500 0.95745000 0.95730700
0.96470600 0.95562400 0.96132200 0.96111300
0.96862700 0.95945100 0.96519200 0.96491000
0.97254900 0.96327400 0.96905800 0.96870100
0.97647100 0.96709300 0.97292100 0.97248400
0.98039200 0.97090800 0.97678000 0.97626000
0.98431400 0.97471900 0.98063500 0.98002800
0.98823500 0.97852600 0.98448700 0.98378900
0.99215700 0.98232900 0.98833500 0.98754200
0.99607800 0.98612800 0.99218000 0.99128900
1.00000000 0.98992300 0.99602100 0.99502800
END_DATA
