.local/share/DisplayCAL/storage/DisplayPort-0 #1 2022/DisplayPort-0 #1 2022.ti1
CTI1   

DESCRIPTOR "Argyll Calibration Target chart information 1"
ORIGINATOR "Argyll targen"
CREATED "Wed Nov  9 21:04:16 2022"
SINGLE_DIM_STEPS "4"
COMP_GREY_STEPS "52"
MULTI_DIM_STEPS "4"
COLOR_REP "RGB"
TARGET_INSTRUMENT "X-Rite i1 DisplayPro, ColorMunki Display"
DISPLAY_TYPE_REFRESH "NO"
DISPLAY_TYPE_BASE_ID "1"
INSTRUMENT_TYPE_SPECTRAL "NO"
NORMALIZED_TO_Y_100 "YES"
VIDEO_LUT_CALIBRATION_POSSIBLE "YES"
OBSERVER "1931_2"
USE_BLACK_POINT_COMPENSATION "NO"
BLACK_POINT_CORRECTION "0.0"
HIRES_B2A "YES"
HIRES_B2A_SIZE "-1"
SMOOTH_B2A "YES"
PATCH_SEQUENCE "OPTIMIZE_DISPLAY_RESPONSE_DELAY"

NUMBER_OF_FIELDS 7
BEGIN_DATA_FORMAT
SAMPLE_ID RGB_R RGB_G RGB_B XYZ_X XYZ_Y XYZ_Z
END_DATA_FORMAT

NUMBER_OF_SETS 115
BEGIN_DATA
1 100.00000 100.00000 100.00000 95.023000 100.00000 109.06100
2 100.00000 66.667000 100.00000 82.724900 59.255000 105.26900
3 100.00000 100.00000 100.00000 95.023000 100.00000 109.06100
4 100.00000 100.00000 100.00000 94.949000 99.971700 109.06100
5 0.0000000 0.0000000 0.0000000 0.0873805 0.0936774 0.1501510
6 33.333000 0.0000000 0.0000000 5.0474600 2.2936200 0.1979450
7 66.667000 0.0000000 0.0000000 22.119600 9.8652000 0.3631480
8 100.00000 0.0000000 0.0000000 55.956900 24.870300 0.7030660
9 100.00000 0.0000000 33.333000 57.557400 25.464300 10.122200
10 100.00000 33.333000 33.333000 59.372700 31.588600 10.636600
11 100.00000 66.667000 33.333000 65.681800 52.497200 12.520800
12 100.00000 66.667000 66.667000 71.549400 54.866500 44.158100
13 66.667000 0.0000000 100.00000 40.629900 16.747100 102.56500
14 100.00000 0.0000000 100.00000 74.329900 31.701600 102.99200
15 1.9608000 1.9608000 1.9608000 0.1653770 0.1777980 0.2402430
16 3.9216000 3.9216000 3.9216000 0.3187290 0.3415650 0.4169190
17 5.8824000 5.8824000 5.8824000 0.5008480 0.5351540 0.6115030
18 7.8431000 7.8431000 7.8431000 0.7101260 0.7592540 0.8508060
19 9.8039000 9.8039000 9.8039000 0.9683560 1.0305500 1.1353400
20 11.765000 11.765000 11.765000 1.2672700 1.3541400 1.4567000
21 13.726000 13.726000 13.726000 1.6282900 1.7264900 1.8680900
22 15.686000 15.686000 15.686000 2.0275900 2.1570800 2.3420500
23 17.647000 17.647000 17.647000 2.5098600 2.6619500 2.8841600
24 19.608000 19.608000 19.608000 3.0480500 3.2282200 3.5178700
25 21.569000 21.569000 21.569000 3.6551700 3.8566300 4.2108200
26 23.529000 23.529000 23.529000 4.2967000 4.5409500 4.9175500
27 25.490000 25.490000 25.490000 5.0109200 5.2886100 5.7651400
28 27.451000 27.451000 27.451000 5.8415900 6.1475700 6.7129400
29 29.412000 29.412000 29.412000 6.7027200 7.0605600 7.7017300
30 31.373000 31.373000 31.373000 7.6518100 8.0535200 8.7832600
31 33.333000 33.333000 33.333000 8.6492100 9.1103800 9.9279500
32 35.294000 35.294000 35.294000 9.7311100 10.255200 11.178600
33 37.255000 37.255000 37.255000 10.915700 11.478200 12.508700
34 39.216000 39.216000 39.216000 12.075400 12.730600 13.826900
35 41.176000 41.176000 41.176000 13.406700 14.138800 15.362300
36 43.137000 43.137000 43.137000 14.849700 15.559400 16.968600
37 45.098000 45.098000 45.098000 16.281600 17.166500 18.669200
38 47.059000 47.059000 47.059000 17.848000 18.770000 20.443600
39 49.020000 49.020000 49.020000 19.444400 20.527600 22.295300
40 50.980000 50.980000 50.980000 21.219400 22.342600 24.290900
41 52.941000 52.941000 52.941000 23.052100 24.278900 26.283400
42 54.902000 54.902000 54.902000 24.864900 26.248200 28.393100
43 56.863000 56.863000 56.863000 26.926000 28.303200 30.626600
44 58.824000 58.824000 58.824000 28.847400 30.395400 32.973200
45 60.784000 60.784000 60.784000 31.073300 32.694200 35.432700
46 62.745000 62.745000 62.745000 33.286800 35.026500 38.045400
47 64.706000 64.706000 64.706000 35.426400 37.330500 40.658300
48 66.667000 66.667000 66.667000 38.044000 39.992000 43.578200
49 68.627000 68.627000 68.627000 40.663400 42.840400 46.653300
50 70.588000 70.588000 70.588000 43.298000 45.595900 49.727100
51 72.549000 72.549000 72.549000 45.991400 48.472500 52.802000
52 74.510000 74.510000 74.510000 48.761700 51.317900 56.028900
53 76.471000 76.471000 76.471000 51.694100 54.373300 59.257300
54 78.431000 78.431000 78.431000 54.614200 57.462100 62.639100
55 80.392000 80.392000 80.392000 57.654600 60.733700 66.175200
56 82.353000 82.353000 82.353000 61.040500 64.213400 70.017300
57 84.314000 84.314000 84.314000 64.337000 67.757700 73.860700
58 86.275000 86.275000 86.275000 67.801500 71.393000 78.009900
59 88.235000 88.235000 88.235000 71.398700 75.177700 82.160100
60 90.196000 90.196000 90.196000 74.993000 79.022000 86.158200
61 92.157000 92.157000 92.157000 78.755300 82.957200 90.462000
62 94.118000 94.118000 94.118000 82.714900 87.043900 95.072100
63 96.078000 96.078000 96.078000 86.626900 91.222600 99.530800
64 98.039000 98.039000 98.039000 90.662300 95.524500 104.29600
65 33.333000 33.333000 0.0000000 6.9471200 8.3540000 0.7286480
66 66.667000 33.333000 0.0000000 24.098900 15.955500 0.8943490
67 100.00000 33.333000 0.0000000 57.661400 30.831600 1.2310400
68 100.00000 66.667000 0.0000000 63.937000 51.592300 3.0608300
69 66.667000 66.667000 0.0000000 30.364600 36.723500 2.7252300
70 33.333000 66.667000 0.0000000 13.179500 29.087300 2.5600100
71 33.333000 100.00000 0.0000000 25.608200 70.287800 6.2143000
72 66.667000 100.00000 0.0000000 42.894400 78.012800 6.3696700
73 100.00000 100.00000 0.0000000 76.231900 92.643300 6.7088500
74 100.00000 100.00000 33.333000 77.973300 93.548100 16.152900
75 100.00000 100.00000 66.667000 83.829200 95.763900 47.799600
76 0.0000000 33.333000 0.0000000 1.8904100 6.1258100 0.6816930
77 0.0000000 33.333000 33.333000 3.5720800 6.8739000 9.6998700
78 33.333000 66.667000 66.667000 20.714000 32.359000 43.289600
79 0.0000000 66.667000 0.0000000 8.0641800 26.890600 2.5141300
80 0.0000000 66.667000 33.333000 9.7798600 27.820400 11.487200
81 33.333000 66.667000 33.333000 14.974600 30.079300 11.770000
82 66.667000 66.667000 33.333000 32.222800 37.683800 12.021700
83 0.0000000 100.00000 0.0000000 20.450000 68.123400 6.1774600
84 0.0000000 100.00000 33.333000 22.083700 68.871700 15.177500
85 33.333000 100.00000 33.333000 27.255400 71.129900 15.351500
86 66.667000 100.00000 33.333000 44.587800 78.763000 15.651400
87 66.667000 100.00000 66.667000 50.382500 81.010600 47.220900
88 66.667000 0.0000000 33.333000 23.767100 10.481800 9.6239300
89 66.667000 0.0000000 66.667000 29.465100 12.629300 41.151900
90 100.00000 0.0000000 66.667000 63.290200 27.624000 41.884000
91 100.00000 33.333000 66.667000 65.206100 33.840600 42.407900
92 66.667000 33.333000 33.333000 25.856900 16.740500 10.174700
93 66.667000 33.333000 66.667000 31.594400 18.936800 41.675500
94 0.0000000 0.0000000 33.333000 1.7365100 0.7150020 9.1846300
95 0.0000000 33.333000 66.667000 9.3189900 9.0953600 41.085700
96 33.333000 33.333000 66.667000 14.405600 11.333600 41.386300
97 0.0000000 66.667000 66.667000 15.569600 30.093800 42.683400
98 0.0000000 100.00000 66.667000 27.760100 71.055900 46.326300
99 33.333000 100.00000 66.667000 33.020200 73.376600 46.779600
100 33.333000 0.0000000 33.333000 6.7185700 2.9227000 9.4115400
101 33.333000 0.0000000 66.667000 12.456000 5.0831300 40.862300
102 33.333000 0.0000000 100.00000 23.682300 9.2275200 102.42800
103 0.0000000 0.0000000 66.667000 7.4369600 2.8634500 40.408600
104 0.0000000 0.0000000 100.00000 18.730700 7.0343400 102.28000
105 0.0000000 33.333000 100.00000 20.674000 13.393800 102.95800
106 33.333000 33.333000 100.00000 25.658500 15.631800 103.10700
107 66.667000 33.333000 100.00000 42.882200 23.235600 103.24300
108 100.00000 33.333000 100.00000 76.325900 38.048400 103.66900
109 0.0000000 66.667000 100.00000 27.027100 34.670400 104.71100
110 33.333000 66.667000 100.00000 32.119200 36.900100 104.85900
111 66.667000 66.667000 100.00000 49.301200 44.476600 105.14800
112 66.667000 100.00000 100.00000 61.638000 85.308300 108.63600
113 0.0000000 100.00000 100.00000 39.067900 75.389100 108.19900
114 33.333000 100.00000 100.00000 44.278700 77.614700 108.34600
115 100.00000 100.00000 100.00000 95.010700 100.03300 109.21400
END_DATA
