.local/share/DisplayCAL/storage/DisplayPort-1080p/DisplayPort-1080p.cal
CAL    

DESCRIPTOR "Argyll Device Calibration Curves"
ORIGINATOR "Argyll dispcal"
CREATED "Wed Nov  9 23:00:08 2022"
DEVICE_CLASS "DISPLAY"
COLOR_REP "RGB"
VIDEO_LUT_CALIBRATION_POSSIBLE "YES"
TV_OUTPUT_ENCODING "NO"
DEVICE_TYPE "n"
TARGET_WHITE_XYZ "114.020608 120.000000 130.503190"
TARGET_GAMMA "2.2"
DEGREE_OF_BLACK_OUTPUT_OFFSET "1.0"
BLACK_POINT_CORRECTION "0.0"
BLACK_NEUTRAL_BLEND_RATE "4.0"
BLACK_POINT_HACK "YES"
QUALITY "low"

BEGIN_ARGYLL_DISPCAL_ARGS
-v2 -d2 -c1 -yn -P0.510359116022,0.225328947368,1.24867724868 -X "PFS_Phosphor_Family_31Jan17.ccss" -ql -t6500 -b120.0 -g2.2 -f1.0 -k0 -A4.0 -b
END_ARGYLL_DISPCAL_ARGS


NUMBER_OF_FIELDS 4
BEGIN_DATA_FORMAT
RGB_I RGB_R RGB_G RGB_B
END_DATA_FORMAT

NUMBER_OF_SETS 256
BEGIN_DATA
0.00000000 0.00000000 0.00000000 0.00000000
0.00392157 0.00441069 0.00435368 0.00386774
0.00784314 0.00879052 0.00869259 0.00775218
0.01176470 0.01313980 0.01301680 0.01165340
0.01568630 0.01745890 0.01732640 0.01557150
0.01960780 0.02174810 0.02162150 0.01950670
0.02352940 0.02600770 0.02590200 0.02345900
0.02745100 0.03023800 0.03016820 0.02742850
0.03137250 0.03443900 0.03441980 0.03141540
0.03529410 0.03859880 0.03864480 0.03541910
0.03921570 0.04269350 0.04281920 0.03942860
0.04313730 0.04671070 0.04693210 0.04342900
0.04705880 0.05065390 0.05097970 0.04741130
0.05098040 0.05453290 0.05496430 0.05136790
0.05490200 0.05835760 0.05889230 0.05529980
0.05882350 0.06213540 0.06276540 0.05920930
0.06274510 0.06587890 0.06658980 0.06309560
0.06666670 0.06960460 0.07037590 0.06696460
0.07058820 0.07332990 0.07414000 0.07082480
0.07450980 0.07706650 0.07789830 0.07468690
0.07843140 0.08082550 0.08166520 0.07855730
0.08235290 0.08461950 0.08545050 0.08244730
0.08627450 0.08846690 0.08925990 0.08636500
0.09019610 0.09237090 0.09309300 0.09031260
0.09411760 0.09633400 0.09695060 0.09429080
0.09803920 0.10035500 0.10083600 0.09830150
0.10196100 0.10442200 0.10474600 0.10234700
0.10588200 0.10852000 0.10866900 0.10641800
0.10980400 0.11263600 0.11259800 0.11050300
0.11372500 0.11676500 0.11653400 0.11459900
0.11764700 0.12089700 0.12047400 0.11871000
0.12156900 0.12501900 0.12440900 0.12282800
0.12549000 0.12912000 0.12833600 0.12694400
0.12941200 0.13319100 0.13225200 0.13104900
0.13333300 0.13723200 0.13615600 0.13513900
0.13725500 0.14124400 0.14004700 0.13921000
0.14117600 0.14523300 0.14393000 0.14326200
0.14509800 0.14921100 0.14780800 0.14729900
0.14902000 0.15318600 0.15168700 0.15132200
0.15294100 0.15716700 0.15557200 0.15533900
0.15686300 0.16115700 0.15946000 0.15934700
0.16078400 0.16516900 0.16336000 0.16335300
0.16470600 0.16920100 0.16727400 0.16736200
0.16862700 0.17324400 0.17119700 0.17137000
0.17254900 0.17728900 0.17512400 0.17537600
0.17647100 0.18133900 0.17905100 0.17937700
0.18039200 0.18538400 0.18297400 0.18337100
0.18431400 0.18941800 0.18689400 0.18736600
0.18823500 0.19345200 0.19081200 0.19136400
0.19215700 0.19748000 0.19473200 0.19537300
0.19607800 0.20150000 0.19865100 0.19939100
0.20000000 0.20552100 0.20257200 0.20341500
0.20392200 0.20954500 0.20649200 0.20743700
0.20784300 0.21357200 0.21041600 0.21146200
0.21176500 0.21760000 0.21434100 0.21548900
0.21568600 0.22163600 0.21827900 0.21952000
0.21960800 0.22568100 0.22223200 0.22355400
0.22352900 0.22973200 0.22619900 0.22759200
0.22745100 0.23379500 0.23017700 0.23163300
0.23137300 0.23787000 0.23417500 0.23568200
0.23529400 0.24195200 0.23819200 0.23973800
0.23921600 0.24604400 0.24222600 0.24379600
0.24313700 0.25014300 0.24627400 0.24785600
0.24705900 0.25424800 0.25033600 0.25191600
0.25098000 0.25835500 0.25440400 0.25597300
0.25490200 0.26246300 0.25847500 0.26002900
0.25882400 0.26656800 0.26254700 0.26408000
0.26274500 0.27067100 0.26661800 0.26813100
0.26666700 0.27476300 0.27069000 0.27217900
0.27058800 0.27884700 0.27475700 0.27622000
0.27451000 0.28293100 0.27882200 0.28025600
0.27843100 0.28700800 0.28288300 0.28428200
0.28235300 0.29108300 0.28693600 0.28829600
0.28627500 0.29515400 0.29098400 0.29231400
0.29019600 0.29922600 0.29502200 0.29633700
0.29411800 0.30329900 0.29905800 0.30036800
0.29803900 0.30736100 0.30309000 0.30440400
0.30196100 0.31141500 0.30711700 0.30843800
0.30588200 0.31546300 0.31113500 0.31246600
0.30980400 0.31951400 0.31513800 0.31648400
0.31372500 0.32356700 0.31912600 0.32049200
0.31764700 0.32762000 0.32309600 0.32448800
0.32156900 0.33167200 0.32704300 0.32847000
0.32549000 0.33572400 0.33096800 0.33243700
0.32941200 0.33977500 0.33487400 0.33639200
0.33333300 0.34382600 0.33876800 0.34033500
0.33725500 0.34787600 0.34265000 0.34426600
0.34117600 0.35192700 0.34652200 0.34818900
0.34509800 0.35597900 0.35038500 0.35210600
0.34902000 0.36003100 0.35424300 0.35602300
0.35294100 0.36408500 0.35809700 0.35993700
0.35686300 0.36813300 0.36195600 0.36384900
0.36078400 0.37217100 0.36582000 0.36776100
0.36470600 0.37620500 0.36969200 0.37167700
0.36862700 0.38022400 0.37357900 0.37560100
0.37254900 0.38421800 0.37748000 0.37952500
0.37647100 0.38818700 0.38139000 0.38344500
0.38039200 0.39213900 0.38531200 0.38736300
0.38431400 0.39607400 0.38925700 0.39128700
0.38823500 0.39998700 0.39322300 0.39521200
0.39215700 0.40387800 0.39720100 0.39912900
0.39607800 0.40774700 0.40118700 0.40304200
0.40000000 0.41159000 0.40517500 0.40695300
0.40392200 0.41541100 0.40916200 0.41086300
0.40784300 0.41922500 0.41314300 0.41476700
0.41176500 0.42304600 0.41712700 0.41866900
0.41568600 0.42686700 0.42111900 0.42257300
0.41960800 0.43068800 0.42511400 0.42647500
0.42352900 0.43451600 0.42911000 0.43037200
0.42745100 0.43834800 0.43310900 0.43426600
0.43137300 0.44219200 0.43711100 0.43815600
0.43529400 0.44604600 0.44111500 0.44204600
0.43921600 0.44990600 0.44511700 0.44593200
0.44313700 0.45377100 0.44911400 0.44981500
0.44705900 0.45764400 0.45310200 0.45369400
0.45098000 0.46152500 0.45708200 0.45757000
0.45490200 0.46541200 0.46105200 0.46144200
0.45882400 0.46930400 0.46500400 0.46530700
0.46274500 0.47321200 0.46893800 0.46916000
0.46666700 0.47713200 0.47285800 0.47300400
0.47058800 0.48106800 0.47676600 0.47684000
0.47451000 0.48502400 0.48066900 0.48067300
0.47843100 0.48900300 0.48457200 0.48450700
0.48235300 0.49300700 0.48847600 0.48834700
0.48627500 0.49703500 0.49238200 0.49219600
0.49019600 0.50108600 0.49629000 0.49605100
0.49411800 0.50512800 0.50019700 0.49991500
0.49803900 0.50915300 0.50409800 0.50377500
0.50196100 0.51316100 0.50799100 0.50762700
0.50588200 0.51715300 0.51187800 0.51147000
0.50980400 0.52112500 0.51575700 0.51530400
0.51372500 0.52507300 0.51962500 0.51913000
0.51764700 0.52899600 0.52347700 0.52294300
0.52156900 0.53289100 0.52730900 0.52673600
0.52549000 0.53676300 0.53111800 0.53050600
0.52941200 0.54060200 0.53490400 0.53425400
0.53333300 0.54441300 0.53866200 0.53797700
0.53725500 0.54819200 0.54239900 0.54167300
0.54117600 0.55193500 0.54611900 0.54534800
0.54509800 0.55565200 0.54982600 0.54900600
0.54902000 0.55934300 0.55352700 0.55265500
0.55294100 0.56301000 0.55723100 0.55630300
0.55686300 0.56667000 0.56094200 0.55995600
0.56078400 0.57032400 0.56466800 0.56361900
0.56470600 0.57397300 0.56840700 0.56730100
0.56862700 0.57761700 0.57215900 0.57100000
0.57254900 0.58125400 0.57592300 0.57472200
0.57647100 0.58489000 0.57969800 0.57847600
0.58039200 0.58853700 0.58349000 0.58226200
0.58431400 0.59219000 0.58729800 0.58608300
0.58823500 0.59585000 0.59111700 0.58993500
0.59215700 0.59951900 0.59494800 0.59381300
0.59607800 0.60320300 0.59879400 0.59771400
0.60000000 0.60690500 0.60265500 0.60163800
0.60392200 0.61062100 0.60652800 0.60557700
0.60784300 0.61434700 0.61040700 0.60952900
0.61176500 0.61808500 0.61428900 0.61349000
0.61568600 0.62183900 0.61816900 0.61745400
0.61960800 0.62561600 0.62204800 0.62141900
0.62352900 0.62940700 0.62592600 0.62538300
0.62745100 0.63320300 0.62980000 0.62934100
0.63137300 0.63699300 0.63365800 0.63328600
0.63529400 0.64077600 0.63749700 0.63721300
0.63921600 0.64455700 0.64132200 0.64111800
0.64313700 0.64834700 0.64514900 0.64500900
0.64705900 0.65215400 0.64898300 0.64889000
0.65098000 0.65598300 0.65282600 0.65276500
0.65490200 0.65982800 0.65667000 0.65663800
0.65882400 0.66368500 0.66051400 0.66049800
0.66274500 0.66755400 0.66435600 0.66434700
0.66666700 0.67142200 0.66819700 0.66818400
0.67058800 0.67528200 0.67203200 0.67201500
0.67451000 0.67913400 0.67586400 0.67584400
0.67843100 0.68297000 0.67968200 0.67966900
0.68235300 0.68678600 0.68347800 0.68348300
0.68627500 0.69059400 0.68725700 0.68727700
0.69019600 0.69441100 0.69103100 0.69105500
0.69411800 0.69824600 0.69481200 0.69482900
0.69803900 0.70209400 0.69860100 0.69860700
0.70196100 0.70594200 0.70239300 0.70239000
0.70588200 0.70977800 0.70618400 0.70617000
0.70980400 0.71359500 0.70996800 0.70994200
0.71372500 0.71739800 0.71374700 0.71370400
0.71764700 0.72119400 0.71752600 0.71745700
0.72156900 0.72499000 0.72130800 0.72120300
0.72549000 0.72878300 0.72509000 0.72494500
0.72941200 0.73256700 0.72887500 0.72867900
0.73333300 0.73634200 0.73266400 0.73241100
0.73725500 0.74011500 0.73646200 0.73614300
0.74117600 0.74388800 0.74026700 0.73987900
0.74509800 0.74766400 0.74408400 0.74361600
0.74902000 0.75144400 0.74791200 0.74735700
0.75294100 0.75522400 0.75174300 0.75110000
0.75686300 0.75900300 0.75557800 0.75484300
0.76078400 0.76278400 0.75941600 0.75858700
0.76470600 0.76656200 0.76326100 0.76233200
0.76862700 0.77033900 0.76711000 0.76608000
0.77254900 0.77411600 0.77095900 0.76983300
0.77647100 0.77789500 0.77480500 0.77358800
0.78039200 0.78167300 0.77865100 0.77733900
0.78431400 0.78545000 0.78250100 0.78108900
0.78823500 0.78922800 0.78636500 0.78484200
0.79215700 0.79301500 0.79025200 0.78859900
0.79607800 0.79680700 0.79415600 0.79236600
0.80000000 0.80060100 0.79807500 0.79614200
0.80392200 0.80439600 0.80200000 0.79992300
0.80784300 0.80819200 0.80593200 0.80371200
0.81176500 0.81198400 0.80986300 0.80751300
0.81568600 0.81578200 0.81379900 0.81132200
0.81960800 0.81959900 0.81774500 0.81513800
0.82352900 0.82343800 0.82169400 0.81896400
0.82745100 0.82728800 0.82564100 0.82280100
0.83137300 0.83114900 0.82959100 0.82664300
0.83529400 0.83502500 0.83354000 0.83048600
0.83921600 0.83890600 0.83748500 0.83433300
0.84313700 0.84278700 0.84141700 0.83818200
0.84705900 0.84665900 0.84533800 0.84203000
0.85098000 0.85052700 0.84925700 0.84587100
0.85490200 0.85439700 0.85317400 0.84970500
0.85882400 0.85826600 0.85708800 0.85354100
0.86274500 0.86213700 0.86099600 0.85738000
0.86666700 0.86600800 0.86489300 0.86123300
0.87058800 0.86988400 0.86878800 0.86510500
0.87451000 0.87377500 0.87268100 0.86898900
0.87843100 0.87767600 0.87656800 0.87289300
0.88235300 0.88157700 0.88045500 0.87681800
0.88627500 0.88548600 0.88434400 0.88075400
0.89019600 0.88940400 0.88823000 0.88470800
0.89411800 0.89332600 0.89210800 0.88868200
0.89803900 0.89724800 0.89598100 0.89267700
0.90196100 0.90117600 0.89984900 0.89669100
0.90588200 0.90509800 0.90371000 0.90072600
0.90980400 0.90901200 0.90756300 0.90478000
0.91372500 0.91291600 0.91141400 0.90884400
0.91764700 0.91680800 0.91526400 0.91292300
0.92156900 0.92070200 0.91911600 0.91702200
0.92549000 0.92460000 0.92296100 0.92113900
0.92941200 0.92850300 0.92679700 0.92526800
0.93333300 0.93241000 0.93063100 0.92940200
0.93725500 0.93631900 0.93445900 0.93353900
0.94117600 0.94023000 0.93828600 0.93767600
0.94509800 0.94415300 0.94210900 0.94181300
0.94902000 0.94808400 0.94592600 0.94595100
0.95294100 0.95202100 0.94973600 0.95008600
0.95686300 0.95596700 0.95354300 0.95421600
0.96078400 0.95992100 0.95734400 0.95834700
0.96470600 0.96388000 0.96114200 0.96248100
0.96862700 0.96784600 0.96493600 0.96662200
0.97254900 0.97181400 0.96872300 0.97076800
0.97647100 0.97578300 0.97250500 0.97492000
0.98039200 0.97975400 0.97628100 0.97907700
0.98431400 0.98372500 0.98005000 0.98323900
0.98823500 0.98769900 0.98381400 0.98740700
0.99215700 0.99167300 0.98757100 0.99157900
0.99607800 0.99564900 0.99132300 0.99575700
1.00000000 0.99962600 0.99506800 0.99994000
END_DATA
CAL    

DESCRIPTOR "Argyll Calibration options and model"
ORIGINATOR "Argyll dispcal"
CREATED "Wed Nov  9 23:00:08 202"

NUMBER_OF_FIELDS 3
BEGIN_DATA_FORMAT
R_P G_P B_P
END_DATA_FORMAT

NUMBER_OF_SETS 32
BEGIN_DATA
-0.000227488 0.000697855 0.001645770
1.000230000 0.999302000 0.998354000
1.819350000 1.657350000 1.549130000
0.539102000 0.548911000 0.596032000
0.094562800 0.088434400 0.108591000
0.107812000 0.114616000 0.132398000
0.085850200 0.108776000 0.107912000
0.067455900 0.104007000 0.080306200
0.055236400 0.068686100 0.063757100
0.055700600 0.059972300 0.064786300
0.049950600 0.059165100 0.058012200
0.048532000 0.055814100 0.053913500
0.043410900 0.053947100 0.052125000
0.040063700 0.045405200 0.043568000
0.036782200 0.048499300 0.046197900
0.034135000 0.043300200 0.052547600
0.031994100 0.040151700 0.036802000
0.030736600 0.033934500 0.035763600
0.029382800 0.039793000 0.030957500
0.028134000 0.035610300 0.033936400
0.026122700 0.040488000 0.031628700
0.024656100 0.033312800 0.031807900
0.021508300 0.030575600 0.029673200
0.019975100 0.029618100 0.025592600
0.019952800 0.028044300 0.026087700
0.018631600 0.028961100 0.024969500
0.017252100 0.029796800 0.022048600
0.016673500 0.027352000 0.021847900
0.016003600 0.027270900 0.022244400
0.014872000 0.027542900 0.021823400
0.013261100 0.028470300 0.021286800
0.013762600 0.026917800 0.020148600
END_DATA
