.local/share/DisplayCAL/storage/DisplayPort-0 #1 2022-11-09 20-12 120cdm² D6500 sRGB F-S XYZLUT+MTX/DisplayPort-0 #1 2022-11-09 20-12 120cdm² D6500 sRGB F-S XYZLUT+MTX.ti3
CTI3   

DESCRIPTOR "Argyll Calibration Target chart information 3"
ORIGINATOR "Argyll dispread"
CREATED "Wed Nov  9 20:25:14 2022"
DEVICE_CLASS "DISPLAY"
SINGLE_DIM_STEPS "4"
COMP_GREY_STEPS "52"
MULTI_DIM_STEPS "4"
COLOR_REP "RGB_XYZ"
TARGET_INSTRUMENT "X-Rite i1 DisplayPro, ColorMunki Display"
DISPLAY_TYPE_REFRESH "YES"
DISPLAY_TYPE_BASE_ID "2"
INSTRUMENT_TYPE_SPECTRAL "NO"
LUMINANCE_XYZ_CDM2 "112.970229 118.760316 129.328801"
NORMALIZED_TO_Y_100 "YES"
VIDEO_LUT_CALIBRATION_POSSIBLE "YES"

BEGIN_ARGYLL_COLPROF_ARGS
-v -qh -aX -bn -C "No copyright. Created with DisplayCAL 3.8.9.3 and ArgyllCMS 2.3.1" -M "Monitor 1, Output DisplayPort-0"
END_ARGYLL_COLPROF_ARGS

OBSERVER "1931_2"
USE_BLACK_POINT_COMPENSATION "NO"
BLACK_POINT_CORRECTION "0.0"
HIRES_B2A "YES"
HIRES_B2A_SIZE "-1"
SMOOTH_B2A "YES"
PATCH_SEQUENCE "OPTIMIZE_DISPLAY_RESPONSE_DELAY"

NUMBER_OF_FIELDS 7
BEGIN_DATA_FORMAT
SAMPLE_ID RGB_R RGB_G RGB_B XYZ_X XYZ_Y XYZ_Z
END_DATA_FORMAT

NUMBER_OF_SETS 115
BEGIN_DATA
1 100.00000 100.00000 100.00000 95.124600 100.00000 108.89900
2 100.00000 66.667000 100.00000 83.461400 59.317400 105.22100
3 100.00000 100.00000 100.00000 95.162200 100.01400 108.89900
4 100.00000 100.00000 100.00000 95.124600 100.00000 108.89900
5 0.0000000 0.0000000 0.0000000 0.0863076 0.0930898 0.1464350
6 33.333000 0.0000000 0.0000000 5.1659800 2.3209900 0.1989610
7 66.667000 0.0000000 0.0000000 22.510900 9.9269200 0.3790140
8 100.00000 0.0000000 0.0000000 57.240900 25.157000 0.7549490
9 100.00000 0.0000000 33.333000 58.852200 25.767300 10.112700
10 100.00000 33.333000 33.333000 60.574200 31.869900 10.619700
11 100.00000 66.667000 33.333000 66.521400 52.572500 12.415000
12 100.00000 66.667000 66.667000 72.315500 54.899900 43.826000
13 66.667000 0.0000000 100.00000 40.946600 16.835300 102.56300
14 100.00000 0.0000000 100.00000 75.501100 31.998300 103.02200
15 1.9608000 1.9608000 1.9608000 0.1629840 0.1734960 0.2336880
16 3.9216000 3.9216000 3.9216000 0.3223040 0.3413230 0.4156200
17 5.8824000 5.8824000 5.8824000 0.5119340 0.5432770 0.6258780
18 7.8431000 7.8431000 7.8431000 0.7414520 0.7837040 0.8820740
19 9.8039000 9.8039000 9.8039000 1.0132900 1.0643300 1.1782500
20 11.765000 11.765000 11.765000 1.3181400 1.3938000 1.5437000
21 13.726000 13.726000 13.726000 1.6732300 1.7622700 1.9504300
22 15.686000 15.686000 15.686000 2.0742100 2.1932400 2.4323500
23 17.647000 17.647000 17.647000 2.5490400 2.6925400 2.9625600
24 19.608000 19.608000 19.608000 3.0674300 3.2335500 3.5669700
25 21.569000 21.569000 21.569000 3.6405500 3.8414100 4.2146500
26 23.529000 23.529000 23.529000 4.2875300 4.5144000 4.9501300
27 25.490000 25.490000 25.490000 5.0032900 5.2759600 5.7643900
28 27.451000 27.451000 27.451000 5.8053900 6.1179700 6.6931500
29 29.412000 29.412000 29.412000 6.6787800 7.0432700 7.6725100
30 31.373000 31.373000 31.373000 7.6144500 8.0208700 8.7452300
31 33.333000 33.333000 33.333000 8.6424000 9.1048600 9.8699800
32 35.294000 35.294000 35.294000 9.7235900 10.250800 11.108700
33 37.255000 37.255000 37.255000 10.886700 11.472600 12.419100
34 39.216000 39.216000 39.216000 12.042100 12.711300 13.802100
35 41.176000 41.176000 41.176000 13.378200 14.085100 15.298900
36 43.137000 43.137000 43.137000 14.757700 15.520600 16.863200
37 45.098000 45.098000 45.098000 16.191200 17.048300 18.476900
38 47.059000 47.059000 47.059000 17.678600 18.590600 20.166900
39 49.020000 49.020000 49.020000 19.301300 20.253700 21.933900
40 50.980000 50.980000 50.980000 21.006100 22.087300 23.855000
41 52.941000 52.941000 52.941000 22.772400 23.983000 25.929400
42 54.902000 54.902000 54.902000 24.675700 25.969400 28.156900
43 56.863000 56.863000 56.863000 26.638900 28.048100 30.461500
44 58.824000 58.824000 58.824000 28.776700 30.231500 32.919300
45 60.784000 60.784000 60.784000 30.843600 32.494400 35.301600
46 62.745000 62.745000 62.745000 33.109700 34.815400 37.913000
47 64.706000 64.706000 64.706000 35.275800 37.154700 40.448500
48 66.667000 66.667000 66.667000 37.818500 39.795000 43.214600
49 68.627000 68.627000 68.627000 40.452600 42.623100 46.287800
50 70.588000 70.588000 70.588000 43.139900 45.401400 49.284000
51 72.549000 72.549000 72.549000 45.781000 48.212600 52.280600
52 74.510000 74.510000 74.510000 48.582100 51.097900 55.430100
53 76.471000 76.471000 76.471000 51.426900 54.075100 58.580300
54 78.431000 78.431000 78.431000 54.394800 57.176600 62.037000
55 80.392000 80.392000 80.392000 57.543300 60.460600 65.647500
56 82.353000 82.353000 82.353000 60.728700 63.853500 69.335300
57 84.314000 84.314000 84.314000 64.127000 67.429700 73.329700
58 86.275000 86.275000 86.275000 67.554500 71.067100 77.324600
59 88.235000 88.235000 88.235000 71.208900 74.854100 81.472800
60 90.196000 90.196000 90.196000 74.855400 78.752700 85.774900
61 92.157000 92.157000 92.157000 78.699700 82.739500 90.230000
62 94.118000 94.118000 94.118000 82.519200 86.773000 94.609200
63 96.078000 96.078000 96.078000 86.616900 91.095400 99.219200
64 98.039000 98.039000 98.039000 90.747000 95.418700 103.98200
65 33.333000 33.333000 0.0000000 6.9638800 8.3691800 0.7131390
66 66.667000 33.333000 0.0000000 24.355300 15.984700 0.8932150
67 100.00000 33.333000 0.0000000 58.877000 31.116600 1.2660000
68 100.00000 66.667000 0.0000000 64.782400 51.680100 3.0288800
69 66.667000 66.667000 0.0000000 30.388800 36.621400 2.6587500
70 33.333000 66.667000 0.0000000 12.922100 28.977500 2.4789400
71 33.333000 100.00000 0.0000000 24.663200 69.951400 6.0184100
72 66.667000 100.00000 0.0000000 42.242400 77.762700 6.2085700
73 100.00000 100.00000 0.0000000 76.530600 92.731700 6.5739800
74 100.00000 100.00000 33.333000 78.265800 93.499200 15.929500
75 100.00000 100.00000 66.667000 83.945300 95.676200 47.428900
76 0.0000000 33.333000 0.0000000 1.8127100 6.1068100 0.6609900
77 0.0000000 33.333000 33.333000 3.4714100 6.8471700 9.6532900
78 33.333000 66.667000 66.667000 20.294300 32.119200 42.832500
79 0.0000000 66.667000 0.0000000 7.6880600 26.709100 2.4271000
80 0.0000000 66.667000 33.333000 9.3946700 27.596600 11.374400
81 33.333000 66.667000 33.333000 14.636600 29.852100 11.640700
82 66.667000 66.667000 33.333000 32.059100 37.498800 11.898800
83 0.0000000 100.00000 0.0000000 19.443500 67.838400 5.9786700
84 0.0000000 100.00000 33.333000 21.104600 68.556500 14.944600
85 33.333000 100.00000 33.333000 26.377700 70.778700 15.139600
86 66.667000 100.00000 33.333000 43.894300 78.484500 15.417600
87 66.667000 100.00000 66.667000 49.649600 80.703000 46.741500
88 66.667000 0.0000000 33.333000 24.133500 10.545200 9.5780700
89 66.667000 0.0000000 66.667000 29.793900 12.702500 40.865500
90 100.00000 0.0000000 66.667000 64.499200 27.917300 41.553400
91 100.00000 33.333000 66.667000 66.293300 34.091400 42.059800
92 66.667000 33.333000 33.333000 26.114000 16.748900 10.072800
93 66.667000 33.333000 66.667000 31.765500 18.955300 41.371800
94 0.0000000 0.0000000 33.333000 1.7162600 0.7143690 9.1362100
95 0.0000000 33.333000 66.667000 9.1272100 9.0498900 40.684000
96 33.333000 33.333000 66.667000 14.326000 11.325300 41.142700
97 0.0000000 66.667000 66.667000 15.049300 29.876700 42.374200
98 0.0000000 100.00000 66.667000 26.764900 70.866900 45.902300
99 33.333000 100.00000 66.667000 32.093700 73.090700 46.360000
100 33.333000 0.0000000 33.333000 6.8074500 2.9463700 9.3156700
101 33.333000 0.0000000 66.667000 12.451800 5.1015200 40.483300
102 33.333000 0.0000000 100.00000 23.674100 9.2624400 102.41100
103 0.0000000 0.0000000 66.667000 7.3592000 2.8666600 40.253900
104 0.0000000 0.0000000 100.00000 18.613000 7.0414000 102.25800
105 0.0000000 33.333000 100.00000 20.445600 13.394800 102.91800
106 33.333000 33.333000 100.00000 25.588000 15.621300 103.07100
107 66.667000 33.333000 100.00000 42.978800 23.249900 103.07100
108 100.00000 33.333000 100.00000 77.405700 38.339700 103.52900
109 0.0000000 66.667000 100.00000 26.446500 34.452400 104.61000
110 33.333000 66.667000 100.00000 31.626600 36.693100 104.76300
111 66.667000 66.667000 100.00000 49.090800 44.276500 105.06800
112 66.667000 100.00000 100.00000 60.922800 85.089900 108.51800
113 0.0000000 100.00000 100.00000 38.090100 75.194900 108.06000
114 33.333000 100.00000 100.00000 43.307800 77.449700 108.21300
115 100.00000 100.00000 100.00000 95.229000 100.09000 108.89900
END_DATA
CAL    

DESCRIPTOR "Argyll Device Calibration State"
ORIGINATOR "Argyll dispread"
CREATED "Wed Nov  9 20:25:14 2022"
DEVICE_CLASS "DISPLAY"
COLOR_REP "RGB"

BEGIN_ARGYLL_DISPCAL_ARGS
-v2 -ql -t6500 -b120.0 -gs -f1.0 -k0 -A4.0 -d1 -c1 -yr -P0.524904214559,0.785123966942,1.24867724868 -X "Samsung Q9 75_ (i1 Pro).ccss"
END_ARGYLL_DISPCAL_ARGS


NUMBER_OF_FIELDS 4
BEGIN_DATA_FORMAT
RGB_I RGB_R RGB_G RGB_B
END_DATA_FORMAT

NUMBER_OF_SETS 256
BEGIN_DATA
0.00000000 0.00000000 0.00000000 0.00000000
0.00392157 0.00972452 0.00972849 0.00907788
0.00784314 0.01846400 0.01846370 0.01728690
0.01176470 0.02636100 0.02635050 0.02474600
0.01568630 0.03353160 0.03350660 0.03155360
0.01960780 0.04006430 0.04002310 0.03778950
0.02352940 0.04603350 0.04597680 0.04352210
0.02745100 0.05152640 0.05145380 0.04883200
0.03137250 0.05662150 0.05653300 0.05379730
0.03529410 0.06138740 0.06128500 0.05848690
0.03921570 0.06588170 0.06577010 0.06294890
0.04313730 0.07015790 0.07004360 0.06723100
0.04705880 0.07426320 0.07415110 0.07137870
0.05098040 0.07823150 0.07812430 0.07542270
0.05490200 0.08209040 0.08198890 0.07938260
0.05882350 0.08585980 0.08576510 0.08327340
0.06274510 0.08955100 0.08946500 0.08711050
0.06666670 0.09318120 0.09310630 0.09089670
0.07058820 0.09675730 0.09669710 0.09464780
0.07450980 0.10028900 0.10024700 0.09836290
0.07843140 0.10378900 0.10376900 0.10205200
0.08235290 0.10725200 0.10725800 0.10571000
0.08627450 0.11068500 0.11071800 0.10933100
0.09019610 0.11410000 0.11416300 0.11292500
0.09411760 0.11749200 0.11758700 0.11649100
0.09803920 0.12085900 0.12098500 0.12002300
0.10196100 0.12421000 0.12436800 0.12352100
0.10588200 0.12756000 0.12774800 0.12700400
0.10980400 0.13090000 0.13111400 0.13046300
0.11372500 0.13422900 0.13446800 0.13390100
0.11764700 0.13754300 0.13780100 0.13731200
0.12156900 0.14085400 0.14112700 0.14069400
0.12549000 0.14417600 0.14446300 0.14407300
0.12941200 0.14750200 0.14779900 0.14744600
0.13333300 0.15082500 0.15113200 0.15080700
0.13725500 0.15415100 0.15446600 0.15416500
0.14117600 0.15747500 0.15779700 0.15751900
0.14509800 0.16078900 0.16112100 0.16086500
0.14902000 0.16411500 0.16445700 0.16421400
0.15294100 0.16745900 0.16781100 0.16757700
0.15686300 0.17081800 0.17117700 0.17094500
0.16078400 0.17418100 0.17454500 0.17430800
0.16470600 0.17754500 0.17791300 0.17766400
0.16862700 0.18091600 0.18128900 0.18102100
0.17254900 0.18429400 0.18467100 0.18437600
0.17647100 0.18766100 0.18804100 0.18771400
0.18039200 0.19102100 0.19140700 0.19104200
0.18431400 0.19438300 0.19477800 0.19436200
0.18823500 0.19776100 0.19816700 0.19768700
0.19215700 0.20115900 0.20157700 0.20102400
0.19607800 0.20457900 0.20500900 0.20437700
0.20000000 0.20800700 0.20844900 0.20773500
0.20392200 0.21144600 0.21190200 0.21110100
0.20784300 0.21489300 0.21536300 0.21447200
0.21176500 0.21836100 0.21884600 0.21785500
0.21568600 0.22185700 0.22235500 0.22125700
0.21960800 0.22537700 0.22588500 0.22467800
0.22352900 0.22889700 0.22941200 0.22810000
0.22745100 0.23242000 0.23294100 0.23152400
0.23137300 0.23596100 0.23648500 0.23496300
0.23529400 0.23951100 0.24003400 0.23841200
0.23921600 0.24307300 0.24358900 0.24186700
0.24313700 0.24666000 0.24716500 0.24533900
0.24705900 0.25027600 0.25076600 0.24883600
0.25098000 0.25392900 0.25439800 0.25236800
0.25490200 0.25758900 0.25803400 0.25591900
0.25882400 0.26125300 0.26167000 0.25948000
0.26274500 0.26491800 0.26530600 0.26305100
0.26666700 0.26858900 0.26894600 0.26663400
0.27058800 0.27225300 0.27257500 0.27022500
0.27451000 0.27592300 0.27620800 0.27381500
0.27843100 0.27960600 0.27985400 0.27741900
0.28235300 0.28331200 0.28352000 0.28104300
0.28627500 0.28704100 0.28720900 0.28469100
0.29019600 0.29077100 0.29089600 0.28836000
0.29411800 0.29446800 0.29455000 0.29200700
0.29803900 0.29814000 0.29817900 0.29562400
0.30196100 0.30179700 0.30179400 0.29922200
0.30588200 0.30545400 0.30541000 0.30281100
0.30980400 0.30911200 0.30902700 0.30639100
0.31372500 0.31275700 0.31263300 0.30996400
0.31764700 0.31639300 0.31623300 0.31352300
0.32156900 0.32001900 0.31982800 0.31708000
0.32549000 0.32363600 0.32341700 0.32063100
0.32941200 0.32724400 0.32699900 0.32417500
0.33333300 0.33085300 0.33058300 0.32771400
0.33725500 0.33447400 0.33418100 0.33126000
0.34117600 0.33812600 0.33781000 0.33482300
0.34509800 0.34178100 0.34144600 0.33841100
0.34902000 0.34543400 0.34508200 0.34200500
0.35294100 0.34908500 0.34871700 0.34560500
0.35686300 0.35273400 0.35235200 0.34920900
0.36078400 0.35638000 0.35598600 0.35281600
0.36470600 0.36002500 0.35961800 0.35642700
0.36862700 0.36368400 0.36326200 0.36004400
0.37254900 0.36734500 0.36691200 0.36367800
0.37647100 0.37099100 0.37054700 0.36731500
0.38039200 0.37463100 0.37417500 0.37094300
0.38431400 0.37828700 0.37781500 0.37457100
0.38823500 0.38195600 0.38146600 0.37821100
0.39215700 0.38563600 0.38512400 0.38186300
0.39607800 0.38934200 0.38880200 0.38552400
0.40000000 0.39308600 0.39251100 0.38920300
0.40392200 0.39687400 0.39625900 0.39291200
0.40784300 0.40070700 0.40004600 0.39665900
0.41176500 0.40455000 0.40385300 0.40044500
0.41568600 0.40835900 0.40762400 0.40423600
0.41960800 0.41212800 0.41135100 0.40798400
0.42352900 0.41586900 0.41504100 0.41168800
0.42745100 0.41959600 0.41870800 0.41535900
0.43137300 0.42332000 0.42236800 0.41900600
0.43529400 0.42703500 0.42601600 0.42263900
0.43921600 0.43075900 0.42965900 0.42624900
0.44313700 0.43449200 0.43331200 0.42984400
0.44705900 0.43822700 0.43697000 0.43343800
0.45098000 0.44197200 0.44063400 0.43702500
0.45490200 0.44573400 0.44431700 0.44061000
0.45882400 0.44949000 0.44801100 0.44420400
0.46274500 0.45322500 0.45169000 0.44780100
0.46666700 0.45694900 0.45535700 0.45138400
0.47058800 0.46067900 0.45903100 0.45496300
0.47451000 0.46441200 0.46272000 0.45855400
0.47843100 0.46813500 0.46641000 0.46216500
0.48235300 0.47186400 0.47010700 0.46579000
0.48627500 0.47559500 0.47382000 0.46943600
0.49019600 0.47933100 0.47754400 0.47311500
0.49411800 0.48307400 0.48128300 0.47682600
0.49803900 0.48682300 0.48503600 0.48057200
0.50196100 0.49058100 0.48880500 0.48435200
0.50588200 0.49434600 0.49259100 0.48816700
0.50980400 0.49812500 0.49639500 0.49201800
0.51372500 0.50195000 0.50023600 0.49590900
0.51764700 0.50580300 0.50413100 0.49985900
0.52156900 0.50966000 0.50803000 0.50385700
0.52549000 0.51351900 0.51193200 0.50785600
0.52941200 0.51738100 0.51583700 0.51185500
0.53333300 0.52124500 0.51974500 0.51585400
0.53725500 0.52511000 0.52365500 0.51985300
0.54117600 0.52897400 0.52756600 0.52385400
0.54509800 0.53283700 0.53147500 0.52785600
0.54902000 0.53669900 0.53538800 0.53185400
0.55294100 0.54055200 0.53929200 0.53585200
0.55686300 0.54441400 0.54319800 0.53983700
0.56078400 0.54828300 0.54711500 0.54382400
0.56470600 0.55213700 0.55102100 0.54781700
0.56862700 0.55598100 0.55491300 0.55179100
0.57254900 0.55983400 0.55880700 0.55575600
0.57647100 0.56370100 0.56271200 0.55972200
0.58039200 0.56759600 0.56663900 0.56369200
0.58431400 0.57152300 0.57059900 0.56768500
0.58823500 0.57545900 0.57458200 0.57170700
0.59215700 0.57936200 0.57853500 0.57572300
0.59607800 0.58323400 0.58245500 0.57969400
0.60000000 0.58709100 0.58635600 0.58362900
0.60392200 0.59094100 0.59025200 0.58754400
0.60784300 0.59477500 0.59413300 0.59143900
0.61176500 0.59859500 0.59799900 0.59531000
0.61568600 0.60241600 0.60185800 0.59915900
0.61960800 0.60624300 0.60572100 0.60299600
0.62352900 0.61007300 0.60958400 0.60683300
0.62745100 0.61390600 0.61344600 0.61067000
0.63137300 0.61774300 0.61731300 0.61450600
0.63529400 0.62156800 0.62116900 0.61834000
0.63921600 0.62538500 0.62501500 0.62216600
0.64313700 0.62921300 0.62886700 0.62599000
0.64705900 0.63305400 0.63272900 0.62982500
0.65098000 0.63690100 0.63659300 0.63366700
0.65490200 0.64076600 0.64046900 0.63750900
0.65882400 0.64465900 0.64437000 0.64136500
0.66274500 0.64860200 0.64831300 0.64523900
0.66666700 0.65261100 0.65231600 0.64914700
0.67058800 0.65669600 0.65639100 0.65310900
0.67451000 0.66086100 0.66054300 0.65713900
0.67843100 0.66510800 0.66477200 0.66124000
0.68235300 0.66941700 0.66906900 0.66541400
0.68627500 0.67366500 0.67331800 0.66962900
0.69019600 0.67783100 0.67748100 0.67377900
0.69411800 0.68191800 0.68156000 0.67785400
0.69803900 0.68592900 0.68555900 0.68185700
0.70196100 0.68988300 0.68949400 0.68580000
0.70588200 0.69379800 0.69338600 0.68970200
0.70980400 0.69769700 0.69725600 0.69358400
0.71372500 0.70158300 0.70111000 0.69746000
0.71764700 0.70547500 0.70496200 0.70133100
0.72156900 0.70936600 0.70881300 0.70520000
0.72549000 0.71325300 0.71265300 0.70906200
0.72941200 0.71715100 0.71649600 0.71291400
0.73333300 0.72106400 0.72035300 0.71677500
0.73725500 0.72499200 0.72422400 0.72065200
0.74117600 0.72893900 0.72811500 0.72454500
0.74509800 0.73288000 0.73200700 0.72845700
0.74902000 0.73681800 0.73589200 0.73236500
0.75294100 0.74076400 0.73978600 0.73627300
0.75686300 0.74471800 0.74368600 0.74019200
0.76078400 0.74868100 0.74759400 0.74412100
0.76470600 0.75266600 0.75152100 0.74806200
0.76862700 0.75665900 0.75546400 0.75203500
0.77254900 0.76065600 0.75941500 0.75602700
0.77647100 0.76465900 0.76337500 0.76003600
0.78039200 0.76867200 0.76734400 0.76406100
0.78431400 0.77268900 0.77133100 0.76810600
0.78823500 0.77669600 0.77531800 0.77216900
0.79215700 0.78070400 0.77930700 0.77624100
0.79607800 0.78472800 0.78331600 0.78033000
0.80000000 0.78877400 0.78734700 0.78444300
0.80392200 0.79286300 0.79141800 0.78858400
0.80784300 0.79700400 0.79554500 0.79277100
0.81176500 0.80119700 0.79973100 0.79702200
0.81568600 0.80537500 0.80393900 0.80133000
0.81960800 0.80950500 0.80810500 0.80561100
0.82352900 0.81359000 0.81222700 0.80984600
0.82745100 0.81764800 0.81631900 0.81404500
0.83137300 0.82169500 0.82039900 0.81823100
0.83529400 0.82574700 0.82449000 0.82242600
0.83921600 0.82979400 0.82858500 0.82663300
0.84313700 0.83384000 0.83268300 0.83084900
0.84705900 0.83789800 0.83679500 0.83507900
0.85098000 0.84196800 0.84092000 0.83932000
0.85490200 0.84604600 0.84505800 0.84356900
0.85882400 0.85014000 0.84920700 0.84782100
0.86274500 0.85426900 0.85338800 0.85209300
0.86666700 0.85843400 0.85760800 0.85640200
0.87058800 0.86258300 0.86183000 0.86071400
0.87451000 0.86669300 0.86601200 0.86497900
0.87843100 0.87078300 0.87016600 0.86921100
0.88235300 0.87486200 0.87430900 0.87343000
0.88627500 0.87894600 0.87844800 0.87764200
0.89019600 0.88304500 0.88259900 0.88185600
0.89411800 0.88716900 0.88676700 0.88607800
0.89803900 0.89131300 0.89095600 0.89031000
0.90196100 0.89544200 0.89513200 0.89452600
0.90588200 0.89956000 0.89929000 0.89873200
0.90980400 0.90368300 0.90344800 0.90293600
0.91372500 0.90782500 0.90762200 0.90714800
0.91764700 0.91198100 0.91180900 0.91136400
0.92156900 0.91612600 0.91598400 0.91555900
0.92549000 0.92027200 0.92015400 0.91974700
0.92941200 0.92443200 0.92433800 0.92393900
0.93333300 0.92858700 0.92852000 0.92812600
0.93725500 0.93274600 0.93270500 0.93231400
0.94117600 0.93691300 0.93689800 0.93650500
0.94509800 0.94108000 0.94109000 0.94069300
0.94902000 0.94525500 0.94529000 0.94488500
0.95294100 0.94943600 0.94949500 0.94907900
0.95686300 0.95362100 0.95370300 0.95327300
0.96078400 0.95781200 0.95791600 0.95747000
0.96470600 0.96200800 0.96213400 0.96166800
0.96862700 0.96621000 0.96635600 0.96586700
0.97254900 0.97041700 0.97058300 0.97006400
0.97647100 0.97462800 0.97481200 0.97425700
0.98039200 0.97884300 0.97904400 0.97844800
0.98431400 0.98306300 0.98327900 0.98263600
0.98823500 0.98728600 0.98751700 0.98682000
0.99215700 0.99151300 0.99175700 0.99100100
0.99607800 0.99574400 0.99600100 0.99518000
1.00000000 0.99998000 1.00000000 0.99935500
END_DATA
