.local/share/DisplayCAL/storage/DisplayPort-0 #1 2022-11-09 20-12 120cdm² D6500 sRGB F-S XYZLUT+MTX/Samsung Q9 75_ (i1 Pro).ccss
CCSS   

DESCRIPTOR "Samsung Q9 75"" (i1 Pro)"
ORIGINATOR "Argyll ccxxmake"
CREATED "Fri May 03 15:49:54 2019"
REFERENCE "GretagMacbeth i1 Pro"
REFERENCE_FILENAME "E:\Users\Id\Downloads\Samsung Q9 75inch.ti3"
REFERENCE_HASH "md5:58b52aa04fee69f7dd3cb8e2225911a9"
FIT_METHOD "ΔE*94"
MANUFACTURER_ID "SAM"
MANUFACTURER "Samsung Electric Company"
DISPLAY "SAMSUNG"
TECHNOLOGY "Unknown"
DISPLAY_TYPE_REFRESH "YES"
SPECTRAL_BANDS "109"
SPECTRAL_START_NM "370.000000"
SPECTRAL_END_NM "730.000000"
SPECTRAL_NORM "1.000000"

NUMBER_OF_FIELDS 110
BEGIN_DATA_FORMAT
SAMPLE_ID SPEC_370 SPEC_373 SPEC_377 SPEC_380 SPEC_383 SPEC_387 SPEC_390 SPEC_393 SPEC_397 SPEC_400 SPEC_403 SPEC_407 SPEC_410 SPEC_413 SPEC_417 SPEC_420 SPEC_423 SPEC_427 SPEC_430 SPEC_433 SPEC_437 SPEC_440 SPEC_443 SPEC_447 SPEC_450 SPEC_453 SPEC_457 SPEC_460 SPEC_463 SPEC_467 SPEC_470 SPEC_473 SPEC_477 SPEC_480 SPEC_483 SPEC_487 SPEC_490 SPEC_493 SPEC_497 SPEC_500 SPEC_503 SPEC_507 SPEC_510 SPEC_513 SPEC_517 SPEC_520 SPEC_523 SPEC_527 SPEC_530 SPEC_533 SPEC_537 SPEC_540 SPEC_543 SPEC_547 SPEC_550 SPEC_553 SPEC_557 SPEC_560 SPEC_563 SPEC_567 SPEC_570 SPEC_573 SPEC_577 SPEC_580 SPEC_583 SPEC_587 SPEC_590 SPEC_593 SPEC_597 SPEC_600 SPEC_603 SPEC_607 SPEC_610 SPEC_613 SPEC_617 SPEC_620 SPEC_623 SPEC_627 SPEC_630 SPEC_633 SPEC_637 SPEC_640 SPEC_643 SPEC_647 SPEC_650 SPEC_653 SPEC_657 SPEC_660 SPEC_663 SPEC_667 SPEC_670 SPEC_673 SPEC_677 SPEC_680 SPEC_683 SPEC_687 SPEC_690 SPEC_693 SPEC_697 SPEC_700 SPEC_703 SPEC_707 SPEC_710 SPEC_713 SPEC_717 SPEC_720 SPEC_723 SPEC_727 SPEC_730 
END_DATA_FORMAT

NUMBER_OF_SETS 4
BEGIN_DATA
1 0.483630 0.287269 0.215269 0.215624 0.238983 0.235413 0.213173 0.206094 0.208003 0.195267 0.198222 0.205941 0.243013 0.366024 0.611464 1.164668 2.420253 5.020255 10.27465 20.45815 37.61650 61.20335 85.65922 100.0000 95.92582 78.50387 60.57283 46.98424 35.54832 25.19509 17.05998 11.75572 8.496996 6.408013 5.101372 4.437166 4.317480 4.710386 5.616602 7.043345 9.207244 12.48631 16.96435 22.42682 28.94605 36.74173 45.43185 53.79002 60.56535 65.49827 68.34470 68.19345 64.52477 58.21115 50.61818 42.74589 35.19988 28.39739 22.50095 17.50996 13.44791 10.28273 7.909303 6.156957 4.946611 4.317781 4.349085 5.209096 7.080063 10.15670 14.53501 20.12540 26.81699 34.47189 42.85410 51.28518 58.65221 63.90885 66.62710 66.65737 64.05750 59.15684 52.67801 45.48855 38.37099 31.71571 25.74797 20.70423 16.67605 13.53005 11.05734 9.067013 7.493352 6.167531 5.162360 4.376108 3.696632 3.204631 2.783498 2.438462 2.221489 2.151760 1.915014 1.631743 1.528274 1.469752 1.430033 1.447356 1.488009 
2 0.200891 0.123463 0.0804484 0.0928871 0.117141 0.0860569 0.0578871 0.0673262 0.0582099 0.0478551 0.0473635 0.0467450 0.0496394 0.0553164 0.0615173 0.0614389 0.0675742 0.0654681 0.0651548 0.0808903 0.110489 0.155377 0.201962 0.224565 0.216747 0.196566 0.175371 0.166160 0.161919 0.137959 0.118231 0.107499 0.0985190 0.0895716 0.0831924 0.0746587 0.0665065 0.0693736 0.0712828 0.0686540 0.0725657 0.0809042 0.0854801 0.0877598 0.0866187 0.0902877 0.0929551 0.0944907 0.0969837 0.0983554 0.100288 0.0996277 0.0945943 0.0852247 0.0776574 0.0726784 0.0674296 0.0647627 0.0647300 0.0671281 0.0717587 0.0844214 0.115135 0.189497 0.365408 0.764828 1.566421 2.998923 5.298936 8.678040 13.25599 19.00817 25.80634 33.56134 42.02470 50.52022 57.92859 63.23097 65.96681 66.01377 63.43434 58.55682 52.12923 45.01590 37.94347 31.31695 25.36897 20.32782 16.29034 13.14519 10.69410 8.728015 7.171684 5.917424 4.941891 4.160174 3.552236 3.055886 2.655969 2.323241 2.085258 2.018365 1.802859 1.521027 1.362673 1.269727 1.214058 1.167602 1.148060 
3 0.237733 0.150973 0.112216 0.121973 0.131652 0.101623 0.0945946 0.0806217 0.0695892 0.0657076 0.0564367 0.0650859 0.0757634 0.0812991 0.0839820 0.0832963 0.0898673 0.0964011 0.101386 0.113806 0.137434 0.201677 0.337587 0.526446 0.697410 0.757308 0.681209 0.531016 0.366387 0.239631 0.186434 0.223502 0.378663 0.669588 1.068262 1.513827 1.998394 2.601297 3.458394 4.668046 6.442093 9.147691 12.95098 17.75981 23.72395 31.10706 39.60820 48.13090 55.45047 61.13812 64.85592 65.57173 62.64888 56.90234 49.70893 42.09448 34.74134 28.06320 22.23573 17.29662 13.26307 10.10562 7.712734 5.908054 4.548892 3.528937 2.757955 2.179885 1.753712 1.446648 1.212692 1.030098 0.882355 0.752734 0.645121 0.562944 0.503409 0.438548 0.386837 0.348653 0.295085 0.246549 0.218498 0.198035 0.190464 0.175427 0.146632 0.137909 0.152019 0.163990 0.166907 0.159061 0.216116 0.214363 0.193100 0.184872 0.163090 0.158475 0.162988 0.163530 0.211750 0.359564 0.317661 0.200700 0.190426 0.212484 0.258978 0.323779 0.397758 
4 0.444878 0.226388 0.165600 0.184426 0.208599 0.196962 0.171581 0.157056 0.153383 0.150917 0.154551 0.168258 0.215689 0.315419 0.539384 1.081971 2.305361 4.848951 9.966195 19.87205 36.56809 59.49237 83.18300 96.93430 92.75699 75.69388 58.27913 45.19303 34.21819 24.26694 16.38932 11.18452 7.858980 5.537220 3.888133 2.807699 2.226875 2.015739 2.046506 2.251381 2.622352 3.164212 3.809677 4.394039 4.875235 5.214418 5.332993 5.115925 4.573764 3.808844 2.941036 2.085626 1.362921 0.820358 0.458996 0.250169 0.145190 0.0963955 0.0757972 0.0622861 0.0517333 0.0581336 0.0630094 0.0699312 0.0713191 0.0765397 0.0776828 0.0683016 0.0730419 0.0696616 0.0674305 0.0728885 0.0751061 0.0718804 0.0786301 0.0831176 0.0856652 0.0881742 0.106938 0.112390 0.113689 0.119194 0.137188 0.159158 0.163563 0.181846 0.218705 0.265733 0.305882 0.328850 0.299254 0.249013 0.269606 0.252298 0.218870 0.184929 0.160145 0.139001 0.138604 0.135665 0.167471 0.321911 0.276224 0.176231 0.193747 0.172262 0.192949 0.230270 0.306944 
END_DATA
