.local/share/DisplayCAL/storage/MAG274QRF-QD1440pV2/MAG274QRF-QD1440pV2.cal
CAL    

DESCRIPTOR "Argyll Device Calibration Curves"
ORIGINATOR "Argyll dispcal"
CREATED "Thu Nov 10 00:36:30 2022"
DEVICE_CLASS "DISPLAY"
COLOR_REP "RGB"
VIDEO_LUT_CALIBRATION_POSSIBLE "YES"
TV_OUTPUT_ENCODING "NO"
DEVICE_TYPE "n"
TARGET_WHITE_XYZ "113.847384 119.817692 130.304925"
TARGET_GAMMA "sRGB"
DEGREE_OF_BLACK_OUTPUT_OFFSET "1.0"
BLACK_POINT_CORRECTION "0.0"
BLACK_NEUTRAL_BLEND_RATE "4.0"
BLACK_POINT_HACK "YES"
QUALITY "low"

BEGIN_ARGYLL_DISPCAL_ARGS
-v2 -d1 -c1 -yn -P0.539272030651,0.177685950413,1.24867724868 -X "PFS_Phosphor_Family_31Jan17.ccss" -ql -t6500 -b120.0 -gs -f1.0 -k0 -A4.0 -b
END_ARGYLL_DISPCAL_ARGS


NUMBER_OF_FIELDS 4
BEGIN_DATA_FORMAT
RGB_I RGB_R RGB_G RGB_B
END_DATA_FORMAT

NUMBER_OF_SETS 256
BEGIN_DATA
0.00000000 0.00000000 0.00000000 0.00000000
0.00392157 0.01021870 0.00997275 0.00927673
0.00784314 0.01930700 0.01889440 0.01764340
0.01176470 0.02744260 0.02692270 0.02522780
0.01568630 0.03476810 0.03418570 0.03213460
0.01960780 0.04140950 0.04079090 0.03845380
0.02352940 0.04746820 0.04681610 0.04424850
0.02745100 0.05300850 0.05231830 0.04956800
0.03137250 0.05810590 0.05737080 0.05447330
0.03529410 0.06284330 0.06205730 0.05904620
0.03921570 0.06729010 0.06645060 0.06335760
0.04313730 0.07149380 0.07059990 0.06746250
0.04705880 0.07549480 0.07454610 0.07139180
0.05098040 0.07932990 0.07833020 0.07518040
0.05490200 0.08303470 0.08199390 0.07886420
0.05882350 0.08664550 0.08557280 0.08247550
0.06274510 0.09017910 0.08908750 0.08604650
0.06666670 0.09366800 0.09256670 0.08959010
0.07058820 0.09712200 0.09602340 0.09313390
0.07450980 0.10056600 0.09947670 0.09668610
0.07843140 0.10401000 0.10294200 0.10026700
0.08235290 0.10745700 0.10641900 0.10388100
0.08627450 0.11092100 0.10991900 0.10752500
0.09019610 0.11440600 0.11344700 0.11120400
0.09411760 0.11790700 0.11699500 0.11491000
0.09803920 0.12142200 0.12055900 0.11863500
0.10196100 0.12496700 0.12414400 0.12236500
0.10588200 0.12853600 0.12775000 0.12610500
0.10980400 0.13212300 0.13136400 0.12984100
0.11372500 0.13572300 0.13498300 0.13356600
0.11764700 0.13933300 0.13859900 0.13726900
0.12156900 0.14296300 0.14222600 0.14094800
0.12549000 0.14660600 0.14585800 0.14461800
0.12941200 0.15024500 0.14948000 0.14826800
0.13333300 0.15388000 0.15309300 0.15189400
0.13725500 0.15750500 0.15669400 0.15550500
0.14117600 0.16110300 0.16026100 0.15908500
0.14509800 0.16469300 0.16380800 0.16263400
0.14902000 0.16828200 0.16734900 0.16616800
0.15294100 0.17186300 0.17088100 0.16969800
0.15686300 0.17542100 0.17438400 0.17320700
0.16078400 0.17895900 0.17786400 0.17669400
0.16470600 0.18248900 0.18133300 0.18017300
0.16862700 0.18600800 0.18479100 0.18364700
0.17254900 0.18949900 0.18822000 0.18710400
0.17647100 0.19297000 0.19162900 0.19054500
0.18039200 0.19643100 0.19502000 0.19397400
0.18431400 0.19989900 0.19841300 0.19739400
0.18823500 0.20338300 0.20181700 0.20082300
0.19215700 0.20686200 0.20522000 0.20425300
0.19607800 0.21033100 0.20860900 0.20766600
0.20000000 0.21378500 0.21198200 0.21106000
0.20392200 0.21723100 0.21534200 0.21443200
0.20784300 0.22067700 0.21870200 0.21779600
0.21176500 0.22412200 0.22206100 0.22115200
0.21568600 0.22754900 0.22541100 0.22449800
0.21960800 0.23093900 0.22873200 0.22781500
0.22352900 0.23431100 0.23202900 0.23109800
0.22745100 0.23767100 0.23532100 0.23437200
0.23137300 0.24101000 0.23860200 0.23763700
0.23529400 0.24432700 0.24186500 0.24088400
0.23921600 0.24763900 0.24512200 0.24411600
0.24313700 0.25095700 0.24838300 0.24734500
0.24705900 0.25429600 0.25166600 0.25058200
0.25098000 0.25763600 0.25496300 0.25383900
0.25490200 0.26097500 0.25826600 0.25710600
0.25882400 0.26431400 0.26157600 0.26038200
0.26274500 0.26766000 0.26489600 0.26366800
0.26666700 0.27100300 0.26822700 0.26697200
0.27058800 0.27435400 0.27156200 0.27028700
0.27451000 0.27773300 0.27492300 0.27361800
0.27843100 0.28114400 0.27831900 0.27698300
0.28235300 0.28459300 0.28175700 0.28039100
0.28627500 0.28807700 0.28523900 0.28384700
0.29019600 0.29156700 0.28874700 0.28734500
0.29411800 0.29505400 0.29225600 0.29085000
0.29803900 0.29855000 0.29577200 0.29436300
0.30196100 0.30207900 0.29931600 0.29790000
0.30588200 0.30564800 0.30290800 0.30148500
0.30980400 0.30925700 0.30654700 0.30512100
0.31372500 0.31288400 0.31022000 0.30880400
0.31764700 0.31653300 0.31391300 0.31251100
0.32156900 0.32020300 0.31763500 0.31625200
0.32549000 0.32388900 0.32137700 0.32001800
0.32941200 0.32760100 0.32514300 0.32380500
0.33333300 0.33134500 0.32894200 0.32762100
0.33725500 0.33513500 0.33278100 0.33147100
0.34117600 0.33894900 0.33665700 0.33536100
0.34509800 0.34275700 0.34052300 0.33924600
0.34902000 0.34655900 0.34437700 0.34311500
0.35294100 0.35035500 0.34821800 0.34696900
0.35686300 0.35414700 0.35204900 0.35080800
0.36078400 0.35792500 0.35586200 0.35463800
0.36470600 0.36170100 0.35966400 0.35845000
0.36862700 0.36548100 0.36346800 0.36226400
0.37254900 0.36924900 0.36726400 0.36607700
0.37647100 0.37299600 0.37103900 0.36987500
0.38039200 0.37673200 0.37480100 0.37367000
0.38431400 0.38046500 0.37855400 0.37746100
0.38823500 0.38419500 0.38229700 0.38124400
0.39215700 0.38794300 0.38604800 0.38502000
0.39607800 0.39173000 0.38983500 0.38882400
0.40000000 0.39556600 0.39366600 0.39267200
0.40392200 0.39945200 0.39754100 0.39656200
0.40784300 0.40337300 0.40144900 0.40049200
0.41176500 0.40726700 0.40533200 0.40440800
0.41568600 0.41111800 0.40916700 0.40827000
0.41960800 0.41493100 0.41295300 0.41207500
0.42352900 0.41872800 0.41671500 0.41584300
0.42745100 0.42253500 0.42048500 0.41960700
0.43137300 0.42634700 0.42425800 0.42336900
0.43529400 0.43017100 0.42803700 0.42711800
0.43921600 0.43400300 0.43182500 0.43086500
0.44313700 0.43784100 0.43561800 0.43460700
0.44705900 0.44169800 0.43942900 0.43835500
0.45098000 0.44558100 0.44326700 0.44212500
0.45490200 0.44945900 0.44710900 0.44590900
0.45882400 0.45331900 0.45093800 0.44968300
0.46274500 0.45718300 0.45477000 0.45345500
0.46666700 0.46107700 0.45863400 0.45725500
0.47058800 0.46499100 0.46252300 0.46109200
0.47451000 0.46890500 0.46641000 0.46494200
0.47843100 0.47282500 0.47029900 0.46879800
0.48235300 0.47674400 0.47417800 0.47265500
0.48627500 0.48066900 0.47805200 0.47650700
0.49019600 0.48460000 0.48191900 0.48035800
0.49411800 0.48853800 0.48577900 0.48420400
0.49803900 0.49248300 0.48963200 0.48804700
0.50196100 0.49643600 0.49347700 0.49188600
0.50588200 0.50041100 0.49732100 0.49572200
0.50980400 0.50443300 0.50119700 0.49957300
0.51372500 0.50844900 0.50508200 0.50345000
0.51764700 0.51245200 0.50895000 0.50731600
0.52156900 0.51644100 0.51280100 0.51116900
0.52549000 0.52041600 0.51663600 0.51500700
0.52941200 0.52437800 0.52045500 0.51883100
0.53333300 0.52832400 0.52426000 0.52264200
0.53725500 0.53224800 0.52804700 0.52644200
0.54117600 0.53615700 0.53182200 0.53022600
0.54509800 0.54004200 0.53558300 0.53400600
0.54902000 0.54393200 0.53933700 0.53776800
0.55294100 0.54782900 0.54311000 0.54154100
0.55686300 0.55170600 0.54689300 0.54533500
0.56078400 0.55556100 0.55066700 0.54913000
0.56470600 0.55941000 0.55443700 0.55292800
0.56862700 0.56325900 0.55821500 0.55673900
0.57254900 0.56712000 0.56200500 0.56056300
0.57647100 0.57099900 0.56582100 0.56441100
0.58039200 0.57488400 0.56966500 0.56829500
0.58431400 0.57873700 0.57350900 0.57220300
0.58823500 0.58256400 0.57732900 0.57609700
0.59215700 0.58638700 0.58113100 0.57997600
0.59607800 0.59022800 0.58494700 0.58386200
0.60000000 0.59407300 0.58878700 0.58778200
0.60392200 0.59791600 0.59263300 0.59171500
0.60784300 0.60176700 0.59648400 0.59565300
0.61176500 0.60562600 0.60035700 0.59960500
0.61568600 0.60948700 0.60424200 0.60356500
0.61960800 0.61335500 0.60813600 0.60752300
0.62352900 0.61723600 0.61204400 0.61148200
0.62745100 0.62110400 0.61596700 0.61545500
0.63137300 0.62495000 0.61987800 0.61941600
0.63529400 0.62878300 0.62377100 0.62336100
0.63921600 0.63260600 0.62765400 0.62728800
0.64313700 0.63641700 0.63152200 0.63119300
0.64705900 0.64023900 0.63537500 0.63506600
0.65098000 0.64409400 0.63924600 0.63893400
0.65490200 0.64799800 0.64315100 0.64281600
0.65882400 0.65197200 0.64711400 0.64673700
0.66274500 0.65602400 0.65115700 0.65072400
0.66666700 0.66015700 0.65528100 0.65478700
0.67058800 0.66437400 0.65948800 0.65892300
0.67451000 0.66866700 0.66377900 0.66313400
0.67843100 0.67291300 0.66810700 0.66739900
0.68235300 0.67706800 0.67234900 0.67159700
0.68627500 0.68113300 0.67649900 0.67570500
0.69019600 0.68511200 0.68055800 0.67972400
0.69411800 0.68901200 0.68452700 0.68365300
0.69803900 0.69285400 0.68842100 0.68750700
0.70196100 0.69666500 0.69226700 0.69131200
0.70588200 0.70046000 0.69609600 0.69510400
0.70980400 0.70426400 0.69992200 0.69889600
0.71372500 0.70808400 0.70376700 0.70270700
0.71764700 0.71191000 0.70762100 0.70653200
0.72156900 0.71574400 0.71147500 0.71035700
0.72549000 0.71958900 0.71533600 0.71418400
0.72941200 0.72344000 0.71920200 0.71801800
0.73333300 0.72730600 0.72307600 0.72186200
0.73725500 0.73117600 0.72696400 0.72572600
0.74117600 0.73503100 0.73084000 0.72959600
0.74509800 0.73887800 0.73470700 0.73345800
0.74902000 0.74271100 0.73856300 0.73731600
0.75294100 0.74652900 0.74240500 0.74115900
0.75686300 0.75033800 0.74623400 0.74498500
0.76078400 0.75416500 0.75007600 0.74881200
0.76470600 0.75800300 0.75393600 0.75265900
0.76862700 0.76185100 0.75781200 0.75652800
0.77254900 0.76571300 0.76170500 0.76041900
0.77647100 0.76960300 0.76562700 0.76433400
0.78039200 0.77350900 0.76958000 0.76829500
0.78431400 0.77740900 0.77353400 0.77227800
0.78823500 0.78131600 0.77749000 0.77627100
0.79215700 0.78524100 0.78146100 0.78027700
0.79607800 0.78919200 0.78545600 0.78430000
0.80000000 0.79319200 0.78950000 0.78836300
0.80392200 0.79724700 0.79360200 0.79249000
0.80784300 0.80135700 0.79776200 0.79668300
0.81176500 0.80545200 0.80191600 0.80090500
0.81568600 0.80950300 0.80602700 0.80508300
0.81960800 0.81350900 0.81009000 0.80921500
0.82352900 0.81748300 0.81412000 0.81330800
0.82745100 0.82144600 0.81814000 0.81738900
0.83137300 0.82542700 0.82217800 0.82149000
0.83529400 0.82941500 0.82621600 0.82559800
0.83921600 0.83340400 0.83025100 0.82970200
0.84313700 0.83740100 0.83429000 0.83381100
0.84705900 0.84139900 0.83832600 0.83792100
0.85098000 0.84539500 0.84235500 0.84202900
0.85490200 0.84939700 0.84639100 0.84613400
0.85882400 0.85343100 0.85046500 0.85027500
0.86274500 0.85750300 0.85457900 0.85446300
0.86666700 0.86158200 0.85869700 0.85866600
0.87058800 0.86564200 0.86279500 0.86285200
0.87451000 0.86968300 0.86687400 0.86701600
0.87843100 0.87371500 0.87094300 0.87116800
0.88235300 0.87774500 0.87500600 0.87530800
0.88627500 0.88178200 0.87906600 0.87943000
0.89019600 0.88583300 0.88313400 0.88354900
0.89411800 0.88990800 0.88721600 0.88767100
0.89803900 0.89397100 0.89127600 0.89176600
0.90196100 0.89801100 0.89530800 0.89582900
0.90588200 0.90204000 0.89932500 0.89987900
0.90980400 0.90608900 0.90335400 0.90393700
0.91372500 0.91015800 0.90739300 0.90800300
0.91764700 0.91421800 0.91141600 0.91205300
0.92156900 0.91826100 0.91542200 0.91609000
0.92549000 0.92232200 0.91944900 0.92014500
0.92941200 0.92639600 0.92348100 0.92420200
0.93333300 0.93046100 0.92750200 0.92824700
0.93725500 0.93453500 0.93153200 0.93229800
0.94117600 0.93860700 0.93556000 0.93634200
0.94509800 0.94268600 0.93959700 0.94039000
0.94902000 0.94676500 0.94363300 0.94443200
0.95294100 0.95084700 0.94767100 0.94847100
0.95686300 0.95492900 0.95171300 0.95250700
0.96078400 0.95901400 0.95575600 0.95653900
0.96470600 0.96310100 0.95979900 0.96056800
0.96862700 0.96718800 0.96384200 0.96459000
0.97254900 0.97127700 0.96788400 0.96861200
0.97647100 0.97537000 0.97192800 0.97263400
0.98039200 0.97946600 0.97597100 0.97665600
0.98431400 0.98356600 0.98001600 0.98067900
0.98823500 0.98767000 0.98406100 0.98470300
0.99215700 0.99177600 0.98810600 0.98872700
0.99607800 0.99588700 0.99215300 0.99275100
1.00000000 1.00000000 0.99620000 0.99677600
END_DATA
CAL    

DESCRIPTOR "Argyll Calibration options and model"
ORIGINATOR "Argyll dispcal"
CREATED "Thu Nov 10 00:36:30 202"

NUMBER_OF_FIELDS 3
BEGIN_DATA_FORMAT
R_P G_P B_P
END_DATA_FORMAT

NUMBER_OF_SETS 32
BEGIN_DATA
0.000319004 0.000529262 0.001016020
0.999681000 0.999471000 0.998984000
1.666710000 1.593240000 1.471940000
0.539867000 0.542870000 0.553318000
0.052032500 0.067103400 0.110459000
0.089286400 0.102575000 0.135876000
0.106551000 0.109872000 0.124801000
0.135382000 0.156468000 0.099061200
0.104484000 0.097301400 0.085052900
0.087872300 0.072419200 0.084733000
0.069969200 0.058380700 0.071809700
0.070379500 0.061192100 0.064118000
0.069374800 0.070802400 0.061100400
0.060430300 0.057665600 0.058386700
0.052252800 0.043519800 0.059039700
0.051473100 0.061253100 0.065526300
0.050902900 0.048025600 0.048660600
0.051290000 0.050327300 0.046660500
0.050173900 0.042573800 0.040447100
0.046894100 0.046777400 0.046131000
0.043840200 0.042690200 0.043021100
0.037699900 0.037132900 0.039655100
0.033203400 0.038763900 0.034538000
0.034693800 0.040084200 0.030255800
0.037164400 0.039695500 0.036356100
0.036748000 0.038563600 0.036669900
0.034160800 0.034924800 0.032214600
0.032234200 0.032472300 0.032910000
0.033078700 0.033297800 0.033147700
0.032495600 0.035551000 0.030476600
0.031548200 0.038236600 0.026580500
0.030492500 0.038424500 0.023755200
END_DATA
