.local/share/DisplayCAL/storage/MAG274QRF-QD1440pV2/MAG274QRF-QD1440pV2.ti3
CTI3   

DESCRIPTOR "Argyll Calibration Target chart information 3"
ORIGINATOR "Argyll dispread"
CREATED "Thu Nov 10 00:36:30 2022"
DEVICE_CLASS "DISPLAY"
SINGLE_DIM_STEPS "5"
COMP_GREY_STEPS "52"
MULTI_DIM_STEPS "5"
COLOR_REP "RGB_XYZ"
TARGET_INSTRUMENT "X-Rite i1 DisplayPro, ColorMunki Display"
DISPLAY_TYPE_REFRESH "NO"
DISPLAY_TYPE_BASE_ID "1"
INSTRUMENT_TYPE_SPECTRAL "NO"
LUMINANCE_XYZ_CDM2 "113.737631 119.671063 130.399152"
NORMALIZED_TO_Y_100 "YES"
VIDEO_LUT_CALIBRATION_POSSIBLE "YES"

BEGIN_ARGYLL_COLPROF_ARGS
-v -qh -aX -bn -C "No copyright. Created with DisplayCAL 3.8.9.3 and ArgyllCMS 2.3.1" -M "MAG274QRF-QD" -A "Microstep"
END_ARGYLL_COLPROF_ARGS

OBSERVER "1931_2"
USE_BLACK_POINT_COMPENSATION "NO"
BLACK_POINT_CORRECTION "0.0"
HIRES_B2A "YES"
HIRES_B2A_SIZE "-1"
SMOOTH_B2A "YES"
PATCH_SEQUENCE "OPTIMIZE_DISPLAY_RESPONSE_DELAY"

NUMBER_OF_FIELDS 7
BEGIN_DATA_FORMAT
SAMPLE_ID RGB_R RGB_G RGB_B XYZ_X XYZ_Y XYZ_Z
END_DATA_FORMAT

NUMBER_OF_SETS 175
BEGIN_DATA
1 100.00000 100.00000 100.00000 95.041900 100.00000 108.96500
2 100.00000 100.00000 75.000000 86.094800 96.568500 59.815200
3 100.00000 100.00000 100.00000 95.041900 100.00000 108.96500
4 100.00000 100.00000 100.00000 95.041900 100.00000 108.96500
5 0.0000000 0.0000000 0.0000000 0.0830736 0.0881321 0.1503720
6 25.000000 0.0000000 0.0000000 2.9058200 1.3424100 0.1770890
7 50.000000 0.0000000 0.0000000 12.014400 5.3898100 0.2637040
8 75.000000 0.0000000 0.0000000 28.956200 12.916000 0.4247890
9 100.00000 0.0000000 0.0000000 56.357500 25.093700 0.6972490
10 100.00000 0.0000000 25.000000 57.276600 25.439800 5.9968600
11 100.00000 25.000000 25.000000 58.274600 28.841700 6.2548600
12 100.00000 50.000000 25.000000 61.565000 39.931200 7.2585300
13 100.00000 75.000000 25.000000 67.660100 60.394300 9.1032800
14 0.0000000 0.0000000 25.000000 0.9983930 0.4350600 5.1764800
15 25.000000 0.0000000 25.000000 3.8298500 1.6923000 5.2795000
16 75.000000 0.0000000 100.00000 47.509200 19.877200 102.31600
17 100.00000 0.0000000 100.00000 74.733900 31.962900 102.74800
18 1.9608000 1.9608000 1.9608000 0.1635590 0.1720440 0.2408850
19 3.9216000 3.9216000 3.9216000 0.3264480 0.3448760 0.4197340
20 5.8824000 5.8824000 5.8824000 0.5101320 0.5352260 0.6198090
21 7.8431000 7.8431000 7.8431000 0.7221130 0.7641360 0.8468010
22 9.8039000 9.8039000 9.8039000 0.9969070 1.0471800 1.1514200
23 11.765000 11.765000 11.765000 1.3210000 1.3970400 1.5050400
24 13.726000 13.726000 13.726000 1.7083500 1.8044600 1.9693500
25 15.686000 15.686000 15.686000 2.1457300 2.2694100 2.4567800
26 17.647000 17.647000 17.647000 2.6384900 2.7849200 3.0172000
27 19.608000 19.608000 19.608000 3.1681200 3.3318700 3.6486200
28 21.569000 21.569000 21.569000 3.7421500 3.9331000 4.2877700
29 23.529000 23.529000 23.529000 4.3708700 4.5826300 4.9968400
30 27.451000 27.451000 27.451000 5.7624100 6.0555900 6.5966600
31 29.412000 29.412000 29.412000 6.5827300 6.9108800 7.5316300
32 31.373000 31.373000 31.373000 7.4690200 7.8518900 8.5226600
33 33.333000 33.333000 33.333000 8.4759200 8.9128200 9.7243800
34 35.294000 35.294000 35.294000 9.6263700 10.130800 11.015500
35 37.255000 37.255000 37.255000 10.795600 11.369800 12.405900
36 39.216000 39.216000 39.216000 12.010200 12.678200 13.822500
37 41.176000 41.176000 41.176000 13.325300 14.098200 15.370100
38 43.137000 43.137000 43.137000 14.715200 15.549600 16.941300
39 45.098000 45.098000 45.098000 16.238800 17.090800 18.656400
40 47.059000 47.059000 47.059000 17.832700 18.753400 20.428000
41 49.020000 49.020000 49.020000 19.429600 20.509400 22.286900
42 50.980000 50.980000 50.980000 21.166300 22.355500 24.319100
43 52.941000 52.941000 52.941000 23.049900 24.257900 26.346000
44 54.902000 54.902000 54.902000 24.953400 26.254300 28.540600
45 56.863000 56.863000 56.863000 26.882500 28.217900 30.645000
46 58.824000 58.824000 58.824000 28.898700 30.337100 33.095700
47 60.784000 60.784000 60.784000 31.122600 32.633900 35.553000
48 62.745000 62.745000 62.745000 33.334200 34.964100 38.163400
49 64.706000 64.706000 64.706000 35.542800 37.353800 40.622000
50 66.667000 66.667000 66.667000 38.039600 40.017000 43.540100
51 68.627000 68.627000 68.627000 40.730500 42.891100 46.612300
52 70.588000 70.588000 70.588000 43.436800 45.672400 49.683300
53 72.549000 72.549000 72.549000 46.066100 48.484900 52.602400
54 76.471000 76.471000 76.471000 51.571300 54.356300 59.052900
55 78.431000 78.431000 78.431000 54.471800 57.348500 62.277900
56 80.392000 80.392000 80.392000 57.615800 60.646400 65.963200
57 82.353000 82.353000 82.353000 60.818400 64.065500 69.649700
58 84.314000 84.314000 84.314000 64.188900 67.575400 73.641600
59 86.275000 86.275000 86.275000 67.573500 71.238700 77.635200
60 88.235000 88.235000 88.235000 71.167500 75.020100 81.781700
61 90.196000 90.196000 90.196000 74.790900 78.862000 85.928800
62 92.157000 92.157000 92.157000 78.582100 82.794800 90.381300
63 94.118000 94.118000 94.118000 82.385600 86.694200 94.680600
64 96.078000 96.078000 96.078000 86.355800 90.930700 99.288400
65 98.039000 98.039000 98.039000 90.577100 95.312400 103.89600
66 25.000000 25.000000 0.0000000 3.9514100 4.7236900 0.4818010
67 50.000000 25.000000 0.0000000 13.109000 8.7887900 0.5687330
68 75.000000 25.000000 0.0000000 30.137800 16.356300 0.7311970
69 100.00000 25.000000 0.0000000 57.126100 28.341700 0.9992750
70 100.00000 50.000000 0.0000000 60.542900 39.338300 1.9923700
71 50.000000 50.000000 0.0000000 16.395600 19.798600 1.5676600
72 75.000000 50.000000 0.0000000 33.490800 27.399800 1.7296600
73 25.000000 50.000000 0.0000000 7.2260000 15.711600 1.4810800
74 25.000000 75.000000 0.0000000 13.293600 36.114100 3.3335200
75 50.000000 75.000000 0.0000000 22.463200 40.201200 3.4202500
76 75.000000 75.000000 0.0000000 39.498900 47.681300 3.5772800
77 100.00000 75.000000 0.0000000 66.566700 59.773200 3.8496500
78 25.000000 100.00000 0.0000000 23.044400 69.145300 6.3591000
79 50.000000 100.00000 0.0000000 32.271600 73.107200 6.4328600
80 75.000000 100.00000 0.0000000 49.336700 80.647800 6.5909400
81 100.00000 100.00000 0.0000000 76.271300 92.590300 6.8594600
82 100.00000 100.00000 25.000000 77.325400 93.243900 12.138500
83 50.000000 0.0000000 25.000000 12.938800 5.7392500 5.4085000
84 50.000000 25.000000 50.000000 17.182000 10.412700 22.502300
85 0.0000000 25.000000 0.0000000 1.0779700 3.4548600 0.4554850
86 0.0000000 25.000000 25.000000 2.0162200 3.8700100 5.5056400
87 25.490000 25.490000 25.490000 5.0297400 5.2790800 5.7370400
88 50.000000 25.000000 25.000000 14.093400 9.2253500 5.7072800
89 75.000000 25.000000 25.000000 31.131800 16.792300 5.9093900
90 0.0000000 50.000000 0.0000000 4.3228700 14.456800 1.4566600
91 0.0000000 50.000000 25.000000 5.3425100 15.016000 6.4999200
92 25.000000 50.000000 25.000000 8.1943000 16.243200 6.6311300
93 50.000000 50.000000 25.000000 17.440800 20.358600 6.7316700
94 75.000000 50.000000 25.000000 34.466400 27.931700 6.9140000
95 0.0000000 75.000000 0.0000000 10.390300 34.859400 3.3087300
96 0.0000000 75.000000 25.000000 11.363600 35.450800 8.3442700
97 25.000000 75.000000 25.000000 14.245900 36.738600 8.4818000
98 50.000000 75.000000 25.000000 23.542800 40.821900 8.6085500
99 75.000000 75.000000 25.000000 40.567300 48.394900 8.7860300
100 0.0000000 100.00000 0.0000000 20.067500 67.862400 6.3355900
101 0.0000000 100.00000 25.000000 21.047600 68.360600 11.330200
102 25.000000 100.00000 25.000000 24.021900 69.583900 11.479200
103 50.000000 100.00000 25.000000 33.275700 73.699500 11.613900
104 75.000000 100.00000 25.000000 50.305800 81.272800 11.817800
105 0.0000000 0.0000000 50.000000 4.0220100 1.5803100 21.776500
106 25.000000 0.0000000 50.000000 6.8825000 2.8483900 22.040200
107 50.000000 0.0000000 50.000000 15.988600 6.8961900 22.200800
108 75.000000 0.0000000 50.000000 32.973100 14.440100 22.502000
109 100.00000 0.0000000 50.000000 60.341000 26.595400 22.994500
110 100.00000 0.0000000 75.000000 65.776000 28.645400 53.752900
111 100.00000 25.000000 75.000000 66.870700 32.129800 53.942000
112 75.000000 0.0000000 25.000000 29.931500 13.288400 5.6314300
113 75.000000 25.000000 50.000000 34.224500 17.990200 22.788700
114 100.00000 25.000000 50.000000 61.384000 30.053100 23.294700
115 25.000000 25.000000 50.000000 7.9544000 6.3268200 22.346600
116 25.000000 50.000000 50.000000 11.268200 17.511800 23.357700
117 75.000000 50.000000 50.000000 37.617100 29.169100 23.792100
118 100.00000 50.000000 50.000000 64.706100 41.202000 24.302500
119 100.00000 50.000000 75.000000 70.209000 43.353000 54.977000
120 25.000000 75.000000 50.000000 17.310800 38.006900 25.165600
121 50.000000 75.000000 50.000000 26.583500 42.123100 25.389700
122 75.000000 75.000000 50.000000 43.747600 49.692800 25.665800
123 100.00000 75.000000 50.000000 70.679900 61.669000 26.134800
124 100.00000 75.000000 75.000000 76.450500 63.906200 57.026000
125 25.000000 100.00000 50.000000 27.088500 70.852300 28.170900
126 50.000000 100.00000 50.000000 36.404000 74.936200 28.385800
127 75.000000 100.00000 50.000000 53.449100 82.509900 28.660600
128 100.00000 100.00000 50.000000 80.473100 94.421600 29.139900
129 25.000000 0.0000000 75.000000 12.500200 4.9707700 52.886400
130 50.000000 0.0000000 75.000000 21.596300 9.0165500 53.030700
131 75.000000 0.0000000 75.000000 38.537200 16.545400 53.167600
132 75.000000 25.000000 75.000000 39.799900 20.120500 53.662200
133 75.000000 50.000000 100.00000 52.186800 34.840800 103.69400
134 25.000000 25.000000 75.000000 13.551500 8.4719000 53.076100
135 25.000000 50.000000 100.00000 25.944400 23.212900 103.41400
136 0.0000000 25.000000 50.000000 5.0373400 5.0420000 22.044900
137 0.0000000 25.000000 75.000000 10.643400 7.1855500 52.773500
138 0.0000000 50.000000 75.000000 13.912200 18.401600 53.656100
139 25.000000 50.000000 75.000000 16.935700 19.719800 54.111100
140 50.000000 50.000000 75.000000 26.149800 23.808300 54.407800
141 75.000000 50.000000 75.000000 43.198000 31.382100 54.697200
142 74.510000 74.510000 74.510000 48.789400 51.360100 55.827100
143 0.0000000 75.000000 75.000000 20.047500 38.925500 55.552800
144 25.000000 75.000000 75.000000 22.964800 40.214500 55.855300
145 50.000000 75.000000 75.000000 32.252900 44.331200 56.151900
146 0.0000000 75.000000 50.000000 14.406000 36.718400 24.922100
147 0.0000000 100.00000 50.000000 24.100300 69.535200 27.882900
148 0.0000000 100.00000 75.000000 29.696500 71.715100 58.648900
149 25.000000 100.00000 75.000000 32.658400 72.971700 58.950800
150 50.000000 100.00000 75.000000 41.988100 77.115600 59.094700
151 75.000000 100.00000 75.000000 59.080900 84.657100 59.383500
152 75.000000 100.00000 100.00000 68.092600 88.090700 108.83800
153 25.000000 0.0000000 100.00000 21.499500 8.3099500 102.18700
154 50.000000 0.0000000 100.00000 30.585300 12.343900 102.33100
155 0.0000000 0.0000000 75.000000 9.6089200 3.6900100 52.431100
156 0.0000000 0.0000000 100.00000 18.643300 7.0448300 102.03700
157 0.0000000 25.000000 100.00000 19.661500 10.629800 102.22800
158 25.000000 25.000000 100.00000 22.592300 11.874500 102.53000
159 50.000000 25.000000 100.00000 31.729300 15.956100 102.52200
160 75.000000 25.000000 100.00000 48.748100 23.469400 102.81100
161 100.00000 25.000000 100.00000 75.788400 35.500800 103.09100
162 100.00000 50.000000 100.00000 79.185400 46.845000 104.12700
163 50.000000 25.000000 75.000000 22.817600 12.580700 53.372700
164 50.000000 50.000000 100.00000 35.190800 27.302400 103.86300
165 0.0000000 50.000000 50.000000 8.3448800 16.222700 23.026400
166 0.0000000 50.000000 100.00000 23.014800 21.957300 103.26400
167 0.0000000 75.000000 100.00000 29.105600 42.513600 105.16200
168 25.000000 75.000000 100.00000 32.035200 43.769100 105.31100
169 50.000000 75.000000 100.00000 41.323200 47.885900 105.60700
170 75.000000 75.000000 100.00000 58.371400 55.459700 105.89700
171 100.00000 75.000000 100.00000 85.350100 67.429500 106.02400
172 0.0000000 100.00000 100.00000 38.752800 75.116300 108.10300
173 25.000000 100.00000 100.00000 41.711700 76.432500 108.25300
174 50.000000 100.00000 100.00000 50.999800 80.549200 108.54900
175 100.00000 100.00000 100.00000 95.029600 100.03300 109.11800
END_DATA
CAL    

DESCRIPTOR "Argyll Device Calibration State"
ORIGINATOR "Argyll dispread"
CREATED "Thu Nov 10 00:36:30 2022"
DEVICE_CLASS "DISPLAY"
COLOR_REP "RGB"

BEGIN_ARGYLL_DISPCAL_ARGS
-v2 -ql -t6500 -b120.0 -gs -f1.0 -k0 -A4.0 -d1 -c1 -yn -P0.539272030651,0.177685950413,1.24867724868 -X "PFS_Phosphor_Family_31Jan17.ccss"
END_ARGYLL_DISPCAL_ARGS


NUMBER_OF_FIELDS 4
BEGIN_DATA_FORMAT
RGB_I RGB_R RGB_G RGB_B
END_DATA_FORMAT

NUMBER_OF_SETS 256
BEGIN_DATA
0.00000000 0.00000000 0.00000000 0.00000000
0.00392157 0.01021870 0.00997275 0.00927673
0.00784314 0.01930700 0.01889440 0.01764340
0.01176470 0.02744260 0.02692270 0.02522780
0.01568630 0.03476810 0.03418570 0.03213460
0.01960780 0.04140950 0.04079090 0.03845380
0.02352940 0.04746820 0.04681610 0.04424850
0.02745100 0.05300850 0.05231830 0.04956800
0.03137250 0.05810590 0.05737080 0.05447330
0.03529410 0.06284330 0.06205730 0.05904620
0.03921570 0.06729010 0.06645060 0.06335760
0.04313730 0.07149380 0.07059990 0.06746250
0.04705880 0.07549480 0.07454610 0.07139180
0.05098040 0.07932990 0.07833020 0.07518040
0.05490200 0.08303470 0.08199390 0.07886420
0.05882350 0.08664550 0.08557280 0.08247550
0.06274510 0.09017910 0.08908750 0.08604650
0.06666670 0.09366800 0.09256670 0.08959010
0.07058820 0.09712200 0.09602340 0.09313390
0.07450980 0.10056600 0.09947670 0.09668610
0.07843140 0.10401000 0.10294200 0.10026700
0.08235290 0.10745700 0.10641900 0.10388100
0.08627450 0.11092100 0.10991900 0.10752500
0.09019610 0.11440600 0.11344700 0.11120400
0.09411760 0.11790700 0.11699500 0.11491000
0.09803920 0.12142200 0.12055900 0.11863500
0.10196100 0.12496700 0.12414400 0.12236500
0.10588200 0.12853600 0.12775000 0.12610500
0.10980400 0.13212300 0.13136400 0.12984100
0.11372500 0.13572300 0.13498300 0.13356600
0.11764700 0.13933300 0.13859900 0.13726900
0.12156900 0.14296300 0.14222600 0.14094800
0.12549000 0.14660600 0.14585800 0.14461800
0.12941200 0.15024500 0.14948000 0.14826800
0.13333300 0.15388000 0.15309300 0.15189400
0.13725500 0.15750500 0.15669400 0.15550500
0.14117600 0.16110300 0.16026100 0.15908500
0.14509800 0.16469300 0.16380800 0.16263400
0.14902000 0.16828200 0.16734900 0.16616800
0.15294100 0.17186300 0.17088100 0.16969800
0.15686300 0.17542100 0.17438400 0.17320700
0.16078400 0.17895900 0.17786400 0.17669400
0.16470600 0.18248900 0.18133300 0.18017300
0.16862700 0.18600800 0.18479100 0.18364700
0.17254900 0.18949900 0.18822000 0.18710400
0.17647100 0.19297000 0.19162900 0.19054500
0.18039200 0.19643100 0.19502000 0.19397400
0.18431400 0.19989900 0.19841300 0.19739400
0.18823500 0.20338300 0.20181700 0.20082300
0.19215700 0.20686200 0.20522000 0.20425300
0.19607800 0.21033100 0.20860900 0.20766600
0.20000000 0.21378500 0.21198200 0.21106000
0.20392200 0.21723100 0.21534200 0.21443200
0.20784300 0.22067700 0.21870200 0.21779600
0.21176500 0.22412200 0.22206100 0.22115200
0.21568600 0.22754900 0.22541100 0.22449800
0.21960800 0.23093900 0.22873200 0.22781500
0.22352900 0.23431100 0.23202900 0.23109800
0.22745100 0.23767100 0.23532100 0.23437200
0.23137300 0.24101000 0.23860200 0.23763700
0.23529400 0.24432700 0.24186500 0.24088400
0.23921600 0.24763900 0.24512200 0.24411600
0.24313700 0.25095700 0.24838300 0.24734500
0.24705900 0.25429600 0.25166600 0.25058200
0.25098000 0.25763600 0.25496300 0.25383900
0.25490200 0.26097500 0.25826600 0.25710600
0.25882400 0.26431400 0.26157600 0.26038200
0.26274500 0.26766000 0.26489600 0.26366800
0.26666700 0.27100300 0.26822700 0.26697200
0.27058800 0.27435400 0.27156200 0.27028700
0.27451000 0.27773300 0.27492300 0.27361800
0.27843100 0.28114400 0.27831900 0.27698300
0.28235300 0.28459300 0.28175700 0.28039100
0.28627500 0.28807700 0.28523900 0.28384700
0.29019600 0.29156700 0.28874700 0.28734500
0.29411800 0.29505400 0.29225600 0.29085000
0.29803900 0.29855000 0.29577200 0.29436300
0.30196100 0.30207900 0.29931600 0.29790000
0.30588200 0.30564800 0.30290800 0.30148500
0.30980400 0.30925700 0.30654700 0.30512100
0.31372500 0.31288400 0.31022000 0.30880400
0.31764700 0.31653300 0.31391300 0.31251100
0.32156900 0.32020300 0.31763500 0.31625200
0.32549000 0.32388900 0.32137700 0.32001800
0.32941200 0.32760100 0.32514300 0.32380500
0.33333300 0.33134500 0.32894200 0.32762100
0.33725500 0.33513500 0.33278100 0.33147100
0.34117600 0.33894900 0.33665700 0.33536100
0.34509800 0.34275700 0.34052300 0.33924600
0.34902000 0.34655900 0.34437700 0.34311500
0.35294100 0.35035500 0.34821800 0.34696900
0.35686300 0.35414700 0.35204900 0.35080800
0.36078400 0.35792500 0.35586200 0.35463800
0.36470600 0.36170100 0.35966400 0.35845000
0.36862700 0.36548100 0.36346800 0.36226400
0.37254900 0.36924900 0.36726400 0.36607700
0.37647100 0.37299600 0.37103900 0.36987500
0.38039200 0.37673200 0.37480100 0.37367000
0.38431400 0.38046500 0.37855400 0.37746100
0.38823500 0.38419500 0.38229700 0.38124400
0.39215700 0.38794300 0.38604800 0.38502000
0.39607800 0.39173000 0.38983500 0.38882400
0.40000000 0.39556600 0.39366600 0.39267200
0.40392200 0.39945200 0.39754100 0.39656200
0.40784300 0.40337300 0.40144900 0.40049200
0.41176500 0.40726700 0.40533200 0.40440800
0.41568600 0.41111800 0.40916700 0.40827000
0.41960800 0.41493100 0.41295300 0.41207500
0.42352900 0.41872800 0.41671500 0.41584300
0.42745100 0.42253500 0.42048500 0.41960700
0.43137300 0.42634700 0.42425800 0.42336900
0.43529400 0.43017100 0.42803700 0.42711800
0.43921600 0.43400300 0.43182500 0.43086500
0.44313700 0.43784100 0.43561800 0.43460700
0.44705900 0.44169800 0.43942900 0.43835500
0.45098000 0.44558100 0.44326700 0.44212500
0.45490200 0.44945900 0.44710900 0.44590900
0.45882400 0.45331900 0.45093800 0.44968300
0.46274500 0.45718300 0.45477000 0.45345500
0.46666700 0.46107700 0.45863400 0.45725500
0.47058800 0.46499100 0.46252300 0.46109200
0.47451000 0.46890500 0.46641000 0.46494200
0.47843100 0.47282500 0.47029900 0.46879800
0.48235300 0.47674400 0.47417800 0.47265500
0.48627500 0.48066900 0.47805200 0.47650700
0.49019600 0.48460000 0.48191900 0.48035800
0.49411800 0.48853800 0.48577900 0.48420400
0.49803900 0.49248300 0.48963200 0.48804700
0.50196100 0.49643600 0.49347700 0.49188600
0.50588200 0.50041100 0.49732100 0.49572200
0.50980400 0.50443300 0.50119700 0.49957300
0.51372500 0.50844900 0.50508200 0.50345000
0.51764700 0.51245200 0.50895000 0.50731600
0.52156900 0.51644100 0.51280100 0.51116900
0.52549000 0.52041600 0.51663600 0.51500700
0.52941200 0.52437800 0.52045500 0.51883100
0.53333300 0.52832400 0.52426000 0.52264200
0.53725500 0.53224800 0.52804700 0.52644200
0.54117600 0.53615700 0.53182200 0.53022600
0.54509800 0.54004200 0.53558300 0.53400600
0.54902000 0.54393200 0.53933700 0.53776800
0.55294100 0.54782900 0.54311000 0.54154100
0.55686300 0.55170600 0.54689300 0.54533500
0.56078400 0.55556100 0.55066700 0.54913000
0.56470600 0.55941000 0.55443700 0.55292800
0.56862700 0.56325900 0.55821500 0.55673900
0.57254900 0.56712000 0.56200500 0.56056300
0.57647100 0.57099900 0.56582100 0.56441100
0.58039200 0.57488400 0.56966500 0.56829500
0.58431400 0.57873700 0.57350900 0.57220300
0.58823500 0.58256400 0.57732900 0.57609700
0.59215700 0.58638700 0.58113100 0.57997600
0.59607800 0.59022800 0.58494700 0.58386200
0.60000000 0.59407300 0.58878700 0.58778200
0.60392200 0.59791600 0.59263300 0.59171500
0.60784300 0.60176700 0.59648400 0.59565300
0.61176500 0.60562600 0.60035700 0.59960500
0.61568600 0.60948700 0.60424200 0.60356500
0.61960800 0.61335500 0.60813600 0.60752300
0.62352900 0.61723600 0.61204400 0.61148200
0.62745100 0.62110400 0.61596700 0.61545500
0.63137300 0.62495000 0.61987800 0.61941600
0.63529400 0.62878300 0.62377100 0.62336100
0.63921600 0.63260600 0.62765400 0.62728800
0.64313700 0.63641700 0.63152200 0.63119300
0.64705900 0.64023900 0.63537500 0.63506600
0.65098000 0.64409400 0.63924600 0.63893400
0.65490200 0.64799800 0.64315100 0.64281600
0.65882400 0.65197200 0.64711400 0.64673700
0.66274500 0.65602400 0.65115700 0.65072400
0.66666700 0.66015700 0.65528100 0.65478700
0.67058800 0.66437400 0.65948800 0.65892300
0.67451000 0.66866700 0.66377900 0.66313400
0.67843100 0.67291300 0.66810700 0.66739900
0.68235300 0.67706800 0.67234900 0.67159700
0.68627500 0.68113300 0.67649900 0.67570500
0.69019600 0.68511200 0.68055800 0.67972400
0.69411800 0.68901200 0.68452700 0.68365300
0.69803900 0.69285400 0.68842100 0.68750700
0.70196100 0.69666500 0.69226700 0.69131200
0.70588200 0.70046000 0.69609600 0.69510400
0.70980400 0.70426400 0.69992200 0.69889600
0.71372500 0.70808400 0.70376700 0.70270700
0.71764700 0.71191000 0.70762100 0.70653200
0.72156900 0.71574400 0.71147500 0.71035700
0.72549000 0.71958900 0.71533600 0.71418400
0.72941200 0.72344000 0.71920200 0.71801800
0.73333300 0.72730600 0.72307600 0.72186200
0.73725500 0.73117600 0.72696400 0.72572600
0.74117600 0.73503100 0.73084000 0.72959600
0.74509800 0.73887800 0.73470700 0.73345800
0.74902000 0.74271100 0.73856300 0.73731600
0.75294100 0.74652900 0.74240500 0.74115900
0.75686300 0.75033800 0.74623400 0.74498500
0.76078400 0.75416500 0.75007600 0.74881200
0.76470600 0.75800300 0.75393600 0.75265900
0.76862700 0.76185100 0.75781200 0.75652800
0.77254900 0.76571300 0.76170500 0.76041900
0.77647100 0.76960300 0.76562700 0.76433400
0.78039200 0.77350900 0.76958000 0.76829500
0.78431400 0.77740900 0.77353400 0.77227800
0.78823500 0.78131600 0.77749000 0.77627100
0.79215700 0.78524100 0.78146100 0.78027700
0.79607800 0.78919200 0.78545600 0.78430000
0.80000000 0.79319200 0.78950000 0.78836300
0.80392200 0.79724700 0.79360200 0.79249000
0.80784300 0.80135700 0.79776200 0.79668300
0.81176500 0.80545200 0.80191600 0.80090500
0.81568600 0.80950300 0.80602700 0.80508300
0.81960800 0.81350900 0.81009000 0.80921500
0.82352900 0.81748300 0.81412000 0.81330800
0.82745100 0.82144600 0.81814000 0.81738900
0.83137300 0.82542700 0.82217800 0.82149000
0.83529400 0.82941500 0.82621600 0.82559800
0.83921600 0.83340400 0.83025100 0.82970200
0.84313700 0.83740100 0.83429000 0.83381100
0.84705900 0.84139900 0.83832600 0.83792100
0.85098000 0.84539500 0.84235500 0.84202900
0.85490200 0.84939700 0.84639100 0.84613400
0.85882400 0.85343100 0.85046500 0.85027500
0.86274500 0.85750300 0.85457900 0.85446300
0.86666700 0.86158200 0.85869700 0.85866600
0.87058800 0.86564200 0.86279500 0.86285200
0.87451000 0.86968300 0.86687400 0.86701600
0.87843100 0.87371500 0.87094300 0.87116800
0.88235300 0.87774500 0.87500600 0.87530800
0.88627500 0.88178200 0.87906600 0.87943000
0.89019600 0.88583300 0.88313400 0.88354900
0.89411800 0.88990800 0.88721600 0.88767100
0.89803900 0.89397100 0.89127600 0.89176600
0.90196100 0.89801100 0.89530800 0.89582900
0.90588200 0.90204000 0.89932500 0.89987900
0.90980400 0.90608900 0.90335400 0.90393700
0.91372500 0.91015800 0.90739300 0.90800300
0.91764700 0.91421800 0.91141600 0.91205300
0.92156900 0.91826100 0.91542200 0.91609000
0.92549000 0.92232200 0.91944900 0.92014500
0.92941200 0.92639600 0.92348100 0.92420200
0.93333300 0.93046100 0.92750200 0.92824700
0.93725500 0.93453500 0.93153200 0.93229800
0.94117600 0.93860700 0.93556000 0.93634200
0.94509800 0.94268600 0.93959700 0.94039000
0.94902000 0.94676500 0.94363300 0.94443200
0.95294100 0.95084700 0.94767100 0.94847100
0.95686300 0.95492900 0.95171300 0.95250700
0.96078400 0.95901400 0.95575600 0.95653900
0.96470600 0.96310100 0.95979900 0.96056800
0.96862700 0.96718800 0.96384200 0.96459000
0.97254900 0.97127700 0.96788400 0.96861200
0.97647100 0.97537000 0.97192800 0.97263400
0.98039200 0.97946600 0.97597100 0.97665600
0.98431400 0.98356600 0.98001600 0.98067900
0.98823500 0.98767000 0.98406100 0.98470300
0.99215700 0.99177600 0.98810600 0.98872700
0.99607800 0.99588700 0.99215300 0.99275100
1.00000000 1.00000000 0.99620000 0.99677600
END_DATA
