.local/share/DisplayCAL/storage/DisplayPort-0 #1 2022-11-09 20-51 120cdm² D6500 sRGB F-S XYZLUT+MTX/DisplayPort-0 #1 2022-11-09 20-51 120cdm² D6500 sRGB F-S XYZLUT+MTX.bpc.ti3
CTI3   

DESCRIPTOR "Argyll Calibration Target chart information 3"
ORIGINATOR "Argyll dispread"
CREATED "Wed Nov  9 21:04:16 2022"
DEVICE_CLASS "DISPLAY"
SINGLE_DIM_STEPS "4"
COMP_GREY_STEPS "52"
MULTI_DIM_STEPS "4"
COLOR_REP "RGB_XYZ"
TARGET_INSTRUMENT "X-Rite i1 DisplayPro, ColorMunki Display"
DISPLAY_TYPE_REFRESH "NO"
DISPLAY_TYPE_BASE_ID "1"
INSTRUMENT_TYPE_SPECTRAL "NO"
LUMINANCE_XYZ_CDM2 "113.614060 119.564824 130.398624"
NORMALIZED_TO_Y_100 "YES"
VIDEO_LUT_CALIBRATION_POSSIBLE "YES"

BEGIN_ARGYLL_COLPROF_ARGS
-v -qh -aX -bn -C "No copyright. Created with DisplayCAL 3.8.9.3 and ArgyllCMS 2.3.1" -M "Monitor 1, Output DisplayPort-0"
END_ARGYLL_COLPROF_ARGS

OBSERVER "1931_2"
USE_BLACK_POINT_COMPENSATION "NO"
BLACK_POINT_CORRECTION "0.0"
HIRES_B2A "YES"
HIRES_B2A_SIZE "-1"
SMOOTH_B2A "YES"
PATCH_SEQUENCE "OPTIMIZE_DISPLAY_RESPONSE_DELAY"

NUMBER_OF_FIELDS 7
BEGIN_DATA_FORMAT
SAMPLE_ID RGB_R RGB_G RGB_B XYZ_X XYZ_Y XYZ_Z
END_DATA_FORMAT

NUMBER_OF_SETS 115
BEGIN_DATA
1 100.00000 100.00000 100.00000 95.023000 100.00000 109.06100
2 100.00000 66.667000 100.00000 82.724904 59.255013 105.26900
3 100.00000 100.00000 100.00000 95.023000 100.00000 109.06100
4 100.00000 100.00000 100.00000 94.949000 99.971700 109.06100
5 0.0000000 0.0000000 0.0000000 0.0890445 0.0937083 0.1021992
6 33.333000 0.0000000 0.0000000 5.0474923 2.2936502 0.1979388
7 66.667000 0.0000000 0.0000000 22.119623 9.8652279 0.3631817
8 100.00000 0.0000000 0.0000000 55.956912 24.870323 0.7030996
9 100.00000 0.0000000 33.333000 57.557412 25.464323 10.122231
10 100.00000 33.333000 33.333000 59.372711 31.588621 10.636630
11 100.00000 66.667000 33.333000 65.681809 52.497215 12.520830
12 100.00000 66.667000 66.667000 71.549407 54.866514 44.158120
13 66.667000 0.0000000 100.00000 40.629917 16.747126 102.56500
14 100.00000 0.0000000 100.00000 74.329906 31.701621 102.99200
15 1.9608000 1.9608000 1.9608000 0.1666081 0.1778289 0.2049978
16 3.9216000 3.9216000 3.9216000 0.3194140 0.3415958 0.3977020
17 5.8824000 5.8824000 5.8824000 0.5011939 0.5351848 0.6022417
18 7.8431000 7.8431000 7.8431000 0.7102892 0.7592847 0.8469052
19 9.8039000 9.8039000 9.8039000 0.9684372 1.0305806 1.1338227
20 11.765000 11.765000 11.765000 1.2673203 1.3541705 1.4561078
21 13.726000 13.726000 13.726000 1.6283275 1.7265204 1.8678699
22 15.686000 15.686000 15.686000 2.0276221 2.1571103 2.3419839
23 17.647000 17.647000 17.647000 2.5098899 2.6619801 2.8841563
24 19.608000 19.608000 19.608000 3.0480789 3.2282499 3.5178894
25 21.569000 21.569000 21.569000 3.6551984 3.8566597 4.2108478
26 23.529000 23.529000 23.529000 4.2967281 4.5409795 4.9175806
27 25.490000 25.490000 25.490000 5.0109479 5.2886393 5.7651714
28 27.451000 27.451000 27.451000 5.8416176 6.1475990 6.7129715
29 29.412000 29.412000 29.412000 6.7027473 7.0605888 7.7017613
30 31.373000 31.373000 31.373000 7.6518370 8.0535485 8.7832910
31 33.333000 33.333000 33.333000 8.6492367 9.1104081 9.9279807
32 35.294000 35.294000 35.294000 9.7311364 10.255228 11.178630
33 37.255000 37.255000 37.255000 10.915726 11.478227 12.508730
34 39.216000 39.216000 39.216000 12.075426 12.730627 13.826930
35 41.176000 41.176000 41.176000 13.406725 14.138827 15.362329
36 43.137000 43.137000 43.137000 14.849725 15.559426 16.968629
37 45.098000 45.098000 45.098000 16.281624 17.166526 18.669228
38 47.059000 47.059000 47.059000 17.848024 18.770025 20.443627
39 49.020000 49.020000 49.020000 19.444423 20.527625 22.295327
40 50.980000 50.980000 50.980000 21.219423 22.342624 24.290926
41 52.941000 52.941000 52.941000 23.052122 24.278923 26.283426
42 54.902000 54.902000 54.902000 24.864922 26.248223 28.393125
43 56.863000 56.863000 56.863000 26.926021 28.303222 30.626624
44 58.824000 58.824000 58.824000 28.847420 30.395422 32.973224
45 60.784000 60.784000 60.784000 31.073320 32.694221 35.432723
46 62.745000 62.745000 62.745000 33.286819 35.026520 38.045422
47 64.706000 64.706000 64.706000 35.426418 37.330519 40.658321
48 66.667000 66.667000 66.667000 38.044018 39.992019 43.578220
49 68.627000 68.627000 68.627000 40.663417 42.840418 46.653319
50 70.588000 70.588000 70.588000 43.298016 45.595917 49.727118
51 72.549000 72.549000 72.549000 45.991415 48.472516 52.802017
52 74.510000 74.510000 74.510000 48.761714 51.317915 56.028916
53 76.471000 76.471000 76.471000 51.694113 54.373314 59.257315
54 78.431000 78.431000 78.431000 54.614212 57.462113 62.639114
55 80.392000 80.392000 80.392000 57.654612 60.733712 66.175213
56 82.353000 82.353000 82.353000 61.040511 64.213411 70.017312
57 84.314000 84.314000 84.314000 64.337009 67.757710 73.860711
58 86.275000 86.275000 86.275000 67.801508 71.393009 78.009910
59 88.235000 88.235000 88.235000 71.398707 75.177708 82.160108
60 90.196000 90.196000 90.196000 74.993006 79.022006 86.158207
61 92.157000 92.157000 92.157000 78.755305 82.957205 90.462006
62 94.118000 94.118000 94.118000 82.714904 87.043904 95.072104
63 96.078000 96.078000 96.078000 86.626903 91.222603 99.530803
64 98.039000 98.039000 98.039000 90.662301 95.524501 104.29600
65 33.333000 33.333000 0.0000000 6.9471472 8.3540284 0.7286816
66 66.667000 33.333000 0.0000000 24.098922 15.955526 0.8943825
67 100.00000 33.333000 0.0000000 57.661412 30.831621 1.2310734
68 100.00000 66.667000 0.0000000 63.937010 51.592315 3.0608628
69 66.667000 66.667000 0.0000000 30.364620 36.723520 2.7252629
70 33.333000 66.667000 0.0000000 13.179525 29.087322 2.5600430
71 33.333000 100.00000 0.0000000 25.608221 70.287809 6.2143319
72 66.667000 100.00000 0.0000000 42.894416 78.012807 6.3697018
73 100.00000 100.00000 0.0000000 76.231906 92.643302 6.7088817
74 100.00000 100.00000 33.333000 77.973305 93.548102 16.152929
75 100.00000 100.00000 66.667000 83.829203 95.763901 47.799619
76 0.0000000 33.333000 0.0000000 1.8904388 6.1258390 0.6817265
77 0.0000000 33.333000 33.333000 3.5721083 6.8739288 9.6999007
78 33.333000 66.667000 66.667000 20.714023 32.359021 43.289620
79 0.0000000 66.667000 0.0000000 8.0642069 26.890623 2.5141630
80 0.0000000 66.667000 33.333000 9.7798864 27.820422 11.487230
81 33.333000 66.667000 33.333000 14.974625 30.079322 11.770030
82 66.667000 66.667000 33.333000 32.222819 37.683819 12.021730
83 0.0000000 100.00000 0.0000000 20.450023 68.123410 6.1774919
84 0.0000000 100.00000 33.333000 22.083723 68.871710 15.177529
85 33.333000 100.00000 33.333000 27.255421 71.129909 15.351529
86 66.667000 100.00000 33.333000 44.587816 78.763007 15.651429
87 66.667000 100.00000 66.667000 50.382514 81.010606 47.220919
88 66.667000 0.0000000 33.333000 23.767122 10.481828 9.6239608
89 66.667000 0.0000000 66.667000 29.465120 12.629327 41.151921
90 100.00000 0.0000000 66.667000 63.290210 27.624022 41.884021
91 100.00000 33.333000 66.667000 65.206109 33.840620 42.407921
92 66.667000 33.333000 33.333000 25.856921 16.740526 10.174731
93 66.667000 33.333000 66.667000 31.594420 18.936825 41.675521
94 0.0000000 0.0000000 33.333000 1.7367967 0.7150327 9.1637396
95 0.0000000 33.333000 66.667000 9.3190165 9.0953881 41.085721
96 33.333000 33.333000 66.667000 14.405625 11.333627 41.386321
97 0.0000000 66.667000 66.667000 15.569625 30.093822 42.683421
98 0.0000000 100.00000 66.667000 27.760121 71.055909 46.326319
99 33.333000 100.00000 66.667000 33.020219 73.376608 46.779619
100 33.333000 0.0000000 33.333000 6.7185987 2.9227300 9.4115241
101 33.333000 0.0000000 66.667000 12.456026 5.0831594 40.862318
102 33.333000 0.0000000 100.00000 23.682322 9.2275481 102.42800
103 0.0000000 0.0000000 66.667000 7.4369888 2.8634801 40.408482
104 0.0000000 0.0000000 100.00000 18.730724 7.0343688 102.28000
105 0.0000000 33.333000 100.00000 20.674023 13.393827 102.95800
106 33.333000 33.333000 100.00000 25.658521 15.631826 103.10700
107 66.667000 33.333000 100.00000 42.882216 23.235624 103.24300
108 100.00000 33.333000 100.00000 76.325906 38.048419 103.66900
109 0.0000000 66.667000 100.00000 27.027121 34.670420 104.71100
110 33.333000 66.667000 100.00000 32.119219 36.900120 104.85900
111 66.667000 66.667000 100.00000 49.301214 44.476617 105.14800
112 66.667000 100.00000 100.00000 61.638010 85.308305 108.63600
113 0.0000000 100.00000 100.00000 39.067917 75.389108 108.19900
114 33.333000 100.00000 100.00000 44.278716 77.614707 108.34600
115 100.00000 100.00000 100.00000 95.010700 100.03300 109.21400
END_DATA
CAL    

DESCRIPTOR "Argyll Device Calibration State"
ORIGINATOR "Argyll dispread"
CREATED "Wed Nov  9 21:04:16 2022"
DEVICE_CLASS "DISPLAY"
COLOR_REP "RGB"

BEGIN_ARGYLL_DISPCAL_ARGS
-v2 -ql -t6500 -b120.0 -gs -f1.0 -k0 -A4.0 -d1 -c1 -yn -P0.424329501916,0.943181818182,1.24867724868 -X "PFS_Phosphor_Family_31Jan17.ccss"
END_ARGYLL_DISPCAL_ARGS


NUMBER_OF_FIELDS 4
BEGIN_DATA_FORMAT
RGB_I RGB_R RGB_G RGB_B
END_DATA_FORMAT

NUMBER_OF_SETS 256
BEGIN_DATA
0.00000000 0.00000000 0.00000000 0.00000000
0.00392157 0.01006550 0.01021500 0.00959780
0.00784314 0.01897890 0.01923080 0.01814510
0.01176470 0.02692730 0.02724700 0.02580530
0.01568630 0.03405930 0.03442110 0.03270980
0.01960780 0.04049210 0.04087730 0.03896240
0.02352940 0.04630360 0.04671270 0.04462750
0.02745100 0.05159070 0.05203250 0.04978840
0.03137250 0.05646170 0.05693860 0.05455640
0.03529410 0.06100280 0.06151230 0.05901950
0.03921570 0.06527770 0.06582180 0.06324030
0.04313730 0.06933920 0.06992010 0.06727260
0.04705880 0.07322880 0.07384780 0.07115470
0.05098040 0.07698190 0.07763990 0.07492150
0.05490200 0.08063360 0.08133040 0.07860340
0.05882350 0.08420800 0.08494540 0.08222820
0.06274510 0.08772890 0.08850010 0.08581920
0.06666670 0.09120850 0.09201090 0.08938230
0.07058820 0.09466270 0.09548490 0.09293330
0.07450980 0.09809120 0.09892800 0.09647150
0.07843140 0.10151300 0.10235700 0.10000300
0.08235290 0.10492400 0.10576700 0.10353300
0.08627450 0.10832300 0.10916100 0.10705000
0.09019610 0.11172400 0.11255800 0.11055900
0.09411760 0.11512400 0.11595000 0.11406800
0.09803920 0.11851600 0.11933400 0.11756700
0.10196100 0.12189500 0.12271100 0.12104500
0.10588200 0.12528000 0.12609500 0.12450800
0.10980400 0.12866700 0.12947600 0.12795800
0.11372500 0.13204500 0.13285000 0.13138500
0.11764700 0.13541500 0.13621400 0.13478800
0.12156900 0.13877200 0.13957300 0.13816000
0.12549000 0.14213600 0.14294600 0.14151800
0.12941200 0.14551000 0.14632900 0.14487600
0.13333300 0.14888500 0.14971200 0.14822900
0.13725500 0.15226100 0.15310000 0.15157800
0.14117600 0.15564800 0.15649500 0.15493700
0.14509800 0.15903500 0.15988200 0.15830000
0.14902000 0.16243400 0.16328200 0.16166800
0.15294100 0.16586200 0.16670100 0.16506200
0.15686300 0.16932200 0.17013900 0.16848800
0.16078400 0.17280400 0.17358100 0.17193500
0.16470600 0.17630200 0.17702400 0.17539700
0.16862700 0.17982200 0.18048000 0.17887700
0.17254900 0.18336900 0.18394800 0.18238500
0.17647100 0.18692300 0.18740900 0.18590800
0.18039200 0.19047800 0.19087000 0.18943600
0.18431400 0.19403900 0.19433700 0.19297600
0.18823500 0.19761800 0.19782400 0.19652800
0.19215700 0.20122000 0.20133500 0.20010100
0.19607800 0.20484000 0.20486000 0.20369100
0.20000000 0.20845500 0.20838300 0.20727000
0.20392200 0.21206400 0.21190300 0.21083800
0.20784300 0.21566000 0.21542100 0.21439200
0.21176500 0.21925900 0.21895100 0.21794300
0.21568600 0.22286600 0.22249700 0.22149800
0.21960800 0.22647200 0.22604500 0.22505800
0.22352900 0.23005000 0.22956800 0.22859500
0.22745100 0.23361400 0.23308600 0.23211100
0.23137300 0.23717900 0.23660800 0.23563100
0.23529400 0.24073700 0.24012500 0.23914900
0.23921600 0.24429500 0.24364400 0.24266600
0.24313700 0.24786800 0.24717800 0.24619300
0.24705900 0.25146700 0.25073900 0.24974000
0.25098000 0.25510000 0.25432900 0.25332200
0.25490200 0.25874000 0.25792500 0.25691900
0.25882400 0.26238400 0.26152500 0.26052600
0.26274500 0.26603300 0.26512800 0.26413900
0.26666700 0.26968800 0.26873800 0.26776600
0.27058800 0.27333900 0.27234200 0.27139300
0.27451000 0.27700100 0.27595600 0.27502300
0.27843100 0.28068200 0.27958700 0.27866600
0.28235300 0.28438900 0.28324100 0.28233000
0.28627500 0.28811700 0.28691700 0.28601600
0.29019600 0.29183000 0.29058200 0.28970200
0.29411800 0.29550400 0.29420900 0.29334700
0.29803900 0.29915200 0.29781300 0.29695800
0.30196100 0.30279700 0.30141300 0.30055400
0.30588200 0.30644300 0.30501800 0.30414800
0.30980400 0.31009000 0.30862800 0.30773800
0.31372500 0.31372400 0.31222400 0.31132000
0.31764700 0.31735200 0.31581400 0.31488700
0.32156900 0.32097200 0.31939700 0.31844900
0.32549000 0.32458400 0.32297400 0.32200100
0.32941200 0.32819200 0.32654500 0.32554600
0.33333300 0.33180500 0.33012200 0.32908600
0.33725500 0.33544600 0.33372200 0.33263300
0.34117600 0.33911200 0.33735200 0.33621400
0.34509800 0.34278000 0.34098600 0.33981000
0.34902000 0.34644900 0.34462100 0.34341200
0.35294100 0.35011600 0.34825600 0.34702000
0.35686300 0.35378300 0.35189100 0.35063000
0.36078400 0.35744600 0.35552400 0.35425100
0.36470600 0.36111700 0.35915800 0.35787500
0.36862700 0.36480100 0.36280500 0.36151700
0.37254900 0.36847600 0.36645200 0.36517700
0.37647100 0.37213500 0.37008500 0.36883200
0.38039200 0.37579600 0.37371600 0.37248800
0.38431400 0.37947300 0.37736200 0.37616300
0.38823500 0.38315800 0.38101700 0.37985600
0.39215700 0.38685400 0.38467800 0.38355700
0.39607800 0.39058400 0.38836800 0.38727200
0.40000000 0.39436300 0.39210100 0.39102200
0.40392200 0.39819400 0.39588500 0.39482000
0.40784300 0.40207400 0.39972100 0.39866800
0.41176500 0.40593900 0.40356000 0.40255100
0.41568600 0.40975800 0.40735400 0.40639500
0.41960800 0.41353600 0.41110600 0.41018600
0.42352900 0.41728900 0.41483100 0.41393400
0.42745100 0.42104200 0.41855100 0.41766000
0.43137300 0.42479600 0.42228000 0.42138400
0.43529400 0.42854600 0.42600700 0.42509900
0.43921600 0.43231000 0.42975700 0.42880100
0.44313700 0.43608200 0.43352200 0.43251200
0.44705900 0.43986300 0.43730200 0.43622600
0.45098000 0.44366700 0.44111100 0.43995100
0.45490200 0.44748600 0.44495200 0.44369900
0.45882400 0.45128400 0.44878600 0.44745900
0.46274500 0.45506800 0.45260800 0.45120200
0.46666700 0.45886000 0.45643800 0.45494200
0.47058800 0.46266700 0.46028700 0.45869800
0.47451000 0.46647300 0.46414100 0.46247300
0.47843100 0.47028000 0.46799200 0.46625200
0.48235300 0.47409200 0.47184700 0.47004300
0.48627500 0.47790800 0.47569900 0.47384000
0.49019600 0.48173000 0.47954900 0.47764400
0.49411800 0.48555800 0.48339700 0.48144700
0.49803900 0.48939300 0.48724400 0.48525100
0.50196100 0.49323500 0.49109000 0.48905800
0.50588200 0.49708500 0.49493600 0.49286600
0.50980400 0.50096300 0.49879400 0.49667900
0.51372500 0.50488300 0.50269500 0.50051300
0.51764700 0.50880100 0.50658800 0.50437400
0.52156900 0.51271300 0.51046600 0.50822100
0.52549000 0.51662000 0.51432900 0.51205400
0.52941200 0.52052300 0.51817700 0.51587100
0.53333300 0.52441900 0.52201000 0.51967300
0.53725500 0.52831100 0.52582800 0.52345700
0.54117600 0.53219300 0.52962800 0.52722900
0.54509800 0.53607000 0.53342100 0.53098800
0.54902000 0.53992700 0.53719300 0.53474300
0.55294100 0.54378900 0.54096400 0.53848300
0.55686300 0.54765900 0.54474500 0.54222600
0.56078400 0.55150500 0.54851600 0.54598600
0.56470600 0.55533200 0.55227100 0.54974100
0.56862700 0.55915900 0.55602800 0.55349300
0.57254900 0.56299100 0.55980100 0.55726600
0.57647100 0.56684300 0.56359900 0.56106700
0.58039200 0.57072900 0.56743900 0.56490800
0.58431400 0.57463500 0.57131800 0.56880800
0.58823500 0.57850700 0.57518600 0.57276200
0.59215700 0.58234300 0.57902600 0.57671000
0.59607800 0.58616300 0.58285100 0.58064100
0.60000000 0.58998700 0.58668500 0.58456900
0.60392200 0.59380600 0.59052300 0.58851300
0.60784300 0.59762200 0.59435800 0.59245800
0.61176500 0.60144200 0.59819600 0.59640500
0.61568600 0.60526500 0.60204500 0.60036000
0.61960800 0.60908500 0.60589600 0.60431700
0.62352900 0.61289900 0.60974700 0.60826300
0.62745100 0.61671600 0.61360300 0.61219700
0.63137300 0.62052300 0.61745600 0.61612700
0.63529400 0.62431800 0.62129400 0.62003900
0.63921600 0.62811700 0.62513000 0.62394200
0.64313700 0.63192600 0.62897300 0.62785000
0.64705900 0.63573300 0.63281600 0.63176000
0.65098000 0.63954400 0.63665900 0.63565900
0.65490200 0.64337700 0.64052000 0.63955500
0.65882400 0.64725200 0.64441300 0.64346100
0.66274500 0.65119100 0.64836300 0.64740300
0.66666700 0.65521500 0.65239200 0.65140700
0.67058800 0.65932800 0.65650900 0.65549900
0.67451000 0.66353300 0.66071500 0.65968000
0.67843100 0.66783100 0.66501200 0.66394800
0.68235300 0.67210900 0.66931400 0.66829100
0.68627500 0.67629400 0.67351700 0.67257100
0.69019600 0.68038800 0.67762100 0.67675100
0.69411800 0.68439300 0.68163100 0.68083600
0.69803900 0.68832300 0.68555800 0.68482800
0.70196100 0.69220300 0.68942600 0.68875000
0.70588200 0.69606100 0.69326200 0.69263200
0.70980400 0.69991200 0.69708600 0.69650600
0.71372500 0.70377200 0.70090900 0.70038000
0.71764700 0.70764500 0.70474300 0.70426700
0.72156900 0.71151900 0.70857400 0.70815800
0.72549000 0.71539400 0.71240100 0.71203700
0.72941200 0.71928900 0.71624100 0.71591900
0.73333300 0.72320100 0.72009400 0.71981800
0.73725500 0.72714400 0.72396900 0.72374000
0.74117600 0.73110700 0.72786200 0.72769300
0.74509800 0.73506200 0.73174800 0.73165000
0.74902000 0.73902200 0.73563600 0.73560200
0.75294100 0.74298000 0.73952500 0.73955800
0.75686300 0.74694000 0.74341500 0.74351200
0.76078400 0.75090900 0.74731200 0.74746800
0.76470600 0.75489900 0.75123300 0.75144100
0.76862700 0.75889600 0.75516300 0.75542900
0.77254900 0.76290200 0.75910400 0.75942700
0.77647100 0.76690800 0.76305100 0.76343500
0.78039200 0.77092500 0.76701400 0.76744900
0.78431400 0.77493400 0.77098300 0.77147500
0.78823500 0.77893800 0.77494500 0.77550000
0.79215700 0.78295400 0.77892100 0.77953400
0.79607800 0.78698500 0.78292100 0.78359000
0.80000000 0.79105100 0.78695400 0.78767200
0.80392200 0.79517400 0.79104500 0.79180900
0.80784300 0.79935800 0.79520200 0.79601600
0.81176500 0.80357200 0.79941600 0.80028900
0.81568600 0.80773500 0.80360100 0.80454200
0.81960800 0.81184200 0.80773700 0.80874000
0.82352900 0.81590800 0.81183300 0.81288800
0.82745100 0.81995700 0.81591100 0.81701800
0.83137300 0.82401300 0.81999400 0.82115200
0.83529400 0.82807200 0.82408700 0.82529700
0.83921600 0.83212700 0.82817600 0.82943600
0.84313700 0.83618800 0.83226900 0.83357500
0.84705900 0.84025900 0.83637000 0.83772400
0.85098000 0.84433500 0.84047600 0.84187800
0.85490200 0.84840800 0.84458000 0.84602600
0.85882400 0.85250700 0.84870700 0.85019200
0.86274500 0.85664700 0.85287800 0.85440600
0.86666700 0.86080300 0.85708100 0.85866000
0.87058800 0.86492000 0.86125300 0.86288500
0.87451000 0.86900400 0.86539200 0.86707400
0.87843100 0.87307600 0.86951600 0.87124800
0.88235300 0.87714100 0.87362900 0.87540900
0.88627500 0.88121300 0.87774500 0.87956700
0.89019600 0.88530000 0.88187100 0.88372600
0.89411800 0.88941500 0.88602200 0.88790500
0.89803900 0.89352500 0.89017200 0.89207500
0.90196100 0.89760800 0.89428800 0.89621100
0.90588200 0.90167900 0.89838300 0.90032800
0.90980400 0.90576100 0.90248000 0.90444300
0.91372500 0.90986300 0.90659200 0.90857100
0.91764700 0.91396300 0.91069900 0.91269600
0.92156900 0.91804500 0.91478700 0.91680500
0.92549000 0.92213700 0.91888500 0.92092100
0.92941200 0.92624000 0.92299300 0.92504300
0.93333300 0.93033200 0.92708800 0.92915300
0.93725500 0.93443400 0.93119000 0.93326800
0.94117600 0.93853100 0.93528800 0.93737700
0.94509800 0.94263300 0.93939000 0.94149100
0.94902000 0.94673500 0.94349100 0.94560100
0.95294100 0.95083900 0.94759300 0.94970900
0.95686300 0.95494500 0.95169500 0.95381600
0.96078400 0.95905200 0.95579700 0.95792100
0.96470600 0.96316000 0.95989900 0.96202400
0.96862700 0.96726900 0.96399900 0.96612300
0.97254900 0.97137900 0.96809800 0.97021900
0.97647100 0.97549100 0.97219800 0.97431500
0.98039200 0.97960600 0.97629700 0.97840900
0.98431400 0.98372200 0.98039500 0.98250200
0.98823500 0.98784000 0.98449400 0.98659400
0.99215700 0.99196000 0.98859200 0.99068500
0.99607800 0.99608300 0.99269000 0.99477400
1.00000000 1.00000000 0.99678800 0.99886300
END_DATA
